;PYCAM-META-DATA: Filename: C:\Users\samke\AppData\Local\Temp\_MEI106722\samples\TestModel.stl
;PYCAM-META-DATA: Timestamp: 2016-12-09 12:31:36.312000
;PYCAM-META-DATA: Version: 0.5.1.1
;Estimated machine time: 99 minutes
G40 (disable tool radius compensation)
G49 (disable tool length compensation)
G80 (cancel modal motion)
G54 (select coordinate system 1)
G90 (disable incremental moves)
G21 (metric)
G61 (exact path mode)
F200.00000
S1000.00000
;PYCAM_TOOLPATH_SETTINGS: START
;[Bounds]
;maxz = 17.0
;maxx = 66.6
;maxy = 98.5
;minx = 2.4
;miny = 5.5
;minz = 1.0
;
;[Tool]
;torus_radius = 0.25
;speed = 1000.0
;shape = CylindricalCutter
;tool_radius = 1.5
;feedrate = 200.0
;
;[Process]
;generator = PushCutter
;pocketing_type = none
;engrave_offset = 0.0
;milling_style = ignore
;path_direction = x
;step_down = 3.0
;postprocessor = SimpleCutter
;overlap_percent = 0
;material_allowance = 0.5
;
;PYCAM_TOOLPATH_SETTINGS: END
T1 M6
G0 Z25.0000
M3 (start spindle)
G04 P3 (wait for 3 seconds)
 X2.4000 Y5.5000
G1 Z17.0000
 X66.6000
 Y8.5000
 X2.4000
 Y11.5000
 X66.6000
 Y14.5000
 X2.4000
 Y17.5000
 X66.6000
 Y20.5000
 X2.4000
 Y23.5000
 X66.6000
 Y26.5000
 X2.4000
 Y29.5000
 X66.6000
 Y32.5000
 X2.4000
 Y35.5000
 X43.6444
G0 Z25.0000
 X48.4365
G1 Z17.0000
 X66.6000
 Y38.5000
 X48.5000
G0 Z25.0000
 X39.1444
G1 Z17.0000
 X2.4000
 Y41.5000
 X34.6444
G0 Z25.0000
 X48.5000
G1 Z17.0000
 X66.6000
 Y44.5000
 X48.5000
G0 Z25.0000
 X30.1444
G1 Z17.0000
 X2.4000
 Y47.5000
 X25.6444
G0 Z25.0000
 X48.5000
G1 Z17.0000
 X66.6000
 Y50.5000
 X48.5000
G0 Z25.0000
 X21.1771
G1 Z17.0000
 X2.4000
 Y53.5000
 X21.1771
G0 Z25.0000
 X48.5000
G1 Z17.0000
 X66.6000
 Y56.5000
 X48.5000
G0 Z25.0000
 X25.6444
G1 Z17.0000
 X2.4000
 Y59.5000
 X30.1444
G0 Z25.0000
 X48.5000
G1 Z17.0000
 X66.6000
 Y62.5000
 X48.5000
G0 Z25.0000
 X34.6444
G1 Z17.0000
 X2.4000
 Y65.5000
 X39.1444
G0 Z25.0000
 X48.5000
G1 Z17.0000
 X66.6000
 Y68.5000
 X48.4365
G0 Z25.0000
 X43.6444
G1 Z17.0000
 X2.4000
 Y71.5000
 X66.6000
 Y74.5000
 X2.4000
 Y77.5000
 X66.6000
 Y80.5000
 X2.4000
 Y83.5000
 X66.6000
 Y86.5000
 X2.4000
 Y89.5000
 X66.6000
 Y92.5000
 X2.4000
 Y95.5000
 X66.6000
 Y98.5000
 X2.4000
 Z14.3333
 X66.6000
 Y95.5000
 X2.4000
 Y92.5000
 X66.6000
 Y89.5000
 X2.4000
 Y86.5000
 X66.6000
 Y83.5000
 X2.4000
 Y80.5000
 X66.6000
 Y77.5000
 X2.4000
 Y74.5000
 X66.6000
 Y71.5000
 X50.0199
G0 Z25.0000
 X42.3612
G1 Z14.3333
 X2.4000
 Y68.5000
 X37.6444
G0 Z25.0000
 X50.7699
G1 Z14.3333
 X66.6000
 Y65.5000
 X51.1667
G0 Z25.0000
 X33.1444
G1 Z14.3333
 X2.4000
 Y62.5000
 X28.6444
G0 Z25.0000
 X51.1667
G1 Z14.3333
 X66.6000
 Y59.5000
 X51.1667
G0 Z25.0000
 X24.1444
G1 Z14.3333
 X2.4000
 Y56.5000
 X19.0279
G0 Z25.0000
 X51.1667
G1 Z14.3333
 X66.6000
 Y53.5000
 X51.1667
G0 Z25.0000
 X17.8333
G1 Z14.3333
 X2.4000
 Y50.5000
 X17.8333
G0 Z25.0000
 X51.1667
G1 Z14.3333
 X66.6000
 Y47.5000
 X51.1667
G0 Z25.0000
 X18.9778
G1 Z14.3333
 X2.4000
 Y44.5000
 X23.4778
G0 Z25.0000
 X51.1667
G1 Z14.3333
 X66.6000
 Y41.5000
 X51.1667
G0 Z25.0000
 X27.9778
G1 Z14.3333
 X2.4000
 Y38.5000
 X32.4778
G0 Z25.0000
 X50.9443
G1 Z14.3333
 X66.6000
 Y35.5000
 X50.4442
G0 Z25.0000
 X36.9778
G1 Z14.3333
 X2.4000
 Y32.5000
 X41.4778
G0 Z25.0000
 X49.9442
G1 Z14.3333
 X66.6000
 Y29.5000
 X2.4000
 Y26.5000
 X66.6000
 Y23.5000
 X2.4000
 Y20.5000
 X66.6000
 Y17.5000
 X2.4000
 Y14.5000
 X66.6000
 Y11.5000
 X2.4000
 Y8.5000
 X66.6000
 Y5.5000
 X2.4000
 Z11.6667
 X66.6000
 Y8.5000
 X2.4000
 Y11.5000
 X66.6000
 Y14.5000
 X2.4000
 Y17.5000
 X66.6000
 Y20.5000
 X2.4000
 Y23.5000
 X66.6000
 Y26.5000
 X50.4895
G0 Z25.0000
 X47.3421
G1 Z11.6667
 X2.4000
 Y29.5000
 X39.3111
G0 Z25.0000
 X51.4442
G1 Z11.6667
 X66.6000
 Y32.5000
 X51.9442
G0 Z25.0000
 X34.8111
G1 Z11.6667
 X2.4000
 Y35.5000
 X30.3111
G0 Z25.0000
 X52.4443
G1 Z11.6667
 X66.6000
 Y38.5000
 X52.9443
G0 Z25.0000
 X25.8111
G1 Z11.6667
 X2.4000
 Y41.5000
 X21.3111
G0 Z25.0000
 X53.4443
G1 Z11.6667
 X66.6000
 Y44.5000
 X53.8333
G0 Z25.0000
 X16.8111
G1 Z11.6667
 X2.4000
 Y47.5000
 X15.1667
G0 Z25.0000
 X53.8333
G1 Z11.6667
 X66.6000
 Y50.5000
 X53.8333
G0 Z25.0000
 X15.1667
G1 Z11.6667
 X2.4000
 Y53.5000
 X15.1667
G0 Z25.0000
 X53.8333
G1 Z11.6667
 X66.6000
 Y56.5000
 X53.8333
G0 Z25.0000
 X15.1667
G1 Z11.6667
 X2.4000
 Y59.5000
 X17.0279
G0 Z25.0000
 X53.8333
G1 Z11.6667
 X66.6000
 Y62.5000
 X53.8333
G0 Z25.0000
 X22.6444
G1 Z11.6667
 X2.4000
 Y65.5000
 X27.1444
G0 Z25.0000
 X53.8264
G1 Z11.6667
 X66.6000
 Y68.5000
 X53.1032
G0 Z25.0000
 X31.6444
G1 Z11.6667
 X2.4000
 Y71.5000
 X36.1444
G0 Z25.0000
 X52.3532
G1 Z11.6667
 X66.6000
 Y74.5000
 X51.6032
G0 Z25.0000
 X41.6945
G1 Z11.6667
 X2.4000
 Y77.5000
 X47.6945
 X50.4895
 X66.6000
 Y80.5000
 X2.4000
 Y83.5000
 X66.6000
 Y86.5000
 X2.4000
 Y89.5000
 X66.6000
 Y92.5000
 X2.4000
 Y95.5000
 X66.6000
 Y98.5000
 X2.4000
 Z9.0000
 X66.6000
 Y95.5000
 X2.4000
 Y92.5000
 X66.6000
 Y89.5000
 X2.4000
 Y86.5000
 X66.6000
 Y83.5000
 X2.4000
 Y80.5000
 X47.0279
G0 Z25.0000
 X52.4365
G1 Z9.0000
 X66.6000
 Y77.5000
 X53.1866
G0 Z25.0000
 X41.0279
G1 Z9.0000
 X2.4000
 Y74.5000
 X35.0279
G0 Z25.0000
 X53.9366
G1 Z9.0000
 X66.6000
 Y71.5000
 X54.6866
G0 Z25.0000
 X30.1444
G1 Z9.0000
 X2.4000
 Y68.5000
 X25.6444
G0 Z25.0000
 X55.4366
G1 Z9.0000
 X66.6000
 Y65.5000
 X56.1866
G0 Z25.0000
 X21.0279
G1 Z9.0000
 X2.4000
 Y62.5000
 X15.0279
G0 Z25.0000
 X56.5000
G1 Z9.0000
 X66.6000
 Y59.5000
 X56.5000
G0 Z25.0000
 X12.5000
G1 Z9.0000
 X2.4000
 Y56.5000
 X12.5000
G0 Z25.0000
 X56.5000
G1 Z9.0000
 X66.6000
 Y53.5000
 X56.5000
G0 Z25.0000
 X12.5000
G1 Z9.0000
 X2.4000
 Y50.5000
 X12.5000
G0 Z25.0000
 X56.5000
G1 Z9.0000
 X66.6000
 Y47.5000
 X56.4443
G0 Z25.0000
 X12.5000
G1 Z9.0000
 X2.4000
 Y44.5000
 X12.5000
G0 Z25.0000
 X55.9443
G1 Z9.0000
 X66.6000
 Y41.5000
 X55.4443
G0 Z25.0000
 X14.6445
G1 Z9.0000
 X2.4000
 Y38.5000
 X19.1445
G0 Z25.0000
 X54.9443
G1 Z9.0000
 X66.6000
 Y35.5000
 X54.4443
G0 Z25.0000
 X23.6444
G1 Z9.0000
 X2.4000
 Y32.5000
 X28.1445
G0 Z25.0000
 X53.9443
G1 Z9.0000
 X66.6000
 Y29.5000
 X53.4442
G0 Z25.0000
 X32.6444
G1 Z9.0000
 X2.4000
 Y26.5000
 X37.1444
G0 Z25.0000
 X52.9442
G1 Z9.0000
 X66.6000
 Y23.5000
 X52.4365
G0 Z25.0000
 X45.6755
G1 Z9.0000
 X2.4000
 Y20.5000
 X66.6000
 Y17.5000
 X2.4000
 Y14.5000
 X66.6000
 Y11.5000
 X2.4000
 Y8.5000
 X66.6000
 Y5.5000
 X2.4000
 Z6.3333
 X66.6000
 Y8.5000
 X2.4000
 Y11.5000
 X66.6000
 Y14.5000
 X2.4000
 Y17.5000
 X66.6000
 Y20.5000
 X53.9442
G0 Z25.0000
 X44.0088
G1 Z6.3333
 X2.4000
 Y23.5000
 X35.0340
G0 Z25.0000
 X54.4442
G1 Z6.3333
 X66.6000
 Y26.5000
 X54.9443
G0 Z25.0000
 X30.4778
G1 Z6.3333
 X2.4000
 Y29.5000
 X25.9778
G0 Z25.0000
 X55.4443
G1 Z6.3333
 X66.6000
 Y32.5000
 X55.9443
G0 Z25.0000
 X21.4778
G1 Z6.3333
 X2.4000
 Y35.5000
 X16.9778
G0 Z25.0000
 X56.4443
G1 Z6.3333
 X66.6000
 Y38.5000
 X56.9443
G0 Z25.0000
 X12.4778
G1 Z6.3333
 X2.4000
 Y41.5000
 X9.8333
G0 Z25.0000
 X57.4443
G1 Z6.3333
 X66.6000
 Y44.5000
 X57.9443
G0 Z25.0000
 X9.8333
G1 Z6.3333
 X2.4000
 Y47.5000
 X9.8333
G0 Z25.0000
 X58.4443
G1 Z6.3333
 X66.6000
 Y50.5000
 X58.9443
G0 Z25.0000
 X9.8333
G1 Z6.3333
 X2.4000
 Y53.5000
 X9.8333
G0 Z25.0000
 X59.1667
G1 Z6.3333
 X66.6000
 Y56.5000
 X59.1667
G0 Z25.0000
 X9.8333
G1 Z6.3333
 X2.4000
 Y59.5000
 X9.8333
G0 Z25.0000
 X59.1667
G1 Z6.3333
 X66.6000
 Y62.5000
 X59.1667
G0 Z25.0000
 X9.8333
G1 Z6.3333
 X2.4000
 Y65.5000
 X13.0279
G0 Z25.0000
 X58.5199
G1 Z6.3333
 X66.6000
 Y68.5000
 X57.7699
G0 Z25.0000
 X19.0279
G1 Z6.3333
 X2.4000
 Y71.5000
 X24.1444
G0 Z25.0000
 X57.0199
G1 Z6.3333
 X66.6000
 Y74.5000
 X56.2699
G0 Z25.0000
 X28.6444
G1 Z6.3333
 X2.4000
 Y77.5000
 X34.3612
G0 Z25.0000
 X55.5199
G1 Z6.3333
 X66.6000
 Y80.5000
 X54.7699
G0 Z25.0000
 X40.3612
G1 Z6.3333
 X2.4000
 Y83.5000
 X46.3612
G0 Z25.0000
 X54.0199
G1 Z6.3333
 X66.6000
 Y86.5000
 X2.4000
 Y89.5000
 X66.6000
 Y92.5000
 X2.4000
 Y95.5000
 X66.6000
 Y98.5000
 X2.4000
 Z3.6667
 X66.6000
 Y95.5000
 X2.4000
 Y92.5000
 X66.6000
 Y89.5000
 X54.4895
 X51.6946
 X2.4000
 Y86.5000
 X45.6945
G0 Z25.0000
 X55.6032
G1 Z3.6667
 X66.6000
 Y83.5000
 X56.3532
G0 Z25.0000
 X39.6945
G1 Z3.6667
 X2.4000
 Y80.5000
 X33.6945
G0 Z25.0000
 X57.1032
G1 Z3.6667
 X66.6000
 Y77.5000
 X57.8532
G0 Z25.0000
 X27.6945
G1 Z3.6667
 X2.4000
 Y74.5000
 X22.6444
G0 Z25.0000
 X58.6032
G1 Z3.6667
 X66.6000
 Y71.5000
 X59.3532
G0 Z25.0000
 X17.0279
G1 Z3.6667
 X2.4000
 Y68.5000
 X11.0279
G0 Z25.0000
 X60.1032
G1 Z3.6667
 X66.6000
 Y65.5000
 X60.8532
G0 Z25.0000
 X7.1736
G1 Z3.6667
 X2.4000
 Y62.5000
 X7.1667
G0 Z25.0000
 X61.6032
G1 Z3.6667
 X66.6000
 Y59.5000
 X61.8333
G0 Z25.0000
 X7.1667
G1 Z3.6667
 X2.4000
 Y56.5000
 X7.1667
G0 Z25.0000
 X61.8333
G1 Z3.6667
 X66.6000
 Y53.5000
 X61.4443
G0 Z25.0000
 X7.1667
G1 Z3.6667
 X2.4000
 Y50.5000
 X7.1667
G0 Z25.0000
 X60.9443
G1 Z3.6667
 X66.6000
 Y47.5000
 X60.4443
G0 Z25.0000
 X7.1667
G1 Z3.6667
 X2.4000
 Y44.5000
 X7.1667
G0 Z25.0000
 X59.9443
G1 Z3.6667
 X66.6000
 Y41.5000
 X59.4443
G0 Z25.0000
 X7.1667
G1 Z3.6667
 X2.4000
 Y38.5000
 X7.1736
G0 Z25.0000
 X58.9443
G1 Z3.6667
 X66.6000
 Y35.5000
 X58.4443
G0 Z25.0000
 X10.3111
G1 Z3.6667
 X2.4000
 Y32.5000
 X14.8111
G0 Z25.0000
 X57.9443
G1 Z3.6667
 X66.6000
 Y29.5000
 X57.4443
G0 Z25.0000
 X19.3111
G1 Z3.6667
 X2.4000
 Y26.5000
 X23.8111
G0 Z25.0000
 X56.9443
G1 Z3.6667
 X66.6000
 Y23.5000
 X56.4443
G0 Z25.0000
 X28.3111
G1 Z3.6667
 X2.4000
 Y20.5000
 X33.3421
G0 Z25.0000
 X55.9442
G1 Z3.6667
 X66.6000
 Y17.5000
 X55.4442
G0 Z25.0000
 X42.3421
G1 Z3.6667
 X2.4000
 Y14.5000
 X51.3421
G0 Z25.0000
 X54.4895
G1 Z3.6667
 X66.6000
 Y11.5000
 X2.4000
 Y8.5000
 X66.6000
 Y5.5000
 X2.4000
 Z1.0000
 X66.6000
 Y8.5000
 X2.4000
 Y11.5000
 X49.6754
G0 Z25.0000
 X56.4365
G1 Z1.0000
 X66.6000
 Y14.5000
 X56.9443
G0 Z25.0000
 X40.6754
G1 Z1.0000
 X2.4000
 Y17.5000
 X31.6754
G0 Z25.0000
 X57.4443
G1 Z1.0000
 X66.6000
 Y20.5000
 X57.9443
G0 Z25.0000
 X26.1444
G1 Z1.0000
 X2.4000
 Y23.5000
 X21.6444
G0 Z25.0000
 X58.4443
G1 Z1.0000
 X66.6000
 Y26.5000
 X58.9443
G0 Z25.0000
 X17.1444
G1 Z1.0000
 X2.4000
 Y29.5000
 X12.6444
G0 Z25.0000
 X59.4443
G1 Z1.0000
 X66.6000
 Y32.5000
 X59.9443
G0 Z25.0000
 X8.1444
G1 Z1.0000
 X2.4000
 Y35.5000
 X4.5635
G0 Z25.0000
 X60.4443
G1 Z1.0000
 X66.6000
 Y38.5000
 X60.9443
G0 Z25.0000
 X4.5000
G1 Z1.0000
 X2.4000
 Y41.5000
 X4.5000
G0 Z25.0000
 X61.4443
G1 Z1.0000
 X66.6000
 Y44.5000
 X61.9443
G0 Z25.0000
 X4.5000
G1 Z1.0000
 X2.4000
 Y47.5000
 X4.5000
G0 Z25.0000
 X62.4443
G1 Z1.0000
 X66.6000
 Y50.5000
 X62.9443
G0 Z25.0000
 X4.5000
G1 Z1.0000
 X2.4000
 Y53.5000
 X4.5000
G0 Z25.0000
 X63.4443
G1 Z1.0000
 X66.6000
 Y56.5000
 X63.9443
G0 Z25.0000
 X4.5000
G1 Z1.0000
 X2.4000
 Y59.5000
 X4.5000
G0 Z25.0000
 X64.4443
G1 Z1.0000
 X66.6000
 Y62.5000
 X63.9366
G0 Z25.0000
 X4.5000
G1 Z1.0000
 X2.4000
 Y65.5000
 X4.5000
G0 Z25.0000
 X63.1866
G1 Z1.0000
 X66.6000
 Y68.5000
 X62.4366
G0 Z25.0000
 X4.5635
G1 Z1.0000
 X2.4000
 Y71.5000
 X9.0279
G0 Z25.0000
 X61.6866
G1 Z1.0000
 X66.6000
 Y74.5000
 X60.9366
G0 Z25.0000
 X15.0279
G1 Z1.0000
 X2.4000
 Y77.5000
 X21.0279
G0 Z25.0000
 X60.1866
G1 Z1.0000
 X66.6000
 Y80.5000
 X59.4366
G0 Z25.0000
 X27.0279
G1 Z1.0000
 X2.4000
 Y83.5000
 X33.0279
G0 Z25.0000
 X58.6866
G1 Z1.0000
 X66.6000
 Y86.5000
 X57.9366
G0 Z25.0000
 X39.0279
G1 Z1.0000
 X2.4000
 Y89.5000
 X45.0279
G0 Z25.0000
 X57.1866
G1 Z1.0000
 X66.6000
 Y92.5000
 X56.4365
G0 Z25.0000
 X51.0279
G1 Z1.0000
 X2.4000
 Y95.5000
 X66.6000
 Y98.5000
 X2.4000
G0 Z25.0000
M5 (stop spindle)
G04 P3 (wait for 3 seconds)
G0 Z25.0000
M2 (end program)
