;PYCAM-META-DATA: Filename: C:\Users\samke\AppData\Local\Temp\_MEI106722\samples\TestModel.stl
;PYCAM-META-DATA: Timestamp: 2016-12-07 19:36:05.356000
;PYCAM-META-DATA: Version: 0.5.1.1
;Estimated machine time: 137 minutes
G40 (disable tool radius compensation)
G49 (disable tool length compensation)
G80 (cancel modal motion)
G54 (select coordinate system 1)
G90 (disable incremental moves)
G21 (metric)
G61 (exact path mode)
F200.00000
S1000.00000
;PYCAM_TOOLPATH_SETTINGS: START
;[Bounds]
;maxz = 11.0
;maxx = 66.6
;maxy = 98.5
;minx = 2.4
;miny = 5.5
;minz = -5.0
;
;[Tool]
;torus_radius = 0.25
;speed = 1000.0
;shape = CylindricalCutter
;tool_radius = 1.5
;feedrate = 200.0
;
;[Process]
;generator = PushCutter
;pocketing_type = none
;engrave_offset = 0.0
;milling_style = ignore
;path_direction = x
;step_down = 3.0
;postprocessor = SimpleCutter
;overlap_percent = 0
;material_allowance = 0.5
;
;PYCAM_TOOLPATH_SETTINGS: END
T1 M6
G0 Z25.0000
M3 (start spindle)
G04 P3 (wait for 3 seconds)
 X2.4000 Y5.5000
G1 Z11.0000
 X66.6000
 Y8.5000
 X2.4000
 Y11.5000
 X66.6000
 Y14.5000
 X2.4000
 Y17.5000
 X66.6000
 Y20.5000
 X2.4000
 Y23.5000
 X66.6000
 Y26.5000
 X2.4000
 Y29.5000
 X66.6000
 Y32.5000
 X2.4000
 Y35.5000
 X43.6444
G0 Z25.0000
 X48.4365
G1 Z11.0000
 X66.6000
 Y38.5000
 X48.5000
G0 Z25.0000
 X39.1444
G1 Z11.0000
 X2.4000
 Y41.5000
 X34.6444
G0 Z25.0000
 X48.5000
G1 Z11.0000
 X66.6000
 Y44.5000
 X48.5000
G0 Z25.0000
 X30.1444
G1 Z11.0000
 X2.4000
 Y47.5000
 X25.6444
G0 Z25.0000
 X48.5000
G1 Z11.0000
 X66.6000
 Y50.5000
 X48.5000
G0 Z25.0000
 X21.1771
G1 Z11.0000
 X2.4000
 Y53.5000
 X21.1771
G0 Z25.0000
 X48.5000
G1 Z11.0000
 X66.6000
 Y56.5000
 X48.5000
G0 Z25.0000
 X25.6444
G1 Z11.0000
 X2.4000
 Y59.5000
 X30.1444
G0 Z25.0000
 X48.5000
G1 Z11.0000
 X66.6000
 Y62.5000
 X48.5000
G0 Z25.0000
 X34.6444
G1 Z11.0000
 X2.4000
 Y65.5000
 X39.1444
G0 Z25.0000
 X48.5000
G1 Z11.0000
 X66.6000
 Y68.5000
 X48.4365
G0 Z25.0000
 X43.6444
G1 Z11.0000
 X2.4000
 Y71.5000
 X66.6000
 Y74.5000
 X2.4000
 Y77.5000
 X66.6000
 Y80.5000
 X2.4000
 Y83.5000
 X66.6000
 Y86.5000
 X2.4000
 Y89.5000
 X66.6000
 Y92.5000
 X2.4000
 Y95.5000
 X66.6000
 Y98.5000
 X2.4000
 Z8.3333
 X66.6000
 Y95.5000
 X2.4000
 Y92.5000
 X66.6000
 Y89.5000
 X2.4000
 Y86.5000
 X66.6000
 Y83.5000
 X2.4000
 Y80.5000
 X66.6000
 Y77.5000
 X2.4000
 Y74.5000
 X66.6000
 Y71.5000
 X50.0199
G0 Z25.0000
 X42.3612
G1 Z8.3333
 X2.4000
 Y68.5000
 X37.6444
G0 Z25.0000
 X50.7699
G1 Z8.3333
 X66.6000
 Y65.5000
 X51.1667
G0 Z25.0000
 X33.1444
G1 Z8.3333
 X2.4000
 Y62.5000
 X28.6444
G0 Z25.0000
 X51.1667
G1 Z8.3333
 X66.6000
 Y59.5000
 X51.1667
G0 Z25.0000
 X24.1444
G1 Z8.3333
 X2.4000
 Y56.5000
 X19.0279
G0 Z25.0000
 X51.1667
G1 Z8.3333
 X66.6000
 Y53.5000
 X51.1667
G0 Z25.0000
 X17.8333
G1 Z8.3333
 X2.4000
 Y50.5000
 X17.8333
G0 Z25.0000
 X51.1667
G1 Z8.3333
 X66.6000
 Y47.5000
 X51.1667
G0 Z25.0000
 X18.9778
G1 Z8.3333
 X2.4000
 Y44.5000
 X23.4778
G0 Z25.0000
 X51.1667
G1 Z8.3333
 X66.6000
 Y41.5000
 X51.1667
G0 Z25.0000
 X27.9778
G1 Z8.3333
 X2.4000
 Y38.5000
 X32.4778
G0 Z25.0000
 X50.9443
G1 Z8.3333
 X66.6000
 Y35.5000
 X50.4442
G0 Z25.0000
 X36.9778
G1 Z8.3333
 X2.4000
 Y32.5000
 X41.4778
G0 Z25.0000
 X49.9442
G1 Z8.3333
 X66.6000
 Y29.5000
 X2.4000
 Y26.5000
 X66.6000
 Y23.5000
 X2.4000
 Y20.5000
 X66.6000
 Y17.5000
 X2.4000
 Y14.5000
 X66.6000
 Y11.5000
 X2.4000
 Y8.5000
 X66.6000
 Y5.5000
 X2.4000
 Z5.6667
 X66.6000
 Y8.5000
 X2.4000
 Y11.5000
 X66.6000
 Y14.5000
 X2.4000
 Y17.5000
 X66.6000
 Y20.5000
 X2.4000
 Y23.5000
 X66.6000
 Y26.5000
 X50.4895
G0 Z25.0000
 X47.3421
G1 Z5.6667
 X2.4000
 Y29.5000
 X39.3111
G0 Z25.0000
 X51.4442
G1 Z5.6667
 X66.6000
 Y32.5000
 X51.9442
G0 Z25.0000
 X34.8111
G1 Z5.6667
 X2.4000
 Y35.5000
 X30.3111
G0 Z25.0000
 X52.4443
G1 Z5.6667
 X66.6000
 Y38.5000
 X52.9443
G0 Z25.0000
 X25.8111
G1 Z5.6667
 X2.4000
 Y41.5000
 X21.3111
G0 Z25.0000
 X53.4443
G1 Z5.6667
 X66.6000
 Y44.5000
 X53.8333
G0 Z25.0000
 X16.8111
G1 Z5.6667
 X2.4000
 Y47.5000
 X15.1667
G0 Z25.0000
 X53.8333
G1 Z5.6667
 X66.6000
 Y50.5000
 X53.8333
G0 Z25.0000
 X15.1667
G1 Z5.6667
 X2.4000
 Y53.5000
 X15.1667
G0 Z25.0000
 X53.8333
G1 Z5.6667
 X66.6000
 Y56.5000
 X53.8333
G0 Z25.0000
 X15.1667
G1 Z5.6667
 X2.4000
 Y59.5000
 X17.0279
G0 Z25.0000
 X53.8333
G1 Z5.6667
 X66.6000
 Y62.5000
 X53.8333
G0 Z25.0000
 X22.6444
G1 Z5.6667
 X2.4000
 Y65.5000
 X27.1444
G0 Z25.0000
 X53.8264
G1 Z5.6667
 X66.6000
 Y68.5000
 X53.1032
G0 Z25.0000
 X31.6444
G1 Z5.6667
 X2.4000
 Y71.5000
 X36.1444
G0 Z25.0000
 X52.3532
G1 Z5.6667
 X66.6000
 Y74.5000
 X51.6032
G0 Z25.0000
 X41.6945
G1 Z5.6667
 X2.4000
 Y77.5000
 X47.6945
 X50.4895
 X66.6000
 Y80.5000
 X2.4000
 Y83.5000
 X66.6000
 Y86.5000
 X2.4000
 Y89.5000
 X66.6000
 Y92.5000
 X2.4000
 Y95.5000
 X66.6000
 Y98.5000
 X2.4000
 Z3.0000
 X66.6000
 Y95.5000
 X2.4000
 Y92.5000
 X66.6000
 Y89.5000
 X2.4000
 Y86.5000
 X66.6000
 Y83.5000
 X2.4000
 Y80.5000
 X47.0279
G0 Z25.0000
 X52.4365
G1 Z3.0000
 X66.6000
 Y77.5000
 X53.1866
G0 Z25.0000
 X41.0279
G1 Z3.0000
 X2.4000
 Y74.5000
 X35.0279
G0 Z25.0000
 X53.9366
G1 Z3.0000
 X66.6000
 Y71.5000
 X54.6866
G0 Z25.0000
 X30.1444
G1 Z3.0000
 X2.4000
 Y68.5000
 X25.6444
G0 Z25.0000
 X55.4366
G1 Z3.0000
 X66.6000
 Y65.5000
 X56.1866
G0 Z25.0000
 X21.0279
G1 Z3.0000
 X2.4000
 Y62.5000
 X15.0279
G0 Z25.0000
 X56.5000
G1 Z3.0000
 X66.6000
 Y59.5000
 X56.5000
G0 Z25.0000
 X12.5000
G1 Z3.0000
 X2.4000
 Y56.5000
 X12.5000
G0 Z25.0000
 X56.5000
G1 Z3.0000
 X66.6000
 Y53.5000
 X56.5000
G0 Z25.0000
 X12.5000
G1 Z3.0000
 X2.4000
 Y50.5000
 X12.5000
G0 Z25.0000
 X56.5000
G1 Z3.0000
 X66.6000
 Y47.5000
 X56.4443
G0 Z25.0000
 X12.5000
G1 Z3.0000
 X2.4000
 Y44.5000
 X12.5000
G0 Z25.0000
 X55.9443
G1 Z3.0000
 X66.6000
 Y41.5000
 X55.4443
G0 Z25.0000
 X14.6445
G1 Z3.0000
 X2.4000
 Y38.5000
 X19.1445
G0 Z25.0000
 X54.9443
G1 Z3.0000
 X66.6000
 Y35.5000
 X54.4443
G0 Z25.0000
 X23.6444
G1 Z3.0000
 X2.4000
 Y32.5000
 X28.1445
G0 Z25.0000
 X53.9443
G1 Z3.0000
 X66.6000
 Y29.5000
 X53.4442
G0 Z25.0000
 X32.6444
G1 Z3.0000
 X2.4000
 Y26.5000
 X37.1444
G0 Z25.0000
 X52.9442
G1 Z3.0000
 X66.6000
 Y23.5000
 X52.4365
G0 Z25.0000
 X45.6755
G1 Z3.0000
 X2.4000
 Y20.5000
 X66.6000
 Y17.5000
 X2.4000
 Y14.5000
 X66.6000
 Y11.5000
 X2.4000
 Y8.5000
 X66.6000
 Y5.5000
 X2.4000
 Z0.3333
 X66.6000
 Y8.5000
 X2.4000
 Y11.5000
 X66.6000
 Y14.5000
 X2.4000
 Y17.5000
 X66.6000
 Y20.5000
 X53.9442
G0 Z25.0000
 X44.0088
G1 Z0.3333
 X2.4000
 Y23.5000
 X35.0340
G0 Z25.0000
 X54.4442
G1 Z0.3333
 X66.6000
 Y26.5000
 X54.9443
G0 Z25.0000
 X30.4778
G1 Z0.3333
 X2.4000
 Y29.5000
 X25.9778
G0 Z25.0000
 X55.4443
G1 Z0.3333
 X66.6000
 Y32.5000
 X55.9443
G0 Z25.0000
 X21.4778
G1 Z0.3333
 X2.4000
 Y35.5000
 X16.9778
G0 Z25.0000
 X56.4443
G1 Z0.3333
 X66.6000
 Y38.5000
 X56.9443
G0 Z25.0000
 X12.4778
G1 Z0.3333
 X2.4000
 Y41.5000
 X9.8333
G0 Z25.0000
 X57.4443
G1 Z0.3333
 X66.6000
 Y44.5000
 X57.9443
G0 Z25.0000
 X9.8333
G1 Z0.3333
 X2.4000
 Y47.5000
 X9.8333
G0 Z25.0000
 X58.4443
G1 Z0.3333
 X66.6000
 Y50.5000
 X58.9443
G0 Z25.0000
 X9.8333
G1 Z0.3333
 X2.4000
 Y53.5000
 X9.8333
G0 Z25.0000
 X59.1667
G1 Z0.3333
 X66.6000
 Y56.5000
 X59.1667
G0 Z25.0000
 X9.8333
G1 Z0.3333
 X2.4000
 Y59.5000
 X9.8333
G0 Z25.0000
 X59.1667
G1 Z0.3333
 X66.6000
 Y62.5000
 X59.1667
G0 Z25.0000
 X9.8333
G1 Z0.3333
 X2.4000
 Y65.5000
 X13.0279
G0 Z25.0000
 X58.5199
G1 Z0.3333
 X66.6000
 Y68.5000
 X57.7699
G0 Z25.0000
 X19.0279
G1 Z0.3333
 X2.4000
 Y71.5000
 X24.1444
G0 Z25.0000
 X57.0199
G1 Z0.3333
 X66.6000
 Y74.5000
 X56.2699
G0 Z25.0000
 X28.6444
G1 Z0.3333
 X2.4000
 Y77.5000
 X34.3612
G0 Z25.0000
 X55.5199
G1 Z0.3333
 X66.6000
 Y80.5000
 X54.7699
G0 Z25.0000
 X40.3612
G1 Z0.3333
 X2.4000
 Y83.5000
 X46.3612
G0 Z25.0000
 X54.0199
G1 Z0.3333
 X66.6000
 Y86.5000
 X2.4000
 Y89.5000
 X66.6000
 Y92.5000
 X2.4000
 Y95.5000
 X66.6000
 Y98.5000
 X2.4000
 Z-2.3333
 X66.6000
 Y95.5000
 X2.4000
 Y92.5000
 X66.6000
 Y89.5000
 X54.4895
 X51.6946
 X2.4000
 Y86.5000
 X45.6945
G0 Z25.0000
 X55.6032
G1 Z-2.3333
 X66.6000
 Y83.5000
 X56.3532
G0 Z25.0000
 X39.6945
G1 Z-2.3333
 X2.4000
 Y80.5000
 X33.6945
G0 Z25.0000
 X57.1032
G1 Z-2.3333
 X66.6000
 Y77.5000
 X57.8532
G0 Z25.0000
 X27.6945
G1 Z-2.3333
 X2.4000
 Y74.5000
 X22.6444
G0 Z25.0000
 X58.6032
G1 Z-2.3333
 X66.6000
 Y71.5000
 X59.3532
G0 Z25.0000
 X17.0279
G1 Z-2.3333
 X2.4000
 Y68.5000
 X11.0279
G0 Z25.0000
 X60.1032
G1 Z-2.3333
 X66.6000
 Y65.5000
 X60.8532
G0 Z25.0000
 X7.1736
G1 Z-2.3333
 X2.4000
 Y62.5000
 X7.1667
G0 Z25.0000
 X61.6032
G1 Z-2.3333
 X66.6000
 Y59.5000
 X61.8333
G0 Z25.0000
 X7.1667
G1 Z-2.3333
 X2.4000
 Y56.5000
 X7.1667
G0 Z25.0000
 X61.8333
G1 Z-2.3333
 X66.6000
 Y53.5000
 X61.4443
G0 Z25.0000
 X7.1667
G1 Z-2.3333
 X2.4000
 Y50.5000
 X7.1667
G0 Z25.0000
 X60.9443
G1 Z-2.3333
 X66.6000
 Y47.5000
 X60.4443
G0 Z25.0000
 X7.1667
G1 Z-2.3333
 X2.4000
 Y44.5000
 X7.1667
G0 Z25.0000
 X59.9443
G1 Z-2.3333
 X66.6000
 Y41.5000
 X59.4443
G0 Z25.0000
 X7.1667
G1 Z-2.3333
 X2.4000
 Y38.5000
 X7.1736
G0 Z25.0000
 X58.9443
G1 Z-2.3333
 X66.6000
 Y35.5000
 X58.4443
G0 Z25.0000
 X10.3111
G1 Z-2.3333
 X2.4000
 Y32.5000
 X14.8111
G0 Z25.0000
 X57.9443
G1 Z-2.3333
 X66.6000
 Y29.5000
 X57.4443
G0 Z25.0000
 X19.3111
G1 Z-2.3333
 X2.4000
 Y26.5000
 X23.8111
G0 Z25.0000
 X56.9443
G1 Z-2.3333
 X66.6000
 Y23.5000
 X56.4443
G0 Z25.0000
 X28.3111
G1 Z-2.3333
 X2.4000
 Y20.5000
 X33.3421
G0 Z25.0000
 X55.9442
G1 Z-2.3333
 X66.6000
 Y17.5000
 X55.4442
G0 Z25.0000
 X42.3421
G1 Z-2.3333
 X2.4000
 Y14.5000
 X51.3421
G0 Z25.0000
 X54.4895
G1 Z-2.3333
 X66.6000
 Y11.5000
 X2.4000
 Y8.5000
 X66.6000
 Y5.5000
 X2.4000
 Z-5.0000
 X66.6000
 Y8.5000
 X2.4000
 Y11.5000
 X49.6754
G0 Z25.0000
 X56.4365
G1 Z-5.0000
 X66.6000
 Y14.5000
 X56.9443
G0 Z25.0000
 X40.6754
G1 Z-5.0000
 X2.4000
 Y17.5000
 X31.6754
G0 Z25.0000
 X57.4443
G1 Z-5.0000
 X66.6000
 Y20.5000
 X57.9443
G0 Z25.0000
 X26.1444
G1 Z-5.0000
 X2.4000
 Y23.5000
 X21.6444
G0 Z25.0000
 X58.4443
G1 Z-5.0000
 X66.6000
 Y26.5000
 X58.9443
G0 Z25.0000
 X17.1444
G1 Z-5.0000
 X2.4000
 Y29.5000
 X12.6444
G0 Z25.0000
 X59.4443
G1 Z-5.0000
 X66.6000
 Y32.5000
 X59.9443
G0 Z25.0000
 X8.1444
G1 Z-5.0000
 X2.4000
 Y35.5000
 X4.5635
G0 Z25.0000
 X60.4443
G1 Z-5.0000
 X66.6000
 Y38.5000
 X60.9443
G0 Z25.0000
 X4.5000
G1 Z-5.0000
 X2.4000
 Y41.5000
 X4.5000
G0 Z25.0000
 X61.4443
G1 Z-5.0000
 X66.6000
 Y44.5000
 X61.9443
G0 Z25.0000
 X4.5000
G1 Z-5.0000
 X2.4000
 Y47.5000
 X4.5000
G0 Z25.0000
 X62.4443
G1 Z-5.0000
 X66.6000
 Y50.5000
 X62.9443
G0 Z25.0000
 X4.5000
G1 Z-5.0000
 X2.4000
 Y53.5000
 X4.5000
G0 Z25.0000
 X63.4443
G1 Z-5.0000
 X66.6000
 Y56.5000
 X63.9443
G0 Z25.0000
 X4.5000
G1 Z-5.0000
 X2.4000
 Y59.5000
 X4.5000
G0 Z25.0000
 X64.4443
G1 Z-5.0000
 X66.6000
 Y62.5000
 X63.9366
G0 Z25.0000
 X4.5000
G1 Z-5.0000
 X2.4000
 Y65.5000
 X4.5000
G0 Z25.0000
 X63.1866
G1 Z-5.0000
 X66.6000
 Y68.5000
 X62.4366
G0 Z25.0000
 X4.5635
G1 Z-5.0000
 X2.4000
 Y71.5000
 X9.0279
G0 Z25.0000
 X61.6866
G1 Z-5.0000
 X66.6000
 Y74.5000
 X60.9366
G0 Z25.0000
 X15.0279
G1 Z-5.0000
 X2.4000
 Y77.5000
 X21.0279
G0 Z25.0000
 X60.1866
G1 Z-5.0000
 X66.6000
 Y80.5000
 X59.4366
G0 Z25.0000
 X27.0279
G1 Z-5.0000
 X2.4000
 Y83.5000
 X33.0279
G0 Z25.0000
 X58.6866
G1 Z-5.0000
 X66.6000
 Y86.5000
 X57.9366
G0 Z25.0000
 X39.0279
G1 Z-5.0000
 X2.4000
 Y89.5000
 X45.0279
G0 Z25.0000
 X57.1866
G1 Z-5.0000
 X66.6000
 Y92.5000
 X56.4365
G0 Z25.0000
 X51.0279
G1 Z-5.0000
 X2.4000
 Y95.5000
 X66.6000
 Y98.5000
 X2.4000
G0 Z25.0000
M5 (stop spindle)
G04 P3 (wait for 3 seconds)
F200.00000
S1000.00000
;PYCAM_TOOLPATH_SETTINGS: START
;[Bounds]
;maxz = 11.0
;maxx = 66.6
;maxy = 98.5
;minx = 2.4
;miny = 5.5
;minz = -5.0
;
;[Tool]
;torus_radius = 0.25
;speed = 1000.0
;shape = CylindricalCutter
;tool_radius = 1.5
;feedrate = 200.0
;
;[Process]
;generator = DropCutter
;pocketing_type = none
;engrave_offset = 0.0
;milling_style = ignore
;path_direction = x
;step_down = 3.0
;postprocessor = PathAccumulator
;overlap_percent = 60
;material_allowance = 0.0
;
;PYCAM_TOOLPATH_SETTINGS: END
G0 Z25.0000
M3 (start spindle)
G04 P3 (wait for 3 seconds)
 X2.4000 Y5.5000
G1 Z-5.0000
 X66.6000
 Y6.6923
 X2.4000
 Y7.8846
 X66.6000
 Y9.0769
 X2.4000
 Y10.2692
 X66.6000
 Y11.4615
 X55.9622
 X55.7756 Z-4.8945
 X55.6823 Z-4.8260
 X55.5890 Z-4.7648
 X55.4956 Z-4.7097
 X55.4023 Z-4.6598
 X55.2157 Z-4.5738
 X55.1224 Z-4.5368
 X55.0291 Z-4.5037
 X54.8424 Z-4.4479
 X54.7491 Z-4.4251
 X54.6558 Z-4.4057
 X54.4692 Z-4.3767
 X54.3759 Z-4.3672
 X54.2826 Z-4.3613
 X54.0959 Z-4.3606
 X54.0026 Z-4.3662
 X53.9093 Z-4.3764
 X53.5360 Z-4.4590
 X51.3898 Z-4.9955
 X51.2965 Z-5.0000
 X2.4000
 Y12.6538
 X47.7506
 X47.9372 Z-4.9645
 X53.1628 Z-3.6581
 X53.3494 Z-3.6115
 X53.4427 Z-3.5923
 X53.4894 Z-3.5847
 X53.5360 Z-3.5784
 X53.7227 Z-3.5649
 X53.8160 Z-3.5644
 X53.9093 Z-3.5676
 X54.0959 Z-3.5848
 X54.1892 Z-3.5985
 X54.2826 Z-3.6155
 X54.4692 Z-3.6595
 X54.5625 Z-3.6866
 X54.6558 Z-3.7171
 X54.8424 Z-3.7891
 X54.9358 Z-3.8310
 X55.0291 Z-3.8774
 X55.1224 Z-3.9286
 X55.2157 Z-3.9852
 X55.3090 Z-4.0482
 X55.3557 Z-4.0824
 X55.3790 Z-4.1003
 X55.4023 Z-4.1187
 X55.7756 Z-4.5279
 X56.1295 Z-4.9998
 X56.1297 Z-5.0000
 X66.6000
 Y13.8462
 X56.3355
 X56.1488 Z-4.7606
 X55.3090 Z-3.6408
 X55.2624 Z-3.5793
 X55.2157 Z-3.5234
 X55.1224 Z-3.4265
 X55.0757 Z-3.3836
 X55.0291 Z-3.3435
 X54.9358 Z-3.2708
 X54.8424 Z-3.2060
 X54.7491 Z-3.1478
 X54.6558 Z-3.0953
 X54.4692 Z-3.0047
 X54.3759 Z-2.9658
 X54.2826 Z-2.9307
 X54.0959 Z-2.8713
 X54.0026 Z-2.8468
 X53.9093 Z-2.8256
 X53.7227 Z-2.7931
 X53.6294 Z-2.7819
 X53.5360 Z-2.7742
 X53.3494 Z-2.7695
 X53.2561 Z-2.7730
 X53.2094 Z-2.7764
 X53.1628 Z-2.7808
 X52.7895 Z-2.8571
 X44.2280 Z-4.9975
 X44.2047 Z-5.0000
 X2.4000
 Y15.0385
 X40.6354
 X40.6587 Z-4.9956
 X52.5096 Z-2.0329
 X52.6029 Z-2.0111
 X52.6962 Z-1.9947
 X52.7429 Z-1.9885
 X52.7895 Z-1.9835
 X52.9762 Z-1.9744
 X53.0695 Z-1.9758
 X53.1628 Z-1.9810
 X53.3494 Z-2.0017
 X53.4427 Z-2.0172
 X53.5360 Z-2.0359
 X53.7227 Z-2.0834
 X53.8160 Z-2.1122
 X53.9093 Z-2.1445
 X54.0959 Z-2.2206
 X54.1892 Z-2.2647
 X54.2359 Z-2.2885
 X54.2826 Z-2.3135
 X54.3759 Z-2.3674
 X54.4692 Z-2.4272
 X54.5625 Z-2.4939
 X54.6092 Z-2.5303
 X54.6325 Z-2.5494
 X54.6558 Z-2.5691
 X55.0291 Z-3.0026
 X56.5221 Z-4.9933
 X56.8953 Z-5.0000
 X66.6000
 Y16.2308
 X56.7262
 X56.7233 Z-4.9966
 X54.4925 Z-2.0223
 X54.4692 Z-1.9917
 X54.3759 Z-1.8849
 X54.3292 Z-1.8384
 X54.2826 Z-1.7953
 X54.1892 Z-1.7176
 X54.0959 Z-1.6489
 X54.0026 Z-1.5875
 X53.9093 Z-1.5321
 X53.7227 Z-1.4367
 X53.6294 Z-1.3957
 X53.5360 Z-1.3586
 X53.3494 Z-1.2956
 X53.2561 Z-1.2693
 X53.1628 Z-1.2464
 X52.9762 Z-1.2105
 X52.8828 Z-1.1976
 X52.7895 Z-1.1880
 X52.6029 Z-1.1795
 X52.5096 Z-1.1809
 X52.4629 Z-1.1832
 X52.4163 Z-1.1865
 X52.0430 Z-1.2553
 X37.1128 Z-4.9879
 X36.7395 Z-5.0000
 X2.4000
 Y17.4231
 X33.3802
 X33.7535 Z-4.9335
 X51.6698 Z-0.4544
 X51.7631 Z-0.4312
 X51.8564 Z-0.4122
 X51.9497 Z-0.3986
 X52.0430 Z-0.3898
 X52.2297 Z-0.3849
 X52.3230 Z-0.3883
 X52.4163 Z-0.3953
 X52.6029 Z-0.4196
 X52.6962 Z-0.4367
 X52.7895 Z-0.4572
 X52.9762 Z-0.5081
 X53.0695 Z-0.5388
 X53.1628 Z-0.5730
 X53.3494 Z-0.6532
 X53.4427 Z-0.6997
 X53.4894 Z-0.7247
 X53.5360 Z-0.7510
 X53.6294 Z-0.8079
 X53.7227 Z-0.8711
 X53.8160 Z-0.9419
 X53.8626 Z-0.9808
 X53.8860 Z-1.0012
 X53.9093 Z-1.0224
 X54.2826 Z-1.4774
 X56.9245 Z-5.0000
 X56.9303
 X66.6000
 Y18.6154
 X57.1286
 X57.0820 Z-4.9450
 X53.7227 Z-0.4659
 X53.6760 Z-0.4042
 X53.6294 Z-0.3478
 X53.5827 Z-0.2969
 X53.5594 Z-0.2731
 X53.5360 Z-0.2503
 X53.4427 Z-0.1669
 X53.3494 Z-0.0938
 X53.2561 Z-0.0287
 X53.1628 Z0.0297
 X52.9762 Z0.1301
 X52.8828 Z0.1733
 X52.7895 Z0.2124
 X52.6029 Z0.2792
 X52.5096 Z0.3072
 X52.4163 Z0.3319
 X52.2297 Z0.3712
 X52.1363 Z0.3859
 X52.0430 Z0.3972
 X51.8564 Z0.4094
 X51.7631 Z0.4100
 X51.7164 Z0.4089
 X51.6698 Z0.4067
 X51.2965 Z0.3465
 X30.0676 Z-4.9607
 X30.0443 Z-4.9666
 X30.0209 Z-4.9727
 X29.6477 Z-5.0000
 X2.4000
 Y19.8077
 X28.0613
 X28.1547 Z-4.9719
 X30.3942 Z-4.0760
 X30.7674 Z-3.9270
 X31.1407 Z-3.8003
 X31.5140 Z-3.7049
 X50.9233 Z1.1474
 X51.0166 Z1.1691
 X51.1099 Z1.1853
 X51.2032 Z1.1963
 X51.2965 Z1.2028
 X51.4831 Z1.2035
 X51.5765 Z1.1983
 X51.6698 Z1.1895
 X51.8564 Z1.1617
 X51.9497 Z1.1428
 X52.0430 Z1.1207
 X52.2297 Z1.0662
 X52.3230 Z1.0337
 X52.4163 Z0.9975
 X52.6029 Z0.9131
 X52.6962 Z0.8641
 X52.7429 Z0.8377
 X52.7895 Z0.8100
 X52.8828 Z0.7500
 X52.9762 Z0.6830
 X53.0695 Z0.6075
 X53.1161 Z0.5658
 X53.1628 Z0.5209
 X53.5360 Z0.0479
 X57.3218 Z-4.9998
 X57.3226 Z-5.0000
 X66.6000
 Y21.0000
 X57.5208
 X57.5194 Z-4.9983
 X52.9762 Z1.0594
 X52.8828 Z1.1834
 X52.8362 Z1.2400
 X52.8129 Z1.2661
 X52.7895 Z1.2911
 X52.6962 Z1.3811
 X52.6029 Z1.4592
 X52.5096 Z1.5282
 X52.4163 Z1.5899
 X52.2297 Z1.6957
 X52.1363 Z1.7412
 X52.0430 Z1.7824
 X51.8564 Z1.8530
 X51.7631 Z1.8828
 X51.6698 Z1.9092
 X51.4831 Z1.9520
 X51.3898 Z1.9684
 X51.2965 Z1.9815
 X51.1099 Z1.9974
 X51.0166 Z1.9999
 X50.9699 Z1.9998
 X50.9233 Z1.9987
 X50.8299 Z1.9933
 X50.7366 Z1.9835
 X50.5500 Z1.9484
 X32.6337 Z-2.5307
 X32.2605 Z-2.6296
 X31.8872 Z-2.7634
 X26.3000 Z-4.9983
 X26.2884 Z-5.0000
 X2.4000
 Y22.1923
 X24.4221
 X24.7953 Z-4.8848
 X33.0070 Z-1.6002
 X33.3802 Z-1.4604
 X33.7535 Z-1.3565
 X50.1301 Z2.7376
 X50.1767 Z2.7491
 X50.2701 Z2.7679
 X50.3634 Z2.7813
 X50.4567 Z2.7900
 X50.5500 Z2.7943
 X50.7366 Z2.7910
 X50.8299 Z2.7839
 X50.9233 Z2.7733
 X51.1099 Z2.7421
 X51.2032 Z2.7215
 X51.2965 Z2.6976
 X51.4831 Z2.6395
 X51.5765 Z2.6052
 X51.6698 Z2.5670
 X51.8564 Z2.4780
 X51.9497 Z2.4265
 X51.9964 Z2.3987
 X52.0430 Z2.3694
 X52.1363 Z2.3059
 X52.1830 Z2.2714
 X52.2297 Z2.2348
 X52.3230 Z2.1540
 X52.3696 Z2.1089
 X52.4163 Z2.0600
 X52.7895 Z1.5732
 X57.7191 Z-4.9996
 X57.7199 Z-5.0000
 X66.6000
 Y23.3846
 X57.9218
 X57.8751 Z-4.9427
 X52.1363 Z2.7090
 X52.0897 Z2.7710
 X52.0664 Z2.8001
 X52.0430 Z2.8277
 X51.9497 Z2.9259
 X51.8564 Z3.0098
 X51.7631 Z3.0832
 X51.7164 Z3.1167
 X51.6698 Z3.1485
 X51.4831 Z3.2600
 X51.3898 Z3.3079
 X51.2965 Z3.3513
 X51.1099 Z3.4259
 X51.0166 Z3.4576
 X50.9233 Z3.4857
 X50.7366 Z3.5319
 X50.6433 Z3.5501
 X50.5500 Z3.5649
 X50.3634 Z3.5844
 X50.2701 Z3.5888
 X50.2234 Z3.5897
 X50.1767 Z3.5896
 X50.0834 Z3.5864
 X49.9901 Z3.5789
 X49.8035 Z3.5494
 X49.4302 Z3.4569
 X34.8733 Z-0.1824
 X34.5000 Z-0.2926
 X34.1267 Z-0.4369
 X22.7424 Z-4.9906
 X22.5558 Z-5.0000
 X2.4000
 Y24.5769
 X20.9301
 X20.9316 Z-4.9996
 X35.2465 Z0.7264
 X35.6198 Z0.8737
 X35.9930 Z0.9916
 X36.3663 Z1.0851
 X49.3369 Z4.3278
 X49.3836 Z4.3392
 X49.4302 Z4.3493
 X49.5235 Z4.3652
 X49.6169 Z4.3761
 X49.7102 Z4.3825
 X49.8035 Z4.3846
 X49.9901 Z4.3775
 X50.0834 Z4.3686
 X50.1767 Z4.3562
 X50.3634 Z4.3216
 X50.4567 Z4.2993
 X50.5500 Z4.2736
 X50.7366 Z4.2119
 X50.8299 Z4.1756
 X50.9233 Z4.1353
 X51.1099 Z4.0417
 X51.2032 Z3.9874
 X51.2499 Z3.9580
 X51.2965 Z3.9271
 X51.3898 Z3.8599
 X51.4365 Z3.8232
 X51.4831 Z3.7840
 X51.5765 Z3.6970
 X51.6698 Z3.5940
 X52.0430 Z3.0984
 X58.1168 Z-5.0000
 X58.1172
 X66.6000
 Y25.7692
 X58.3184
 X58.2951 Z-4.9727
 X51.3198 Z4.3276
 X51.3082 Z4.3432
 X51.2965 Z4.3585
 X51.2032 Z4.4670
 X51.1565 Z4.5140
 X51.1099 Z4.5576
 X51.0166 Z4.6360
 X50.9699 Z4.6717
 X50.9233 Z4.7053
 X50.7366 Z4.8230
 X50.6433 Z4.8734
 X50.5500 Z4.9191
 X50.3634 Z4.9978
 X50.2701 Z5.0313
 X50.1767 Z5.0613
 X49.9901 Z5.1110
 X49.8968 Z5.1308
 X49.8035 Z5.1474
 X49.6169 Z5.1704
 X49.5235 Z5.1767
 X49.4302 Z5.1794
 X49.3369 Z5.1783
 X49.2436 Z5.1731
 X49.1503 Z5.1634
 X49.0570 Z5.1488
 X48.6837 Z5.0587
 X37.4860 Z2.2593
 X37.1128 Z2.1642
 X36.7395 Z2.0386
 X36.3663 Z1.8897
 X19.1965 Z-4.9782
 X18.8233 Z-5.0000
 X2.4000
 Y26.9615
 X17.3302
 X17.7035 Z-4.8600
 X37.8593 Z3.2023
 X38.2326 Z3.3352
 X38.6058 Z3.4335
 X48.4971 Z5.9063
 X48.5904 Z5.9294
 X48.6371 Z5.9394
 X48.6837 Z5.9480
 X48.7770 Z5.9612
 X48.8703 Z5.9697
 X48.9637 Z5.9738
 X49.0570 Z5.9739
 X49.2436 Z5.9630
 X49.3369 Z5.9523
 X49.4302 Z5.9383
 X49.6169 Z5.9002
 X49.7102 Z5.8762
 X49.8035 Z5.8487
 X49.9901 Z5.7833
 X50.0834 Z5.7450
 X50.1767 Z5.7026
 X50.3634 Z5.6040
 X50.4567 Z5.5467
 X50.5033 Z5.5157
 X50.5267 Z5.4996
 X50.5500 Z5.4830
 X50.6433 Z5.4115
 X50.6900 Z5.3723
 X50.7366 Z5.3303
 X50.9233 Z5.1214
 X58.5138 Z-4.9993
 X58.5145 Z-5.0000
 X66.6000
 Y28.1538
 X58.7616
 X58.3884 Z-4.5672
 X50.5500 Z5.8840
 X50.4567 Z6.0033
 X50.4100 Z6.0549
 X50.3634 Z6.1021
 X50.2701 Z6.1864
 X50.2234 Z6.2244
 X50.1767 Z6.2601
 X50.0834 Z6.3257
 X49.9901 Z6.3846
 X49.8968 Z6.4377
 X49.8035 Z6.4857
 X49.6169 Z6.5686
 X49.5235 Z6.6041
 X49.4302 Z6.6359
 X49.2436 Z6.6891
 X49.1503 Z6.7107
 X49.0570 Z6.7289
 X48.8703 Z6.7555
 X48.7770 Z6.7636
 X48.6837 Z6.7682
 X48.5904 Z6.7691
 X48.4971 Z6.7660
 X48.4038 Z6.7587
 X48.3105 Z6.7468
 X47.9372 Z6.6605
 X39.7256 Z4.6076
 X39.3523 Z4.5046
 X38.9791 Z4.3656
 X15.5689 Z-4.9985
 X15.5573 Z-5.0000
 X2.4000
 Y29.3462
 X13.7726
 X13.7843 Z-4.9969
 X40.0988 Z5.5289
 X40.4721 Z5.6726
 X40.8453 Z5.7818
 X47.7506 Z7.5081
 X47.8439 Z7.5295
 X47.8906 Z7.5380
 X47.9372 Z7.5452
 X48.0305 Z7.5559
 X48.1238 Z7.5621
 X48.2172 Z7.5641
 X48.3105 Z7.5622
 X48.4971 Z7.5477
 X48.5904 Z7.5352
 X48.6837 Z7.5194
 X48.8703 Z7.4779
 X48.9637 Z7.4521
 X49.0570 Z7.4229
 X49.2436 Z7.3537
 X49.3369 Z7.3133
 X49.4302 Z7.2686
 X49.5235 Z7.2193
 X49.6169 Z7.1648
 X49.7102 Z7.1043
 X49.7568 Z7.0715
 X49.7802 Z7.0544
 X49.8035 Z7.0368
 X49.8968 Z6.9606
 X49.9435 Z6.9184
 X49.9901 Z6.8730
 X50.1767 Z6.6466
 X58.9116 Z-4.9999
 X58.9117 Z-5.0000
 X66.6000
 Y30.5385
 X59.1349
 X58.7616 Z-4.5349
 X49.8035 Z7.4093
 X49.7102 Z7.5336
 X49.6635 Z7.5911
 X49.6169 Z7.6429
 X49.5235 Z7.7340
 X49.4769 Z7.7747
 X49.4302 Z7.8128
 X49.3369 Z7.8824
 X49.2436 Z7.9446
 X49.1503 Z8.0006
 X49.0570 Z8.0512
 X48.8703 Z8.1385
 X48.7770 Z8.1759
 X48.6837 Z8.2096
 X48.4971 Z8.2664
 X48.4038 Z8.2897
 X48.3105 Z8.3096
 X48.1238 Z8.3396
 X48.0305 Z8.3496
 X47.9372 Z8.3560
 X47.7506 Z8.3579
 X47.6573 Z8.3528
 X47.5640 Z8.3433
 X47.1907 Z8.2624
 X42.3384 Z7.0493
 X41.9651 Z6.9559
 X41.5919 Z6.8391
 X41.2186 Z6.6922
 X11.9884 Z-4.9999
 X11.9880 Z-5.0000
 X2.4000
 Y31.7308
 X10.1917
 X10.2384 Z-4.9845
 X42.3384 Z7.8555
 X42.7116 Z8.0042
 X43.0849 Z8.1287
 X43.4581 Z8.2235
 X46.8174 Z9.0633
 X47.0041 Z9.1096
 X47.0974 Z9.1280
 X47.1440 Z9.1352
 X47.1907 Z9.1411
 X47.3773 Z9.1534
 X47.4706 Z9.1533
 X47.5640 Z9.1496
 X47.7506 Z9.1314
 X47.8439 Z9.1172
 X47.9372 Z9.0997
 X48.1238 Z9.0547
 X48.2172 Z9.0272
 X48.3105 Z8.9961
 X48.4971 Z8.9230
 X48.5904 Z8.8804
 X48.6371 Z8.8575
 X48.6837 Z8.8334
 X48.7770 Z8.7815
 X48.8703 Z8.7240
 X48.9637 Z8.6600
 X49.0103 Z8.6252
 X49.0336 Z8.6070
 X49.0570 Z8.5882
 X49.4302 Z8.1719
 X59.3091 Z-5.0000
 X59.3098
 X66.6000
 Y32.9231
 X59.5081
 X59.1349 Z-4.5027
 X48.9637 Z9.0589
 X48.9170 Z9.1211
 X48.8937 Z9.1508
 X48.8703 Z9.1788
 X48.7770 Z9.2783
 X48.7304 Z9.3222
 X48.6837 Z9.3630
 X48.5904 Z9.4371
 X48.4971 Z9.5029
 X48.4038 Z9.5620
 X48.3105 Z9.6153
 X48.1238 Z9.7072
 X48.0305 Z9.7468
 X47.9372 Z9.7824
 X47.7506 Z9.8428
 X47.6573 Z9.8678
 X47.5640 Z9.8895
 X47.3773 Z9.9229
 X47.2840 Z9.9346
 X47.1907 Z9.9429
 X47.0041 Z9.9486
 X46.9108 Z9.9457
 X46.8641 Z9.9427
 X46.8174 Z9.9386
 X46.4442 Z9.8642
 X44.5779 Z9.3976
 X44.2047 Z9.2999
 X43.8314 Z9.1681
 X8.4188 Z-4.9970
 X8.3721 Z-5.0000
 X2.4000
 Y34.1154
 X6.6225
 X6.6458 Z-4.9908
 X44.9512 Z10.3314
 X45.3244 Z10.4696
 X45.6977 Z10.5718
 X46.1642 Z10.6884
 X46.2576 Z10.7096
 X46.3509 Z10.7252
 X46.3975 Z10.7310
 X46.4442 Z10.7357
 X46.6308 Z10.7436
 X46.7241 Z10.7416
 X46.8174 Z10.7359
 X47.0041 Z10.7142
 X47.0974 Z10.6983
 X47.1907 Z10.6790
 X47.3773 Z10.6306
 X47.4706 Z10.6013
 X47.5640 Z10.5684
 X47.7506 Z10.4912
 X47.8439 Z10.4464
 X47.8906 Z10.4223
 X47.9372 Z10.3969
 X48.0305 Z10.3422
 X48.1238 Z10.2814
 X48.2172 Z10.2136
 X48.2638 Z10.1766
 X48.2871 Z10.1572
 X48.3105 Z10.1371
 X48.6837 Z9.6971
 X59.6948 Z-4.9842
 X59.8814 Z-5.0000
 X66.6000
 Y35.3077
 X59.9055
 X59.9047 Z-4.9992
 X48.1705 Z10.6464
 X48.1238 Z10.7086
 X48.0772 Z10.7666
 X48.0305 Z10.8187
 X47.9839 Z10.8664
 X47.9605 Z10.8888
 X47.9489 Z10.8997
 X47.9430 Z10.9051
 X47.9401 Z10.9077
 X47.9387 Z10.9091
 X47.9372 Z10.9104
 X47.8906 Z10.9513
 X47.8672 Z10.9708
 X47.8556 Z10.9802
 X47.8497 Z10.9849
 X47.8468 Z10.9873
 X47.8454 Z10.9884
 X47.8446 Z10.9890
 X47.8443 Z10.9893
 X47.8439 Z10.9896
 X47.8381 Z10.9942
 X47.8351 Z10.9965
 X47.8337 Z10.9976
 X47.8330 Z10.9982
 X47.8326 Z10.9985
 X47.8324 Z10.9986
 X47.8323 Z10.9987
 Z10.9988
 X47.8322
 X47.8315 Z10.9994
 X47.8308 Z10.9999
 X47.8300 Z11.0000
 X44.8345
 X44.8112 Z10.9908
 X6.5058 Z-4.3314
 X6.1326 Z-4.4817
 X5.7593 Z-4.6561
 X5.5727 Z-4.7557
 X5.4794 Z-4.8086
 X5.4327 Z-4.8358
 X5.4094 Z-4.8497
 X5.3977 Z-4.8566
 X5.3860 Z-4.8636
 X5.2927 Z-4.9209
 X5.2461 Z-4.9503
 X5.2227 Z-4.9652
 X5.2111 Z-4.9728
 X5.2053 Z-4.9765
 X5.2023 Z-4.9784
 X5.2009 Z-4.9794
 X5.1994 Z-4.9803
 X5.1878 Z-4.9879
 X5.1819 Z-4.9917
 X5.1790 Z-4.9936
 X5.1775 Z-4.9946
 X5.1768 Z-4.9951
 X5.1765 Z-4.9953
 X5.1763 Z-4.9954
 X5.1761 Z-4.9956
 X5.1732 Z-4.9975
 X5.1717 Z-4.9984
 X5.1710 Z-4.9989
 X5.1706 Z-4.9991
 X5.1704 Z-4.9993
 X5.1703
 Z-4.9994
 X5.1695 Z-4.9999
 X5.1692 Z-5.0000
 X2.4000
 Y36.5000
 X4.9997
 X5.0011 Z-4.9989
 X5.3860 Z-4.6140
 X5.5727 Z-4.4290
 X5.7593 Z-4.2600
 X6.1326 Z-3.9658
 X6.5058 Z-3.7156
 X6.8791 Z-3.5015
 X7.2523 Z-3.3207
 X7.6256 Z-3.1681
 X43.0382 Z10.9970
 X43.0849 Z11.0000
 X47.9999
 X48.0014 Z10.9986
 X48.3105 Z10.6895
 X48.6837 Z10.2271
 X60.1037 Z-4.9996
 X60.1041 Z-5.0000
 X66.6000
 Y37.6923
 X60.3028
 X60.3013 Z-4.9981
 X49.4302 Z9.4967
 X49.0570 Z9.9430
 X48.0006 Z10.9994
 X47.9999 Z11.0000
 X41.2653
 X41.2186 Z10.9845
 X8.7453 Z-2.0048
 X8.3721 Z-2.1610
 X7.9988 Z-2.3482
 X7.6256 Z-2.5689
 X7.2523 Z-2.8268
 X6.8791 Z-3.1313
 X6.5058 Z-3.4942
 X5.0128 Z-4.9872
 X4.6395 Z-5.0000
 X2.4000
 Y38.8846
 X4.9997
 X5.0011 Z-4.9989
 X7.6256 Z-2.3744
 X7.9988 Z-2.0052
 X8.3721 Z-1.6896
 X8.7453 Z-1.4237
 X9.1186 Z-1.1961
 X9.4919 Z-1.0025
 X9.8651 Z-0.8415
 X39.4686 Z10.9999
 X39.4690 Z11.0000
 X47.9999
 X48.0014 Z10.9986
 X49.8035 Z9.1965
 X50.1767 Z8.7663
 X60.5011 Z-4.9995
 X60.5018 Z-5.0000
 X66.6000
 Y40.0769
 X60.7008
 X60.7001 Z-4.9999
 X50.9233 Z8.0359
 X50.5500 Z8.4500
 X48.0006 Z10.9994
 X47.9999 Z11.0000
 X37.6843
 X37.6727 Z10.9969
 X11.3581 Z0.4711
 X10.9849 Z0.3218
 X10.6116 Z0.1548
 X10.2384 Z-0.0453
 X9.8651 Z-0.2798
 X9.4919 Z-0.5542
 X9.1186 Z-0.8820
 X8.7453 Z-1.2547
 X5.0128 Z-4.9872
 X4.6395 Z-5.0000
 X2.4000
 Y41.2692
 X4.9997
 X5.0011 Z-4.9989
 X10.2384 Z0.2384
 X10.4250 Z0.4176
 X10.6116 Z0.5792
 X10.9849 Z0.8626
 X11.3581 Z1.1042
 X11.7314 Z1.3108
 X12.1047 Z1.4843
 X12.4779 Z1.6344
 X35.8880 Z10.9984
 X35.8997 Z11.0000
 X47.9999
 X48.0014 Z10.9986
 X51.4831 Z7.5169
 X51.6698 Z7.3055
 X60.8987 Z-4.9998
 X60.8989 Z-5.0000
 X66.6000
 Y42.4615
 X61.0978
 X61.0976 Z-4.9999
 X52.4629 Z6.5129
 X52.4163 Z6.5730
 X52.0430 Z6.9570
 X48.0006 Z10.9994
 X47.9999 Z11.0000
 X34.1267
 X33.7535 Z10.8600
 X13.5977 Z2.7977
 X13.2244 Z2.6455
 X12.8512 Z2.4656
 X12.4779 Z2.2524
 X12.1047 Z2.0034
 X11.9180 Z1.8632
 X11.7314 Z1.7106
 X11.3581 Z1.3581
 X5.0128 Z-4.9872
 X4.6395 Z-5.0000
 X2.4000
 Y43.6538
 X4.9997
 X5.0011 Z-4.9989
 X12.4779 Z2.4779
 X12.8512 Z2.8396
 X13.2244 Z3.1426
 X13.5977 Z3.3993
 X13.9709 Z3.6191
 X14.3442 Z3.8054
 X14.7174 Z3.9609
 X32.2605 Z10.9782
 X32.6337 Z11.0000
 X47.9999
 X48.0014 Z10.9986
 X53.0695 Z5.9305
 X53.1628 Z5.8342
 X53.5360 Z5.3470
 X61.2957 Z-4.9991
 X61.2964 Z-5.0000
 X66.6000
 Y44.8462
 X61.4954
 X61.4947 Z-4.9995
 X54.0959 Z4.8655
 X53.9093 Z5.0906
 X53.5360 Z5.4640
 X48.0006 Z10.9994
 X47.9999 Z11.0000
 X30.5269
 X30.5254 Z10.9995
 X15.8372 Z5.1242
 X15.4640 Z4.9641
 X15.0907 Z4.7714
 X14.7174 Z4.5448
 X14.3442 Z4.2801
 X13.9709 Z3.9661
 X13.5977 Z3.5977
 X5.0128 Z-4.9872
 X4.6395 Z-5.0000
 X2.4000
 Y46.0385
 X4.9997
 X5.0011 Z-4.9989
 X14.7174 Z4.7174
 X15.0907 Z5.0898
 X15.4640 Z5.4157
 X15.8372 Z5.6889
 X16.2105 Z5.9224
 X16.5837 Z6.1215
 X16.9570 Z6.2875
 X28.7145 Z10.9906
 X28.9012 Z11.0000
 X47.9999
 X48.0014 Z10.9986
 X54.6558 Z4.3442
 X55.0291 Z3.8863
 X61.6937 Z-4.9999
 X61.6952 Z-5.0000
 X66.6000
 Y47.2308
 X61.8935
 X61.8876 Z-4.9935
 X55.7756 Z3.1559
 X55.4023 Z3.5977
 X48.0006 Z10.9994
 X47.9999 Z11.0000
 X27.0349
 X26.6616 Z10.8848
 X18.4500 Z7.6001
 X18.0767 Z7.4502
 X17.7035 Z7.2777
 X17.3302 Z7.0721
 X16.9570 Z6.8315
 X16.7703 Z6.6963
 X16.5837 Z6.5495
 X16.2105 Z6.2105
 X5.0128 Z-4.9872
 X4.6395 Z-5.0000
 X2.4000
 Y48.4231
 X4.9997
 X5.0011 Z-4.9989
 X17.3302 Z7.3302
 X17.5169 Z7.5141
 X17.7035 Z7.6811
 X18.0767 Z7.9725
 X18.4500 Z8.2205
 X18.8233 Z8.4327
 X19.1965 Z8.6116
 X19.5698 Z8.7634
 X25.1569 Z10.9983
 X25.1686 Z11.0000
 X47.9999
 X48.0014 Z10.9986
 X56.1488 Z2.8512
 X56.5221 Z2.4255
 X62.0910 Z-4.9998
 X62.0914 Z-5.0000
 X66.6000
 Y49.6154
 X62.3076
 X62.1209 Z-4.7747
 X57.2686 Z1.6951
 X56.8953 Z2.1047
 X48.0006 Z10.9994
 X47.9999 Z11.0000
 X23.3956
 X23.3023 Z10.9718
 X20.6895 Z9.9267
 X20.3163 Z9.7717
 X19.9430 Z9.5864
 X19.5698 Z9.3676
 X19.1965 Z9.1119
 X18.8233 Z8.8105
 X18.4500 Z8.4500
 X5.0128 Z-4.9872
 X4.6395 Z-5.0000
 X2.4000
 Y50.8077
 X4.9997
 X5.0011 Z-4.9989
 X19.5698 Z9.5698
 X19.9430 Z9.9374
 X20.3163 Z10.2497
 X20.6895 Z10.5132
 X21.0628 Z10.7388
 X21.2494 Z10.8388
 X21.3427 Z10.8857
 X21.3894 Z10.9084
 X21.4127 Z10.9196
 X21.4244 Z10.9251
 X21.4302 Z10.9278
 X21.4360 Z10.9306
 X21.5294 Z10.9734
 X21.5527 Z10.9838
 X21.5644 Z10.9889
 X21.5702 Z10.9914
 X21.5731 Z10.9927
 X21.5746 Z10.9934
 X21.5753 Z10.9937
 X21.5760 Z10.9940
 X21.5818 Z10.9965
 X21.5848 Z10.9978
 X21.5862 Z10.9984
 X21.5870 Z10.9988
 X21.5873 Z10.9989
 X21.5875 Z10.9990
 X21.5877 Z10.9991
 X21.5891 Z10.9997
 X21.5899 Z11.0000
 X47.9999
 X48.0014 Z10.9986
 X57.8285 Z1.1715
 X58.0151 Z0.9647
 X62.4884 Z-4.9996
 X62.4942 Z-5.0000
 X66.6000
 Y52.0000
 X62.6874
 X62.6866 Z-4.9990
 X58.8549 Z0.1099
 X58.8083 Z0.1721
 X58.7616 Z0.2304
 X58.3884 Z0.6116
 X48.0006 Z10.9994
 X47.9999 Z11.0000
 X21.0001
 X20.9986 Z10.9986
 X5.0128 Z-4.9872
 X4.6395 Z-5.0000
 X2.4000
 Y53.1923
 X4.9997
 X5.0011 Z-4.9989
 X19.5698 Z9.5698
 X19.9430 Z9.9374
 X20.3163 Z10.2497
 X20.6895 Z10.5132
 X21.0628 Z10.7388
 X21.2494 Z10.8388
 X21.3427 Z10.8857
 X21.3894 Z10.9084
 X21.4127 Z10.9196
 X21.4244 Z10.9251
 X21.4302 Z10.9278
 X21.4360 Z10.9306
 X21.5294 Z10.9734
 X21.5527 Z10.9838
 X21.5644 Z10.9889
 X21.5702 Z10.9914
 X21.5731 Z10.9927
 X21.5746 Z10.9934
 X21.5753 Z10.9937
 X21.5760 Z10.9940
 X21.5818 Z10.9965
 X21.5848 Z10.9978
 X21.5862 Z10.9984
 X21.5870 Z10.9988
 X21.5873 Z10.9989
 X21.5875 Z10.9990
 X21.5877 Z10.9991
 X21.5891 Z10.9997
 X21.5899 Z11.0000
 X47.9999
 X48.0014 Z10.9986
 X59.4615 Z-0.4615
 X59.5081 Z-0.5099
 X59.8814 Z-0.9937
 X62.8674 Z-4.9751
 X63.2407 Z-5.0000
 X66.6000
 Y54.3846
 X63.0849
 X63.0848
 X60.4413 Z-1.4753
 X60.2547 Z-1.2547
 X48.0006 Z10.9994
 X47.9999 Z11.0000
 X23.3956
 X23.3023 Z10.9687
 X21.8093 Z10.3051
 X21.4360 Z10.1736
 X21.0628 Z10.0492
 X20.6895 Z9.9235
 X20.3163 Z9.7717
 X19.9430 Z9.5864
 X19.5698 Z9.3676
 X19.1965 Z9.1119
 X18.8233 Z8.8105
 X18.4500 Z8.4500
 X5.0128 Z-4.9872
 X4.6395 Z-5.0000
 X2.4000
 Y55.5769
 X4.9997
 X5.0011 Z-4.9989
 X17.3302 Z7.3302
 X17.5169 Z7.5141
 X17.7035 Z7.6811
 X18.0767 Z7.9725
 X18.4500 Z8.2205
 X18.8233 Z8.4327
 X19.1965 Z8.6116
 X19.5698 Z8.7566
 X19.9430 Z8.8811
 X21.4360 Z9.3788
 X21.8093 Z9.5103
 X25.1569 Z10.9981
 X25.1686 Z11.0000
 X47.9999
 X48.0014 Z10.9986
 X61.0012 Z-2.0012
 X61.3744 Z-2.4545
 X63.2830 Z-4.9993
 X63.2837 Z-5.0000
 X66.6000
 Y56.7692
 X63.4827
 X63.4820 Z-4.9997
 X62.1209 Z-3.1849
 X61.7477 Z-2.7477
 X48.0006 Z10.9994
 X47.9999 Z11.0000
 X27.0349
 X26.6616 Z10.8720
 X21.8093 Z8.7154
 X21.4360 Z8.5839
 X18.4500 Z7.5885
 X18.0767 Z7.4502
 X17.7035 Z7.2777
 X17.3302 Z7.0721
 X16.9570 Z6.8315
 X16.7703 Z6.6963
 X16.5837 Z6.5495
 X16.2105 Z6.2105
 X5.0128 Z-4.9872
 X4.6395 Z-5.0000
 X2.4000
 Y57.9615
 X4.9997
 X5.0011 Z-4.9989
 X14.7174 Z4.7174
 X15.0907 Z5.0898
 X15.4640 Z5.4157
 X15.8372 Z5.6889
 X16.2105 Z5.9224
 X16.5837 Z6.1215
 X16.9570 Z6.2875
 X17.3302 Z6.4204
 X21.4360 Z7.7890
 X21.8093 Z7.9205
 X28.7145 Z10.9895
 X28.9012 Z11.0000
 X47.9999
 X48.0014 Z10.9986
 X62.4942 Z-3.4942
 X62.8674 Z-3.9153
 X63.6809 Z-5.0000
 X63.6810
 X66.6000
 Y59.1538
 X63.9872
 X63.6140 Z-4.6457
 X63.2407 Z-4.2407
 X48.0006 Z10.9994
 X47.9999 Z11.0000
 X30.5269
 X30.5254 Z10.9995
 X21.8093 Z7.1256
 X21.4360 Z6.9941
 X16.2105 Z5.2523
 X15.8372 Z5.1235
 X15.4640 Z4.9641
 X15.0907 Z4.7714
 X14.7174 Z4.5448
 X14.3442 Z4.2801
 X13.9709 Z3.9661
 X13.5977 Z3.5977
 X5.0128 Z-4.9872
 X4.6395 Z-5.0000
 X2.4000
 Y60.3462
 X4.9997
 X5.0011 Z-4.9989
 X12.4779 Z2.4779
 X12.8512 Z2.8396
 X13.2244 Z3.1426
 X13.5977 Z3.3993
 X13.9709 Z3.6191
 X14.3442 Z3.8054
 X14.7174 Z3.9582
 X15.0907 Z4.0842
 X21.4360 Z6.1993
 X21.8093 Z6.3308
 X32.2605 Z10.9757
 X32.6337 Z11.0000
 X47.9999
 X48.0014 Z10.9986
 X63.2407 Z-4.2407
 X63.6140 Z-4.6222
 X63.8006 Z-4.8229
 X63.8472 Z-4.8742
 X63.8706 Z-4.9001
 X63.8822 Z-4.9131
 X63.8881 Z-4.9196
 X63.8939 Z-4.9261
 X63.9172 Z-4.9523
 X63.9289 Z-4.9654
 X63.9347 Z-4.9720
 X63.9376 Z-4.9752
 X63.9391 Z-4.9769
 X63.9398 Z-4.9777
 X63.9402 Z-4.9781
 X63.9406 Z-4.9785
 X63.9522 Z-4.9917
 X63.9551 Z-4.9950
 X63.9566 Z-4.9967
 X63.9573 Z-4.9975
 X63.9577 Z-4.9979
 X63.9579 Z-4.9981
 X63.9580 Z-4.9983
 X63.9588 Z-4.9992
 X63.9595 Z-5.0000
 X66.6000
 Y61.5385
 X63.6621
 X63.6606 Z-4.9989
 X61.7477 Z-2.8127
 X61.3744 Z-2.3929
 X61.0012 Z-2.0017
 X60.6279 Z-1.6279
 X48.0006 Z10.9994
 X47.9999 Z11.0000
 X34.1267
 X33.7535 Z10.8444
 X21.8093 Z5.5359
 X21.4360 Z5.4044
 X13.9709 Z2.9160
 X13.5977 Z2.7915
 X13.2244 Z2.6455
 X12.8512 Z2.4656
 X12.4779 Z2.2524
 X12.1047 Z2.0034
 X11.9180 Z1.8632
 X11.7314 Z1.7106
 X11.3581 Z1.3581
 X5.0128 Z-4.9872
 X4.6395 Z-5.0000
 X2.4000
 Y62.7308
 X4.9997
 X5.0011 Z-4.9989
 X10.2384 Z0.2384
 X10.4250 Z0.4176
 X10.6116 Z0.5792
 X10.9849 Z0.8626
 X11.3581 Z1.1042
 X11.7314 Z1.3108
 X12.1047 Z1.4843
 X12.4779 Z1.6235
 X21.4360 Z4.6095
 X21.8093 Z4.7410
 X35.8917 Z10.9999
 X35.8921 Z11.0000
 X47.9999
 X48.0014 Z10.9986
 X58.3884 Z0.6116
 X58.7616 Z0.2341
 X59.1349 Z-0.1683
 X59.5081 Z-0.5939
 X63.3632 Z-4.9997
 X63.3639 Z-5.0000
 X66.6000
 Y63.9231
 X63.0657
 X63.0541 Z-4.9871
 X56.8953 Z2.0515
 X56.5221 Z2.4658
 X56.1488 Z2.8512
 X48.0006 Z10.9994
 X47.9999 Z11.0000
 X37.6843
 X37.6727 Z10.9965
 X21.8093 Z3.9462
 X21.4360 Z3.8147
 X11.3581 Z0.4554
 X10.9849 Z0.3218
 X10.6116 Z0.1548
 X10.2384 Z-0.0453
 X9.8651 Z-0.2798
 X9.4919 Z-0.5542
 X9.1186 Z-0.8820
 X8.7453 Z-1.2547
 X5.0128 Z-4.9872
 X4.6395 Z-5.0000
 X2.4000
 Y65.1154
 X4.9997
 X5.0011 Z-4.9989
 X7.6256 Z-2.3744
 X7.9988 Z-2.0052
 X8.3721 Z-1.6896
 X8.7453 Z-1.4237
 X9.1186 Z-1.1961
 X9.4919 Z-1.0025
 X9.8651 Z-0.8420
 X10.2384 Z-0.7128
 X21.4360 Z3.0198
 X21.8093 Z3.1513
 X39.4688 Z10.9999
 X39.4690 Z11.0000
 X47.9999
 X48.0014 Z10.9986
 X53.5360 Z5.4640
 X53.9093 Z5.0890
 X54.2826 Z4.6932
 X54.6558 Z4.2703
 X62.7668 Z-4.9995
 X62.7676 Z-5.0000
 X66.6000
 Y66.3077
 X62.4942
 X62.1209 Z-4.6019
 X52.4163 Z6.4891
 X52.0430 Z6.9156
 X51.6698 Z7.3231
 X51.2965 Z7.7035
 X48.0006 Z10.9994
 X47.9999 Z11.0000
 X41.2653
 X41.2186 Z10.9828
 X21.8093 Z2.3564
 X21.4360 Z2.2249
 X9.1186 Z-1.8809
 X8.7453 Z-2.0072
 X8.3721 Z-2.1610
 X7.9988 Z-2.3482
 X7.6256 Z-2.5689
 X7.2523 Z-2.8268
 X6.8791 Z-3.1313
 X6.5058 Z-3.4942
 X5.0128 Z-4.9872
 X4.6395 Z-5.0000
 X2.4000
 Y67.5000
 X4.9997
 X5.0011 Z-4.9989
 X5.3860 Z-4.6140
 X5.5727 Z-4.4290
 X5.7593 Z-4.2600
 X6.1326 Z-3.9658
 X6.5058 Z-3.7156
 X6.8791 Z-3.5015
 X7.2523 Z-3.3207
 X7.6256 Z-3.1737
 X7.9988 Z-3.0490
 X21.4360 Z1.4300
 X21.8093 Z1.5615
 X43.0382 Z10.9966
 X43.0849 Z11.0000
 X47.9999
 X48.0014 Z10.9986
 X48.6837 Z10.3163
 X49.0570 Z9.9428
 X49.4302 Z9.5530
 X49.8035 Z9.1345
 X62.1676 Z-4.9959
 X62.2142 Z-5.0000
 X66.6000
 Y68.6923
 X61.8731
 X48.1238 Z10.7134
 X48.0305 Z10.8187
 X47.9839 Z10.8664
 X47.9605 Z10.8888
 X47.9489 Z10.8997
 X47.9430 Z10.9051
 X47.9401 Z10.9077
 X47.9387 Z10.9091
 X47.9372 Z10.9104
 X47.8906 Z10.9513
 X47.8672 Z10.9708
 X47.8556 Z10.9802
 X47.8497 Z10.9849
 X47.8468 Z10.9873
 X47.8454 Z10.9884
 X47.8446 Z10.9890
 X47.8443 Z10.9893
 X47.8439 Z10.9896
 X47.8381 Z10.9942
 X47.8351 Z10.9965
 X47.8337 Z10.9976
 X47.8330 Z10.9982
 X47.8326 Z10.9985
 X47.8324 Z10.9986
 X47.8323 Z10.9987
 Z10.9988
 X47.8322
 X47.8315 Z10.9994
 X47.8308 Z10.9999
 X47.8300 Z11.0000
 X44.8345
 X44.8112 Z10.9897
 X21.8093 Z0.7667
 X21.4360 Z0.6352
 X6.5058 Z-4.3416
 X6.1326 Z-4.4817
 X5.7593 Z-4.6561
 X5.5727 Z-4.7557
 X5.4794 Z-4.8086
 X5.4327 Z-4.8358
 X5.4094 Z-4.8497
 X5.3977 Z-4.8566
 X5.3860 Z-4.8636
 X5.2927 Z-4.9209
 X5.2461 Z-4.9503
 X5.2227 Z-4.9652
 X5.2111 Z-4.9728
 X5.2053 Z-4.9765
 X5.2023 Z-4.9784
 X5.2009 Z-4.9794
 X5.1994 Z-4.9803
 X5.1878 Z-4.9879
 X5.1819 Z-4.9917
 X5.1790 Z-4.9936
 X5.1775 Z-4.9946
 X5.1768 Z-4.9951
 X5.1765 Z-4.9953
 X5.1763 Z-4.9954
 X5.1761 Z-4.9956
 X5.1732 Z-4.9975
 X5.1717 Z-4.9984
 X5.1710 Z-4.9989
 X5.1706 Z-4.9991
 X5.1704 Z-4.9993
 X5.1703
 Z-4.9994
 X5.1695 Z-4.9999
 X5.1692 Z-5.0000
 X2.4000
 Y69.8846
 X6.8791
 X7.2523 Z-4.8876
 X21.4360 Z-0.1597
 X21.8093 Z-0.0282
 X43.4581 Z9.5935
 X43.8314 Z9.7592
 X44.2047 Z9.9158
 X45.9776 Z10.6250
 X46.0243 Z10.6436
 X46.0476 Z10.6523
 X46.0709 Z10.6604
 X46.1642 Z10.6884
 X46.2576 Z10.7096
 X46.3509 Z10.7252
 X46.3975 Z10.7310
 X46.4442 Z10.7357
 X46.6308 Z10.7436
 X46.7241 Z10.7416
 X46.8174 Z10.7359
 X47.0041 Z10.7142
 X47.0974 Z10.6983
 X47.1907 Z10.6790
 X47.3773 Z10.6306
 X47.4706 Z10.6013
 X47.5640 Z10.5684
 X47.7506 Z10.4912
 X47.8439 Z10.4464
 X47.8906 Z10.4223
 X47.9372 Z10.3969
 X48.0305 Z10.3422
 X48.1238 Z10.2814
 X48.2172 Z10.2136
 X48.2638 Z10.1766
 X48.3105 Z10.1371
 X48.6837 Z9.7329
 X61.5610 Z-4.9840
 X61.7477 Z-5.0000
 X66.6000
 Y71.0769
 X61.2811
 X61.2344 Z-4.9514
 X48.8703 Z9.1790
 X48.7770 Z9.2783
 X48.7304 Z9.3222
 X48.6837 Z9.3630
 X48.5904 Z9.4371
 X48.4971 Z9.5029
 X48.4038 Z9.5620
 X48.3105 Z9.6153
 X48.1238 Z9.7072
 X48.0305 Z9.7468
 X47.9372 Z9.7824
 X47.7506 Z9.8428
 X47.6573 Z9.8678
 X47.5640 Z9.8895
 X47.3773 Z9.9229
 X47.2840 Z9.9346
 X47.1907 Z9.9429
 X47.0041 Z9.9486
 X46.9108 Z9.9457
 X46.8641 Z9.9427
 X46.8174 Z9.9386
 X46.7241 Z9.9268
 X46.6775 Z9.9190
 X46.6308 Z9.9098
 X46.5375 Z9.8869
 X46.4442 Z9.8571
 X46.0709 Z9.7085
 X40.8453 Z7.6182
 X40.4721 Z7.4676
 X40.0988 Z7.3056
 X21.8093 Z-0.8231
 X21.4360 Z-0.9546
 X9.3052 Z-4.9982
 X9.1186 Z-5.0000
 X2.4000
 Y72.2692
 X11.6833
 X11.6847 Z-4.9999
 X21.4360 Z-1.7494
 X21.8093 Z-1.6179
 X36.3663 Z4.8518
 X36.7395 Z5.0169
 X37.1128 Z5.1714
 X46.7941 Z9.0439
 X46.8174 Z9.0532
 X46.9108 Z9.0851
 X47.0041 Z9.1096
 X47.0974 Z9.1280
 X47.1440 Z9.1352
 X47.1907 Z9.1411
 X47.3773 Z9.1534
 X47.4706 Z9.1533
 X47.5640 Z9.1496
 X47.7506 Z9.1314
 X47.8439 Z9.1172
 X47.9372 Z9.0997
 X48.1238 Z9.0547
 X48.2172 Z9.0272
 X48.3105 Z8.9961
 X48.4971 Z8.9230
 X48.5904 Z8.8804
 X48.6371 Z8.8575
 X48.6837 Z8.8334
 X48.7770 Z8.7815
 X48.8703 Z8.7240
 X48.9637 Z8.6600
 X49.0103 Z8.6252
 X49.0570 Z8.5882
 X49.4302 Z8.1984
 X60.9778 Z-4.9988
 X61.0012 Z-5.0000
 X66.6000
 Y73.4615
 X60.6811
 X60.6808
 X49.6635 Z7.5912
 X49.6169 Z7.6429
 X49.5235 Z7.7340
 X49.4769 Z7.7747
 X49.4302 Z7.8128
 X49.3369 Z7.8824
 X49.2436 Z7.9446
 X49.1503 Z8.0006
 X49.0570 Z8.0512
 X48.8703 Z8.1385
 X48.7770 Z8.1759
 X48.6837 Z8.2096
 X48.4971 Z8.2664
 X48.4038 Z8.2897
 X48.3105 Z8.3096
 X48.1238 Z8.3396
 X48.0305 Z8.3496
 X47.9372 Z8.3560
 X47.7506 Z8.3579
 X47.6573 Z8.3528
 X47.6106 Z8.3486
 X47.5640 Z8.3433
 X47.4706 Z8.3289
 X47.4240 Z8.3197
 X47.3773 Z8.3090
 X47.1907 Z8.2487
 X33.7535 Z2.8738
 X33.3802 Z2.7240
 X33.0070 Z2.5639
 X21.8093 Z-2.4128
 X21.4360 Z-2.5443
 X14.0701 Z-4.9996
 X14.0642 Z-5.0000
 X2.4000
 Y74.6538
 X16.3971
 X16.5837 Z-4.9566
 X21.4360 Z-3.3392
 X21.8093 Z-3.2077
 X29.2744 Z0.1101
 X29.6477 Z0.2743
 X30.0209 Z0.4269
 X47.5640 Z7.4441
 X47.6573 Z7.4798
 X47.7039 Z7.4948
 X47.7506 Z7.5080
 X47.8439 Z7.5295
 X47.8906 Z7.5380
 X47.9372 Z7.5452
 X48.0305 Z7.5559
 X48.1238 Z7.5621
 X48.2172 Z7.5641
 X48.3105 Z7.5622
 X48.4971 Z7.5477
 X48.5904 Z7.5352
 X48.6837 Z7.5194
 X48.8703 Z7.4779
 X48.9637 Z7.4521
 X49.0570 Z7.4229
 X49.2436 Z7.3537
 X49.3369 Z7.3133
 X49.4302 Z7.2686
 X49.5235 Z7.2193
 X49.6169 Z7.1648
 X49.7102 Z7.1043
 X49.7568 Z7.0715
 X49.8035 Z7.0368
 X50.1767 Z6.6640
 X60.3826 Z-4.9999
 X60.3828 Z-5.0000
 X66.6000
 Y75.8462
 X60.0848
 X60.0844 Z-4.9998
 X50.4567 Z6.0034
 X50.4100 Z6.0549
 X50.3634 Z6.1021
 X50.2701 Z6.1864
 X50.2234 Z6.2244
 X50.1767 Z6.2601
 X50.0834 Z6.3257
 X49.9901 Z6.3846
 X49.8968 Z6.4377
 X49.8035 Z6.4857
 X49.6169 Z6.5686
 X49.5235 Z6.6041
 X49.4302 Z6.6359
 X49.2436 Z6.6891
 X49.1503 Z6.7107
 X49.0570 Z6.7289
 X48.8703 Z6.7555
 X48.7770 Z6.7636
 X48.6837 Z6.7682
 X48.5904 Z6.7691
 X48.4971 Z6.7660
 X48.4038 Z6.7587
 X48.3571 Z6.7534
 X48.3105 Z6.7468
 X48.2172 Z6.7296
 X48.1705 Z6.7189
 X48.1238 Z6.7065
 X47.9372 Z6.6396
 X26.6616 Z-1.8706
 X26.2884 Z-2.0200
 X25.9151 Z-2.1778
 X25.5419 Z-2.3436
 X21.8093 Z-4.0026
 X21.4360 Z-4.1340
 X18.8466 Z-4.9972
 X18.8233 Z-5.0000
 X2.4000
 Y77.0385
 X21.2228
 X21.2232 Z-4.9999
 X21.4360 Z-4.9289
 X21.8093 Z-4.7974
 X22.1826 Z-4.6315
 X22.5558 Z-4.4687
 X22.9291 Z-4.3175
 X48.3105 Z5.8351
 X48.4038 Z5.8723
 X48.4504 Z5.8895
 X48.4971 Z5.9045
 X48.5904 Z5.9294
 X48.6371 Z5.9394
 X48.6837 Z5.9480
 X48.7770 Z5.9612
 X48.8703 Z5.9697
 X48.9637 Z5.9738
 X49.0570 Z5.9739
 X49.2436 Z5.9630
 X49.3369 Z5.9523
 X49.4302 Z5.9383
 X49.6169 Z5.9002
 X49.7102 Z5.8762
 X49.8035 Z5.8487
 X49.9901 Z5.7833
 X50.0834 Z5.7450
 X50.1767 Z5.7026
 X50.3634 Z5.6040
 X50.4567 Z5.5467
 X50.5033 Z5.5157
 X50.5500 Z5.4830
 X50.6433 Z5.4115
 X50.6900 Z5.3723
 X50.7366 Z5.3303
 X50.9233 Z5.1295
 X59.7865 Z-5.0000
 X59.7866
 X66.6000
 Y78.2308
 X59.5081
 X59.1349 Z-4.5959
 X51.2965 Z4.3622
 X51.2032 Z4.4670
 X51.1565 Z4.5140
 X51.1099 Z4.5576
 X51.0166 Z4.6360
 X50.9699 Z4.6717
 X50.9233 Z4.7053
 X50.7366 Z4.8230
 X50.6433 Z4.8734
 X50.5500 Z4.9191
 X50.3634 Z4.9978
 X50.2701 Z5.0313
 X50.1767 Z5.0613
 X49.9901 Z5.1110
 X49.8968 Z5.1308
 X49.8035 Z5.1474
 X49.6169 Z5.1704
 X49.5235 Z5.1767
 X49.4302 Z5.1794
 X49.3369 Z5.1783
 X49.2436 Z5.1731
 X49.1503 Z5.1634
 X49.1036 Z5.1568
 X49.0570 Z5.1488
 X48.6837 Z5.0305
 X23.6756 Z-4.9727
 X23.3023 Z-5.0000
 X2.4000
 Y79.4231
 X25.9151
 X26.2884 Z-4.8815
 X49.1503 Z4.2633
 X49.1969 Z4.2819
 X49.2436 Z4.2991
 X49.3369 Z4.3276
 X49.3836 Z4.3392
 X49.4302 Z4.3493
 X49.5235 Z4.3652
 X49.6169 Z4.3761
 X49.7102 Z4.3825
 X49.8035 Z4.3846
 X49.9901 Z4.3775
 X50.0834 Z4.3686
 X50.1767 Z4.3562
 X50.3634 Z4.3216
 X50.4567 Z4.2993
 X50.5500 Z4.2736
 X50.7366 Z4.2119
 X50.8299 Z4.1756
 X50.9233 Z4.1353
 X51.1099 Z4.0417
 X51.2032 Z3.9874
 X51.2499 Z3.9580
 X51.2965 Z3.9271
 X51.3898 Z3.8599
 X51.4365 Z3.8232
 X51.4831 Z3.7840
 X51.6698 Z3.5950
 X59.1903 Z-4.9999
 X59.1932 Z-5.0000
 X66.6000
 Y80.6154
 X58.8929
 X58.8899 Z-4.9973
 X52.0430 Z2.8278
 X51.9497 Z2.9259
 X51.8564 Z3.0098
 X51.7631 Z3.0832
 X51.7164 Z3.1167
 X51.6698 Z3.1485
 X51.4831 Z3.2600
 X51.3898 Z3.3079
 X51.2965 Z3.3513
 X51.1099 Z3.4259
 X51.0166 Z3.4576
 X50.9233 Z3.4857
 X50.7366 Z3.5319
 X50.6433 Z3.5501
 X50.5500 Z3.5649
 X50.3634 Z3.5844
 X50.2701 Z3.5888
 X50.2234 Z3.5897
 X50.1767 Z3.5896
 X50.0834 Z3.5864
 X49.9901 Z3.5789
 X49.8968 Z3.5667
 X49.8501 Z3.5588
 X49.8035 Z3.5494
 X49.4302 Z3.4214
 X28.3879 Z-4.9955
 X28.3413 Z-5.0000
 X2.4000
 Y81.8077
 X30.7558
 X30.7674 Z-4.9975
 X49.8035 Z2.6169
 X49.9901 Z2.6915
 X50.0834 Z2.7240
 X50.1301 Z2.7374
 X50.1767 Z2.7491
 X50.2701 Z2.7679
 X50.3634 Z2.7813
 X50.4567 Z2.7900
 X50.5500 Z2.7943
 X50.7366 Z2.7910
 X50.8299 Z2.7839
 X50.9233 Z2.7733
 X51.1099 Z2.7421
 X51.2032 Z2.7215
 X51.2965 Z2.6976
 X51.4831 Z2.6395
 X51.5765 Z2.6052
 X51.6698 Z2.5670
 X51.8564 Z2.4780
 X51.9497 Z2.4265
 X51.9964 Z2.3987
 X52.0430 Z2.3694
 X52.1363 Z2.3059
 X52.1830 Z2.2714
 X52.2297 Z2.2348
 X52.3230 Z2.1540
 X52.4163 Z2.0600
 X52.7895 Z1.6340
 X58.5940 Z-4.9997
 X58.5947 Z-5.0000
 X66.6000
 Y83.0000
 X58.2965
 X58.2951 Z-4.9987
 X52.8362 Z1.2400
 X52.8129 Z1.2661
 X52.7895 Z1.2911
 X52.6962 Z1.3811
 X52.6029 Z1.4592
 X52.5096 Z1.5282
 X52.4163 Z1.5899
 X52.2297 Z1.6957
 X52.1363 Z1.7412
 X52.0430 Z1.7824
 X51.8564 Z1.8530
 X51.7631 Z1.8828
 X51.6698 Z1.9092
 X51.4831 Z1.9520
 X51.3898 Z1.9684
 X51.2965 Z1.9815
 X51.1099 Z1.9974
 X51.0166 Z1.9999
 X50.9699 Z1.9998
 X50.9233 Z1.9987
 X50.8299 Z1.9933
 X50.7366 Z1.9835
 X50.6433 Z1.9687
 X50.5967 Z1.9593
 X50.5500 Z1.9484
 X50.1767 Z1.8123
 X33.1469 Z-4.9996
 X33.1236 Z-5.0000
 X2.4000
 Y84.1923
 X35.5265
 X35.6198 Z-4.9643
 X50.7366 Z1.0824
 X50.8299 Z1.1185
 X50.8766 Z1.1338
 X50.9233 Z1.1472
 X51.0166 Z1.1691
 X51.1099 Z1.1853
 X51.2032 Z1.1963
 X51.2965 Z1.2028
 X51.4831 Z1.2035
 X51.5765 Z1.1983
 X51.6698 Z1.1895
 X51.8564 Z1.1617
 X51.9497 Z1.1428
 X52.0430 Z1.1207
 X52.2297 Z1.0662
 X52.3230 Z1.0337
 X52.4163 Z0.9975
 X52.6029 Z0.9131
 X52.6962 Z0.8641
 X52.7429 Z0.8377
 X52.7895 Z0.8100
 X52.8828 Z0.7500
 X52.9762 Z0.6830
 X53.0695 Z0.6075
 X53.1628 Z0.5209
 X53.5360 Z0.0995
 X57.9976 Z-4.9995
 X57.9983 Z-5.0000
 X66.6000
 Y85.3846
 X57.7002
 X57.6885 Z-4.9869
 X53.6294 Z-0.3478
 X53.5827 Z-0.2969
 X53.5594 Z-0.2731
 X53.5360 Z-0.2503
 X53.4427 Z-0.1669
 X53.3494 Z-0.0938
 X53.2561 Z-0.0287
 X53.1628 Z0.0297
 X52.9762 Z0.1301
 X52.8828 Z0.1733
 X52.7895 Z0.2124
 X52.6029 Z0.2792
 X52.5096 Z0.3072
 X52.4163 Z0.3319
 X52.2297 Z0.3712
 X52.1363 Z0.3859
 X52.0430 Z0.3972
 X51.8564 Z0.4094
 X51.7631 Z0.4100
 X51.7164 Z0.4089
 X51.6698 Z0.4067
 X51.5765 Z0.3990
 X51.4831 Z0.3867
 X51.3898 Z0.3692
 X51.3432 Z0.3582
 X51.2965 Z0.3456
 X50.9233 Z0.2032
 X37.9176 Z-4.9990
 X37.9060 Z-5.0000
 X2.4000
 Y86.5769
 X40.2855
 X40.4721 Z-4.9311
 X51.4831 Z-0.5266
 X51.5765 Z-0.4893
 X51.6231 Z-0.4719
 X51.6464 Z-0.4640
 X51.6698 Z-0.4565
 X51.7631 Z-0.4312
 X51.8564 Z-0.4122
 X51.9497 Z-0.3986
 X52.0430 Z-0.3898
 X52.2297 Z-0.3849
 X52.3230 Z-0.3883
 X52.4163 Z-0.3953
 X52.6029 Z-0.4196
 X52.6962 Z-0.4367
 X52.7895 Z-0.4572
 X52.9762 Z-0.5081
 X53.0695 Z-0.5388
 X53.1628 Z-0.5730
 X53.3494 Z-0.6532
 X53.4427 Z-0.6997
 X53.4894 Z-0.7247
 X53.5360 Z-0.7510
 X53.6294 Z-0.8079
 X53.7227 Z-0.8711
 X53.8160 Z-0.9419
 X53.8626 Z-0.9808
 X53.9093 Z-1.0224
 X54.2826 Z-1.4350
 X57.4013 Z-4.9993
 X57.4020 Z-5.0000
 X66.6000
 Y87.7692
 X57.1053
 X57.0820 Z-4.9750
 X54.4692 Z-1.9889
 X54.3759 Z-1.8849
 X54.3292 Z-1.8384
 X54.2826 Z-1.7953
 X54.1892 Z-1.7176
 X54.0959 Z-1.6489
 X54.0026 Z-1.5875
 X53.9093 Z-1.5321
 X53.7227 Z-1.4367
 X53.6294 Z-1.3957
 X53.5360 Z-1.3586
 X53.3494 Z-1.2956
 X53.2561 Z-1.2693
 X53.1628 Z-1.2464
 X52.9762 Z-1.2105
 X52.8828 Z-1.1976
 X52.7895 Z-1.1880
 X52.6029 Z-1.1795
 X52.5096 Z-1.1809
 X52.4629 Z-1.1832
 X52.4163 Z-1.1865
 X52.3230 Z-1.1965
 X52.2297 Z-1.2114
 X52.1363 Z-1.2320
 X52.0430 Z-1.2591
 X51.6698 Z-1.4058
 X42.7116 Z-4.9891
 X42.3384 Z-5.0000
 X2.4000
 Y88.9615
 X45.0678
 X45.0911 Z-4.9911
 X52.3230 Z-2.0984
 X52.3696 Z-2.0797
 X52.3930 Z-2.0707
 X52.4163 Z-2.0622
 X52.5096 Z-2.0332
 X52.6029 Z-2.0111
 X52.6962 Z-1.9947
 X52.7429 Z-1.9885
 X52.7895 Z-1.9835
 X52.9762 Z-1.9744
 X53.0695 Z-1.9758
 X53.1628 Z-1.9810
 X53.3494 Z-2.0017
 X53.4427 Z-2.0172
 X53.5360 Z-2.0359
 X53.7227 Z-2.0834
 X53.8160 Z-2.1122
 X53.9093 Z-2.1445
 X54.0959 Z-2.2206
 X54.1892 Z-2.2647
 X54.2359 Z-2.2885
 X54.2826 Z-2.3135
 X54.3759 Z-2.3674
 X54.4692 Z-2.4272
 X54.5625 Z-2.4939
 X54.6092 Z-2.5303
 X54.6558 Z-2.5691
 X55.0291 Z-2.9695
 X56.8020 Z-4.9957
 X56.8953 Z-5.0000
 X66.6000
 Y90.1538
 X56.5221
 X56.1488 Z-4.5899
 X55.4023 Z-3.7367
 X55.2157 Z-3.5234
 X55.1224 Z-3.4265
 X55.0757 Z-3.3836
 X55.0291 Z-3.3435
 X54.9358 Z-3.2708
 X54.8424 Z-3.2060
 X54.7491 Z-3.1478
 X54.6558 Z-3.0953
 X54.4692 Z-3.0047
 X54.3759 Z-2.9658
 X54.2826 Z-2.9307
 X54.0959 Z-2.8713
 X54.0026 Z-2.8468
 X53.9093 Z-2.8256
 X53.7227 Z-2.7931
 X53.6294 Z-2.7819
 X53.5360 Z-2.7742
 X53.3494 Z-2.7695
 X53.2561 Z-2.7730
 X53.2094 Z-2.7764
 X53.1628 Z-2.7808
 X53.0695 Z-2.7933
 X53.0228 Z-2.8015
 X52.9762 Z-2.8111
 X52.7895 Z-2.8659
 X52.4163 Z-3.0149
 X47.4539 Z-4.9999
 X47.4535 Z-5.0000
 X2.4000
 Y91.3462
 X49.8035
 X50.1767 Z-4.8646
 X53.1161 Z-3.6888
 X53.1628 Z-3.6702
 X53.2561 Z-3.6371
 X53.3494 Z-3.6115
 X53.4427 Z-3.5923
 X53.4894 Z-3.5847
 X53.5360 Z-3.5784
 X53.7227 Z-3.5649
 X53.8160 Z-3.5644
 X53.9093 Z-3.5676
 X54.0959 Z-3.5848
 X54.1892 Z-3.5985
 X54.2826 Z-3.6155
 X54.4692 Z-3.6595
 X54.5625 Z-3.6866
 X54.6558 Z-3.7171
 X54.8424 Z-3.7891
 X54.9358 Z-3.8310
 X55.0291 Z-3.8774
 X55.1224 Z-3.9286
 X55.2157 Z-3.9852
 X55.3090 Z-4.0482
 X55.3557 Z-4.0824
 X55.4023 Z-4.1187
 X55.7756 Z-4.5039
 X56.2093 Z-4.9997
 X56.2097 Z-5.0000
 X66.6000
 Y92.5385
 X55.9622
 X55.7756 Z-4.8945
 X55.6823 Z-4.8260
 X55.5890 Z-4.7648
 X55.4956 Z-4.7097
 X55.4023 Z-4.6598
 X55.2157 Z-4.5738
 X55.1224 Z-4.5368
 X55.0291 Z-4.5037
 X54.8424 Z-4.4479
 X54.7491 Z-4.4251
 X54.6558 Z-4.4057
 X54.4692 Z-4.3767
 X54.3759 Z-4.3672
 X54.2826 Z-4.3613
 X54.0959 Z-4.3606
 X54.0026 Z-4.3662
 X53.9560 Z-4.3707
 X53.9093 Z-4.3764
 X53.8160 Z-4.3916
 X53.7693 Z-4.4012
 X53.7227 Z-4.4123
 X53.5360 Z-4.4747
 X52.2297 Z-4.9973
 X52.0430 Z-5.0000
 X2.4000
 Y93.7308
 X66.6000
 Y94.9231
 X2.4000
 Y96.1154
 X66.6000
 Y97.3077
 X2.4000
 Y98.5000
 X66.6000
G0 Z25.0000
M5 (stop spindle)
G04 P3 (wait for 3 seconds)
G0 Z25.0000
M2 (end program)
