;PYCAM-META-DATA: Filename: None
;PYCAM-META-DATA: Timestamp: 2016-11-17 22:37:48.828000
;PYCAM-META-DATA: Version: 0.5.1.1
;Estimated machine time: 319 minutes
G40 (disable tool radius compensation)
G49 (disable tool length compensation)
G80 (cancel modal motion)
G54 (select coordinate system 1)
G90 (disable incremental moves)
G21 (metric)
G61 (exact path mode)
F200.00000
S1000.00000
;PYCAM_TOOLPATH_SETTINGS: START
;[Bounds]
;maxz = 50.0
;maxx = 49.5
;maxy = 49.5
;minx = 0.5
;miny = 0.5
;minz = 0.0
;
;[Tool]
;torus_radius = 0.25
;speed = 1000.0
;shape = SphericalCutter
;tool_radius = 0.5
;feedrate = 200.0
;
;[SupportGrid]
;height = 0.5
;average_distance = 30.0
;length = 5.0
;thickness = 0.5
;type = distributed_edges
;
;[Process]
;generator = DropCutter
;pocketing_type = none
;engrave_offset = 0.0
;milling_style = ignore
;path_direction = x
;step_down = 3.0
;postprocessor = PathAccumulator
;overlap_percent = 60
;material_allowance = 0.0
;
;PYCAM_TOOLPATH_SETTINGS: END
T3 M6
G0 Z25.0000
M3 (start spindle)
G04 P3 (wait for 3 seconds)
 X0.5000 Y0.5000
G1 Z0.0000
 X49.5000
 Y0.8984
 X0.5000
 Y1.2967
 X49.5000
 Y1.6951
 X0.5000
 Y2.0935
 X49.5000
 Y2.4919
 X0.5000
 Y2.8902
 X49.5000
 Y3.2886
 X0.5000
G0 Z25.0000
 Y3.6870
G1 Z0.1780
 X0.5156 Z0.1560
 X0.5234 Z0.1436
 X0.5313 Z0.1298
 X0.5391 Z0.1143
 X0.5430 Z0.1057
 X0.5469 Z0.0962
 X0.5508 Z0.0856
 X0.5547 Z0.0735
 X0.5586 Z0.0589
 X0.5605 Z0.0499
 X0.5615 Z0.0448
 X0.5620 Z0.0420
 X0.5623 Z0.0405
 X0.5624 Z0.0398
 Z0.0394
 X0.5625 Z0.0392
 Z0.0390
 X0.5645 Z0.0234
 X0.5654 Z0.0077
 X0.5657 Z0.0000
 X49.5000
 Y4.0854
 X1.2813
 X1.2500 Z0.0526
 X1.2422 Z0.0815
 X1.2383 Z0.0925
 X1.2344 Z0.1024
 X1.2266 Z0.1195
 X1.2188 Z0.1344
 X1.2031 Z0.1598
 X1.1953 Z0.1709
 X1.1875 Z0.1813
 X1.1719 Z0.2002
 X1.1563 Z0.2172
 X1.1406 Z0.2327
 X1.1250 Z0.2470
 X1.0938 Z0.2727
 X1.0625 Z0.2953
 X1.0313 Z0.3156
 X1.0000 Z0.3338
 X0.9375 Z0.3657
 X0.8750 Z0.3925
 X0.7500 Z0.4346
 X0.6250 Z0.4646
 X0.5000 Z0.4848
G0 Z25.0000
 Y4.4837
G1 Z0.5000
 X0.8750
 X1.0000 Z0.4993
 X1.1250 Z0.4919
 X1.2500 Z0.4763
 X1.3750 Z0.4515
 X1.4375 Z0.4353
 X1.5000 Z0.4161
 X1.5625 Z0.3935
 X1.5938 Z0.3807
 X1.6250 Z0.3669
 X1.6563 Z0.3518
 X1.6719 Z0.3437
 X1.6875 Z0.3352
 X1.7031 Z0.3264
 X1.7188 Z0.3167
 X1.7344 Z0.3060
 X1.7422 Z0.3001
 X1.7461 Z0.2971
 X1.7480 Z0.2955
 X1.7500 Z0.2940
 X1.7813 Z0.2657
 X1.7969 Z0.2489
 X1.8047 Z0.2396
 X1.8086 Z0.2348
 X1.8125 Z0.2298
 X1.8281 Z0.2078
 X1.8359 Z0.1954
 X1.8398 Z0.1887
 X1.8438 Z0.1818
 X1.8516 Z0.1667
 X1.8594 Z0.1498
 X1.8672 Z0.1302
 X1.8711 Z0.1190
 X1.8730 Z0.1129
 X1.8740 Z0.1098
 X1.8745 Z0.1082
 X1.8748 Z0.1073
 X1.8750 Z0.1065
 X1.8828 Z0.0749
 X1.8867 Z0.0520
 X1.8887 Z0.0352
 X1.8896 Z0.0224
 X1.8901 Z0.0114
 X1.8904 Z0.0000
 X49.5000
 Y4.8821
 X33.0000
 X32.9688 Z0.1280
 X32.9609 Z0.1538
 X32.9531 Z0.1754
 X32.9453 Z0.1944
 X32.9414 Z0.2031
 X32.9375 Z0.2114
 X32.9219 Z0.2411
 X32.9063 Z0.2666
 X32.8906 Z0.2890
 X32.8828 Z0.2993
 X32.8789 Z0.3042
 X32.8750 Z0.3090
 X32.8438 Z0.3434
 X32.8281 Z0.3584
 X32.8125 Z0.3721
 X32.7813 Z0.3962
 X32.7656 Z0.4069
 X32.7578 Z0.4119
 X32.7500 Z0.4167
 X32.7188 Z0.4339
 X32.7031 Z0.4414
 X32.6875 Z0.4483
 X32.6563 Z0.4601
 X32.6406 Z0.4651
 X32.6328 Z0.4674
 X32.6250 Z0.4696
 X32.5938 Z0.4768
 X32.5781 Z0.4796
 X32.5625 Z0.4819
 X32.5000 Z0.4859
 X32.0000
 X31.9688 Z0.4849
 X31.9531 Z0.4836
 X31.9375 Z0.4819
 X31.9063 Z0.4768
 X31.8906 Z0.4734
 X31.8828 Z0.4716
 X31.8750 Z0.4696
 X31.8438 Z0.4601
 X31.8281 Z0.4545
 X31.8125 Z0.4483
 X31.7813 Z0.4339
 X31.7656 Z0.4256
 X31.7578 Z0.4212
 X31.7500 Z0.4167
 X31.7188 Z0.3962
 X31.7031 Z0.3847
 X31.6875 Z0.3721
 X31.6719 Z0.3584
 X31.6563 Z0.3434
 X31.6406 Z0.3270
 X31.6328 Z0.3182
 X31.6289 Z0.3137
 X31.6250 Z0.3090
 X31.5938 Z0.2666
 X31.5781 Z0.2411
 X31.5703 Z0.2269
 X31.5664 Z0.2193
 X31.5625 Z0.2114
 X31.5469 Z0.1754
 X31.5391 Z0.1538
 X31.5313 Z0.1280
 X31.5234 Z0.0948
 X31.5195 Z0.0725
 X31.5176 Z0.0581
 X31.5166 Z0.0493
 X31.5161 Z0.0442
 X31.5159 Z0.0415
 X31.5157 Z0.0400
 Z0.0393
 X31.5156 Z0.0385
 X31.5146 Z0.0232
 X31.5142 Z0.0079
 X31.5139 Z0.0000
 X2.0313
 X2.0000 Z0.0835
 X1.9922 Z0.1205
 X1.9844 Z0.1482
 X1.9688 Z0.1910
 X1.9531 Z0.2247
 X1.9453 Z0.2394
 X1.9375 Z0.2531
 X1.9219 Z0.2776
 X1.9063 Z0.2994
 X1.8906 Z0.3189
 X1.8828 Z0.3280
 X1.8750 Z0.3366
 X1.8438 Z0.3674
 X1.8281 Z0.3809
 X1.8125 Z0.3934
 X1.7813 Z0.4154
 X1.7656 Z0.4251
 X1.7578 Z0.4296
 X1.7500 Z0.4340
 X1.7188 Z0.4497
 X1.7031 Z0.4566
 X1.6875 Z0.4628
 X1.6563 Z0.4735
 X1.6406 Z0.4779
 X1.6250 Z0.4819
 X1.5938 Z0.4886
 X1.5625 Z0.4937
 X1.5000 Z0.4994
 X1.3750 Z0.5000
 X0.7500
 X0.6250
 X0.5000 Z0.4954
G0 Z25.0000
 Y5.2805
G1 Z0.2822
 X0.5625 Z0.3232
 X0.5938 Z0.3408
 X0.6250 Z0.3568
 X0.6875 Z0.3850
 X0.7500 Z0.4089
 X0.8750 Z0.4464
 X1.0000 Z0.4728
 X1.1250 Z0.4898
 X1.1875 Z0.4952
 X1.2188 Z0.4971
 X1.2344 Z0.4979
 X1.2500 Z0.4985
 X1.2813 Z0.4983
 X1.3125 Z0.4961
 X1.3438 Z0.4920
 X1.3594 Z0.4894
 X1.3750 Z0.4864
 X1.4063 Z0.4791
 X1.4375 Z0.4702
 X1.4688 Z0.4595
 X1.4844 Z0.4534
 X1.5000 Z0.4469
 X1.5313 Z0.4323
 X1.5625 Z0.4153
 X1.5938 Z0.3959
 X1.6094 Z0.3850
 X1.6172 Z0.3793
 X1.6250 Z0.3734
 X1.6563 Z0.3474
 X1.6719 Z0.3329
 X1.6797 Z0.3251
 X1.6875 Z0.3170
 X1.7031 Z0.2998
 X1.7188 Z0.2808
 X1.7344 Z0.2598
 X1.7500 Z0.2361
 X1.7656 Z0.2089
 X1.7813 Z0.1765
 X1.7891 Z0.1574
 X1.7969 Z0.1353
 X1.8047 Z0.1084
 X1.8086 Z0.0918
 X1.8105 Z0.0822
 X1.8115 Z0.0770
 X1.8120 Z0.0742
 X1.8123 Z0.0728
 X1.8124 Z0.0721
 Z0.0717
 X1.8125 Z0.0714
 X1.8164 Z0.0416
 X1.8174 Z0.0298
 X1.8179 Z0.0216
 X1.8181 Z0.0160
 X1.8182 Z0.0123
 X1.8183 Z0.0099
 Z0.0085
 Z0.0077
 X1.8184 Z0.0072
 Z0.0070
 Z0.0069
 Z0.0067
 X1.8186 Z0.0000
 X31.5000
 X31.5078 Z0.0880
 X31.5117 Z0.1076
 X31.5156 Z0.1240
 X31.5234 Z0.1513
 X31.5313 Z0.1740
 X31.5469 Z0.2114
 X31.5547 Z0.2274
 X31.5625 Z0.2421
 X31.5781 Z0.2684
 X31.5938 Z0.2915
 X31.6094 Z0.3121
 X31.6172 Z0.3216
 X31.6250 Z0.3307
 X31.6563 Z0.3631
 X31.6719 Z0.3773
 X31.6875 Z0.3903
 X31.7188 Z0.4134
 X31.7344 Z0.4236
 X31.7422 Z0.4284
 X31.7500 Z0.4330
 X31.7813 Z0.4496
 X31.7969 Z0.4569
 X31.8125 Z0.4635
 X31.8438 Z0.4750
 X31.8594 Z0.4798
 X31.8672 Z0.4820
 X31.8750 Z0.4841
 X31.9063 Z0.4911
 X31.9375 Z0.4961
 X32.0000 Z0.5000
 X32.5000
 X32.5313 Z0.4990
 X32.5469 Z0.4978
 X32.5625 Z0.4961
 X32.5938 Z0.4911
 X32.6094 Z0.4879
 X32.6172 Z0.4861
 X32.6250 Z0.4841
 X32.6563 Z0.4750
 X32.6719 Z0.4695
 X32.6875 Z0.4635
 X32.7188 Z0.4496
 X32.7344 Z0.4417
 X32.7422 Z0.4374
 X32.7500 Z0.4330
 X32.7813 Z0.4134
 X32.7969 Z0.4023
 X32.8125 Z0.3903
 X32.8438 Z0.3631
 X32.8594 Z0.3476
 X32.8672 Z0.3394
 X32.8711 Z0.3351
 X32.8730 Z0.3329
 X32.8750 Z0.3307
 X32.9063 Z0.2915
 X32.9219 Z0.2684
 X32.9297 Z0.2557
 X32.9336 Z0.2490
 X32.9355 Z0.2456
 X32.9375 Z0.2421
 X32.9531 Z0.2114
 X32.9609 Z0.1937
 X32.9648 Z0.1842
 X32.9688 Z0.1740
 X32.9766 Z0.1513
 X32.9805 Z0.1384
 X32.9844 Z0.1240
 X32.9883 Z0.1076
 X32.9922 Z0.0880
 X32.9961 Z0.0624
 X32.9980 Z0.0442
 X32.9990 Z0.0312
 X32.9995 Z0.0221
 X32.9998 Z0.0156
 X32.9999 Z0.0110
 Z0.0078
 X33.0000 Z0.0055
 Z0.0039
 Z0.0000
 X49.5000
 Y5.6789
 X33.0000
 X32.9922 Z0.0880
 X32.9883 Z0.1076
 X32.9844 Z0.1240
 X32.9766 Z0.1513
 X32.9688 Z0.1740
 X32.9531 Z0.2114
 X32.9453 Z0.2274
 X32.9375 Z0.2421
 X32.9219 Z0.2684
 X32.9063 Z0.2915
 X32.8906 Z0.3121
 X32.8828 Z0.3216
 X32.8750 Z0.3307
 X32.8438 Z0.3631
 X32.8281 Z0.3773
 X32.8125 Z0.3903
 X32.7813 Z0.4134
 X32.7656 Z0.4236
 X32.7578 Z0.4284
 X32.7500 Z0.4330
 X32.7188 Z0.4496
 X32.7031 Z0.4569
 X32.6875 Z0.4635
 X32.6563 Z0.4750
 X32.6406 Z0.4798
 X32.6328 Z0.4820
 X32.6250 Z0.4841
 X32.5938 Z0.4911
 X32.5625 Z0.4961
 X32.5000 Z0.5000
 X32.0000
 X31.9688 Z0.4990
 X31.9531 Z0.4978
 X31.9375 Z0.4961
 X31.9063 Z0.4911
 X31.8906 Z0.4879
 X31.8828 Z0.4861
 X31.8750 Z0.4841
 X31.8438 Z0.4750
 X31.8281 Z0.4695
 X31.8125 Z0.4635
 X31.7813 Z0.4496
 X31.7656 Z0.4417
 X31.7578 Z0.4374
 X31.7500 Z0.4330
 X31.7188 Z0.4134
 X31.7031 Z0.4023
 X31.6875 Z0.3903
 X31.6563 Z0.3631
 X31.6406 Z0.3476
 X31.6328 Z0.3394
 X31.6289 Z0.3351
 X31.6270 Z0.3329
 X31.6250 Z0.3307
 X31.5938 Z0.2915
 X31.5781 Z0.2684
 X31.5703 Z0.2557
 X31.5664 Z0.2490
 X31.5645 Z0.2456
 X31.5625 Z0.2421
 X31.5469 Z0.2114
 X31.5391 Z0.1937
 X31.5352 Z0.1842
 X31.5313 Z0.1740
 X31.5234 Z0.1513
 X31.5195 Z0.1384
 X31.5156 Z0.1240
 X31.5117 Z0.1076
 X31.5078 Z0.0880
 X31.5039 Z0.0624
 X31.5020 Z0.0442
 X31.5010 Z0.0312
 X31.5005 Z0.0221
 X31.5002 Z0.0156
 X31.5001 Z0.0110
 Z0.0078
 X31.5000 Z0.0055
 Z0.0039
 Z0.0000
 X1.5625
 X1.5000 Z0.0652
 X1.4922 Z0.0889
 X1.4883 Z0.0984
 X1.4844 Z0.1069
 X1.4766 Z0.1219
 X1.4688 Z0.1347
 X1.4609 Z0.1460
 X1.4531 Z0.1560
 X1.4453 Z0.1651
 X1.4414 Z0.1694
 X1.4375 Z0.1734
 X1.4219 Z0.1879
 X1.4141 Z0.1943
 X1.4063 Z0.2001
 X1.3906 Z0.2105
 X1.3828 Z0.2151
 X1.3789 Z0.2172
 X1.3770 Z0.2183
 X1.3750 Z0.2193
 X1.3594 Z0.2266
 X1.3438 Z0.2327
 X1.3281 Z0.2376
 X1.3203 Z0.2396
 X1.3164 Z0.2406
 X1.3125 Z0.2414
 X1.2969 Z0.2441
 X1.2891 Z0.2451
 X1.2813 Z0.2458
 X1.2656 Z0.2466
 X1.2578 Z0.2465
 X1.2539 Z0.2464
 X1.2520
 X1.2500 Z0.2463
 X1.2344 Z0.2450
 X1.2188 Z0.2427
 X1.2031 Z0.2394
 X1.1953 Z0.2373
 X1.1914 Z0.2362
 X1.1875 Z0.2350
 X1.1719 Z0.2295
 X1.1641 Z0.2262
 X1.1563 Z0.2227
 X1.1406 Z0.2145
 X1.1328 Z0.2099
 X1.1289 Z0.2075
 X1.1270 Z0.2062
 X1.1250 Z0.2049
 X1.1094 Z0.1935
 X1.0938 Z0.1801
 X1.0859 Z0.1725
 X1.0781 Z0.1641
 X1.0703 Z0.1549
 X1.0664 Z0.1499
 X1.0645 Z0.1473
 X1.0625 Z0.1447
 X1.0547 Z0.1332
 X1.0469 Z0.1202
 X1.0391 Z0.1050
 X1.0313 Z0.0864
 X1.0234 Z0.0617
 X1.0215 Z0.0535
 X1.0195 Z0.0439
 X1.0176 Z0.0312
 X1.0166 Z0.0222
 X1.0161 Z0.0159
 X1.0159 Z0.0115
 X1.0157 Z0.0085
 Z0.0065
 Z0.0052
 X1.0156 Z0.0045
 Z0.0040
 Z0.0038
 Z0.0037
 Z0.0036
 Z0.0035
 X1.0154 Z0.0000
 X0.5000
 Y6.0772
 X31.5000
 X31.5078 Z0.0880
 X31.5117 Z0.1076
 X31.5156 Z0.1240
 X31.5234 Z0.1513
 X31.5313 Z0.1740
 X31.5469 Z0.2114
 X31.5547 Z0.2274
 X31.5625 Z0.2421
 X31.5781 Z0.2684
 X31.5938 Z0.2915
 X31.6094 Z0.3121
 X31.6172 Z0.3216
 X31.6250 Z0.3307
 X31.6563 Z0.3631
 X31.6719 Z0.3773
 X31.6875 Z0.3903
 X31.7188 Z0.4134
 X31.7344 Z0.4236
 X31.7422 Z0.4284
 X31.7500 Z0.4330
 X31.7813 Z0.4496
 X31.7969 Z0.4569
 X31.8125 Z0.4635
 X31.8438 Z0.4750
 X31.8594 Z0.4798
 X31.8672 Z0.4820
 X31.8750 Z0.4841
 X31.9063 Z0.4911
 X31.9375 Z0.4961
 X32.0000 Z0.5000
 X32.5000
 X32.5313 Z0.4990
 X32.5469 Z0.4978
 X32.5625 Z0.4961
 X32.5938 Z0.4911
 X32.6094 Z0.4879
 X32.6172 Z0.4861
 X32.6250 Z0.4841
 X32.6563 Z0.4750
 X32.6719 Z0.4695
 X32.6875 Z0.4635
 X32.7188 Z0.4496
 X32.7344 Z0.4417
 X32.7422 Z0.4374
 X32.7500 Z0.4330
 X32.7813 Z0.4134
 X32.7969 Z0.4023
 X32.8125 Z0.3903
 X32.8438 Z0.3631
 X32.8594 Z0.3476
 X32.8672 Z0.3394
 X32.8711 Z0.3351
 X32.8730 Z0.3329
 X32.8750 Z0.3307
 X32.9063 Z0.2915
 X32.9219 Z0.2684
 X32.9297 Z0.2557
 X32.9336 Z0.2490
 X32.9355 Z0.2456
 X32.9375 Z0.2421
 X32.9531 Z0.2114
 X32.9609 Z0.1937
 X32.9648 Z0.1842
 X32.9688 Z0.1740
 X32.9766 Z0.1513
 X32.9805 Z0.1384
 X32.9844 Z0.1240
 X32.9883 Z0.1076
 X32.9922 Z0.0880
 X32.9961 Z0.0624
 X32.9980 Z0.0442
 X32.9990 Z0.0312
 X32.9995 Z0.0221
 X32.9998 Z0.0156
 X32.9999 Z0.0110
 Z0.0078
 X33.0000 Z0.0055
 Z0.0039
 Z0.0000
 X49.5000
 Y6.4756
 X33.0000
 X32.9922 Z0.0880
 X32.9883 Z0.1076
 X32.9844 Z0.1240
 X32.9766 Z0.1513
 X32.9688 Z0.1740
 X32.9531 Z0.2114
 X32.9453 Z0.2274
 X32.9375 Z0.2421
 X32.9219 Z0.2684
 X32.9063 Z0.2915
 X32.8906 Z0.3121
 X32.8828 Z0.3216
 X32.8750 Z0.3307
 X32.8438 Z0.3631
 X32.8281 Z0.3773
 X32.8125 Z0.3903
 X32.7813 Z0.4134
 X32.7656 Z0.4236
 X32.7578 Z0.4284
 X32.7500 Z0.4330
 X32.7188 Z0.4496
 X32.7031 Z0.4569
 X32.6875 Z0.4635
 X32.6563 Z0.4750
 X32.6406 Z0.4798
 X32.6328 Z0.4820
 X32.6250 Z0.4841
 X32.5938 Z0.4911
 X32.5625 Z0.4961
 X32.5000 Z0.5000
 X32.0000
 X31.9688 Z0.4990
 X31.9531 Z0.4978
 X31.9375 Z0.4961
 X31.9063 Z0.4911
 X31.8906 Z0.4879
 X31.8828 Z0.4861
 X31.8750 Z0.4841
 X31.8438 Z0.4750
 X31.8281 Z0.4695
 X31.8125 Z0.4635
 X31.7813 Z0.4496
 X31.7656 Z0.4417
 X31.7578 Z0.4374
 X31.7500 Z0.4330
 X31.7188 Z0.4134
 X31.7031 Z0.4023
 X31.6875 Z0.3903
 X31.6563 Z0.3631
 X31.6406 Z0.3476
 X31.6328 Z0.3394
 X31.6289 Z0.3351
 X31.6270 Z0.3329
 X31.6250 Z0.3307
 X31.5938 Z0.2915
 X31.5781 Z0.2684
 X31.5703 Z0.2557
 X31.5664 Z0.2490
 X31.5645 Z0.2456
 X31.5625 Z0.2421
 X31.5469 Z0.2114
 X31.5391 Z0.1937
 X31.5352 Z0.1842
 X31.5313 Z0.1740
 X31.5234 Z0.1513
 X31.5195 Z0.1384
 X31.5156 Z0.1240
 X31.5117 Z0.1076
 X31.5078 Z0.0880
 X31.5039 Z0.0624
 X31.5020 Z0.0442
 X31.5010 Z0.0312
 X31.5005 Z0.0221
 X31.5002 Z0.0156
 X31.5001 Z0.0110
 Z0.0078
 X31.5000 Z0.0055
 Z0.0039
 Z0.0000
 X0.5000
 Y6.8740
 X31.5000
 X31.5078 Z0.0880
 X31.5117 Z0.1076
 X31.5156 Z0.1240
 X31.5234 Z0.1513
 X31.5313 Z0.1740
 X31.5469 Z0.2114
 X31.5547 Z0.2274
 X31.5625 Z0.2421
 X31.5781 Z0.2684
 X31.5938 Z0.2915
 X31.6094 Z0.3121
 X31.6172 Z0.3216
 X31.6250 Z0.3307
 X31.6563 Z0.3631
 X31.6719 Z0.3773
 X31.6875 Z0.3903
 X31.7188 Z0.4134
 X31.7344 Z0.4236
 X31.7422 Z0.4284
 X31.7500 Z0.4330
 X31.7813 Z0.4496
 X31.7969 Z0.4569
 X31.8125 Z0.4635
 X31.8438 Z0.4750
 X31.8594 Z0.4798
 X31.8672 Z0.4820
 X31.8750 Z0.4841
 X31.9063 Z0.4911
 X31.9375 Z0.4961
 X32.0000 Z0.5000
 X32.5000
 X32.5313 Z0.4990
 X32.5469 Z0.4978
 X32.5625 Z0.4961
 X32.5938 Z0.4911
 X32.6094 Z0.4879
 X32.6172 Z0.4861
 X32.6250 Z0.4841
 X32.6563 Z0.4750
 X32.6719 Z0.4695
 X32.6875 Z0.4635
 X32.7188 Z0.4496
 X32.7344 Z0.4417
 X32.7422 Z0.4374
 X32.7500 Z0.4330
 X32.7813 Z0.4134
 X32.7969 Z0.4023
 X32.8125 Z0.3903
 X32.8438 Z0.3631
 X32.8594 Z0.3476
 X32.8672 Z0.3394
 X32.8711 Z0.3351
 X32.8730 Z0.3329
 X32.8750 Z0.3307
 X32.9063 Z0.2915
 X32.9219 Z0.2684
 X32.9297 Z0.2557
 X32.9336 Z0.2490
 X32.9355 Z0.2456
 X32.9375 Z0.2421
 X32.9531 Z0.2114
 X32.9609 Z0.1937
 X32.9648 Z0.1842
 X32.9688 Z0.1740
 X32.9766 Z0.1513
 X32.9805 Z0.1384
 X32.9844 Z0.1240
 X32.9883 Z0.1076
 X32.9922 Z0.0880
 X32.9961 Z0.0624
 X32.9980 Z0.0442
 X32.9990 Z0.0312
 X32.9995 Z0.0221
 X32.9998 Z0.0156
 X32.9999 Z0.0110
 Z0.0078
 X33.0000 Z0.0055
 Z0.0039
 Z0.0000
 X49.5000
 Y7.2724
 X33.0000
 X32.9922 Z0.0880
 X32.9883 Z0.1076
 X32.9844 Z0.1240
 X32.9766 Z0.1513
 X32.9688 Z0.1740
 X32.9531 Z0.2114
 X32.9453 Z0.2274
 X32.9375 Z0.2421
 X32.9219 Z0.2684
 X32.9063 Z0.2915
 X32.8906 Z0.3121
 X32.8828 Z0.3216
 X32.8750 Z0.3307
 X32.8438 Z0.3631
 X32.8281 Z0.3773
 X32.8125 Z0.3903
 X32.7813 Z0.4134
 X32.7656 Z0.4236
 X32.7578 Z0.4284
 X32.7500 Z0.4330
 X32.7188 Z0.4496
 X32.7031 Z0.4569
 X32.6875 Z0.4635
 X32.6563 Z0.4750
 X32.6406 Z0.4798
 X32.6328 Z0.4820
 X32.6250 Z0.4841
 X32.5938 Z0.4911
 X32.5625 Z0.4961
 X32.5000 Z0.5000
 X32.0000
 X31.9688 Z0.4990
 X31.9531 Z0.4978
 X31.9375 Z0.4961
 X31.9063 Z0.4911
 X31.8906 Z0.4879
 X31.8828 Z0.4861
 X31.8750 Z0.4841
 X31.8438 Z0.4750
 X31.8281 Z0.4695
 X31.8125 Z0.4635
 X31.7813 Z0.4496
 X31.7656 Z0.4417
 X31.7578 Z0.4374
 X31.7500 Z0.4330
 X31.7188 Z0.4134
 X31.7031 Z0.4023
 X31.6875 Z0.3903
 X31.6563 Z0.3631
 X31.6406 Z0.3476
 X31.6328 Z0.3394
 X31.6289 Z0.3351
 X31.6270 Z0.3329
 X31.6250 Z0.3307
 X31.5938 Z0.2915
 X31.5781 Z0.2684
 X31.5703 Z0.2557
 X31.5664 Z0.2490
 X31.5645 Z0.2456
 X31.5625 Z0.2421
 X31.5469 Z0.2114
 X31.5391 Z0.1937
 X31.5352 Z0.1842
 X31.5313 Z0.1740
 X31.5234 Z0.1513
 X31.5195 Z0.1384
 X31.5156 Z0.1240
 X31.5117 Z0.1076
 X31.5078 Z0.0880
 X31.5039 Z0.0624
 X31.5020 Z0.0442
 X31.5010 Z0.0312
 X31.5005 Z0.0221
 X31.5002 Z0.0156
 X31.5001 Z0.0110
 Z0.0078
 X31.5000 Z0.0055
 Z0.0039
 Z0.0000
 X0.5000
 Y7.6707
 X31.5000
 X31.5078 Z0.0880
 X31.5117 Z0.1076
 X31.5156 Z0.1240
 X31.5234 Z0.1513
 X31.5313 Z0.1740
 X31.5469 Z0.2114
 X31.5547 Z0.2274
 X31.5625 Z0.2421
 X31.5781 Z0.2684
 X31.5938 Z0.2915
 X31.6094 Z0.3121
 X31.6172 Z0.3216
 X31.6250 Z0.3307
 X31.6563 Z0.3631
 X31.6719 Z0.3773
 X31.6875 Z0.3903
 X31.7188 Z0.4134
 X31.7344 Z0.4236
 X31.7422 Z0.4284
 X31.7500 Z0.4330
 X31.7813 Z0.4496
 X31.7969 Z0.4569
 X31.8125 Z0.4635
 X31.8438 Z0.4750
 X31.8594 Z0.4798
 X31.8672 Z0.4820
 X31.8750 Z0.4841
 X31.9063 Z0.4911
 X31.9375 Z0.4961
 X32.0000 Z0.5000
 X32.5000
 X32.5313 Z0.4990
 X32.5469 Z0.4978
 X32.5625 Z0.4961
 X32.5938 Z0.4911
 X32.6094 Z0.4879
 X32.6172 Z0.4861
 X32.6250 Z0.4841
 X32.6563 Z0.4750
 X32.6719 Z0.4695
 X32.6875 Z0.4635
 X32.7188 Z0.4496
 X32.7344 Z0.4417
 X32.7422 Z0.4374
 X32.7500 Z0.4330
 X32.7813 Z0.4134
 X32.7969 Z0.4023
 X32.8125 Z0.3903
 X32.8438 Z0.3631
 X32.8594 Z0.3476
 X32.8672 Z0.3394
 X32.8711 Z0.3351
 X32.8730 Z0.3329
 X32.8750 Z0.3307
 X32.9063 Z0.2915
 X32.9219 Z0.2684
 X32.9297 Z0.2557
 X32.9336 Z0.2490
 X32.9355 Z0.2456
 X32.9375 Z0.2421
 X32.9531 Z0.2114
 X32.9609 Z0.1937
 X32.9648 Z0.1842
 X32.9688 Z0.1740
 X32.9766 Z0.1513
 X32.9805 Z0.1384
 X32.9844 Z0.1240
 X32.9883 Z0.1076
 X32.9922 Z0.0880
 X32.9961 Z0.0624
 X32.9980 Z0.0442
 X32.9990 Z0.0312
 X32.9995 Z0.0221
 X32.9998 Z0.0156
 X32.9999 Z0.0110
 Z0.0078
 X33.0000 Z0.0055
 Z0.0039
 Z0.0000
 X49.5000
 Y8.0691
 X33.0000
 X32.9922 Z0.0880
 X32.9883 Z0.1076
 X32.9844 Z0.1240
 X32.9766 Z0.1513
 X32.9688 Z0.1740
 X32.9531 Z0.2114
 X32.9453 Z0.2274
 X32.9375 Z0.2421
 X32.9219 Z0.2684
 X32.9063 Z0.2915
 X32.8906 Z0.3121
 X32.8828 Z0.3216
 X32.8750 Z0.3307
 X32.8438 Z0.3631
 X32.8281 Z0.3773
 X32.8125 Z0.3903
 X32.7813 Z0.4134
 X32.7656 Z0.4236
 X32.7578 Z0.4284
 X32.7500 Z0.4330
 X32.7188 Z0.4496
 X32.7031 Z0.4569
 X32.6875 Z0.4635
 X32.6563 Z0.4750
 X32.6406 Z0.4798
 X32.6328 Z0.4820
 X32.6250 Z0.4841
 X32.5938 Z0.4911
 X32.5625 Z0.4961
 X32.5000 Z0.5000
 X32.0000
 X31.9688 Z0.4990
 X31.9531 Z0.4978
 X31.9375 Z0.4961
 X31.9063 Z0.4911
 X31.8906 Z0.4879
 X31.8828 Z0.4861
 X31.8750 Z0.4841
 X31.8438 Z0.4750
 X31.8281 Z0.4695
 X31.8125 Z0.4635
 X31.7813 Z0.4496
 X31.7656 Z0.4417
 X31.7578 Z0.4374
 X31.7500 Z0.4330
 X31.7188 Z0.4134
 X31.7031 Z0.4023
 X31.6875 Z0.3903
 X31.6563 Z0.3631
 X31.6406 Z0.3476
 X31.6328 Z0.3394
 X31.6289 Z0.3351
 X31.6270 Z0.3329
 X31.6250 Z0.3307
 X31.5938 Z0.2915
 X31.5781 Z0.2684
 X31.5703 Z0.2557
 X31.5664 Z0.2490
 X31.5645 Z0.2456
 X31.5625 Z0.2421
 X31.5469 Z0.2114
 X31.5391 Z0.1937
 X31.5352 Z0.1842
 X31.5313 Z0.1740
 X31.5234 Z0.1513
 X31.5195 Z0.1384
 X31.5156 Z0.1240
 X31.5117 Z0.1076
 X31.5078 Z0.0880
 X31.5039 Z0.0624
 X31.5020 Z0.0442
 X31.5010 Z0.0312
 X31.5005 Z0.0221
 X31.5002 Z0.0156
 X31.5001 Z0.0110
 Z0.0078
 X31.5000 Z0.0055
 Z0.0039
 Z0.0000
 X0.5000
 Y8.4675
 X31.5000
 X31.5078 Z0.0880
 X31.5117 Z0.1076
 X31.5156 Z0.1240
 X31.5234 Z0.1513
 X31.5313 Z0.1740
 X31.5469 Z0.2114
 X31.5547 Z0.2274
 X31.5625 Z0.2421
 X31.5781 Z0.2684
 X31.5938 Z0.2915
 X31.6094 Z0.3121
 X31.6172 Z0.3216
 X31.6250 Z0.3307
 X31.6563 Z0.3631
 X31.6719 Z0.3773
 X31.6875 Z0.3903
 X31.7188 Z0.4134
 X31.7344 Z0.4236
 X31.7422 Z0.4284
 X31.7500 Z0.4330
 X31.7813 Z0.4496
 X31.7969 Z0.4569
 X31.8125 Z0.4635
 X31.8438 Z0.4750
 X31.8594 Z0.4798
 X31.8672 Z0.4820
 X31.8750 Z0.4841
 X31.9063 Z0.4911
 X31.9375 Z0.4961
 X32.0000 Z0.5000
 X32.5000
 X32.5313 Z0.4990
 X32.5469 Z0.4978
 X32.5625 Z0.4961
 X32.5938 Z0.4911
 X32.6094 Z0.4879
 X32.6172 Z0.4861
 X32.6250 Z0.4841
 X32.6563 Z0.4750
 X32.6719 Z0.4695
 X32.6875 Z0.4635
 X32.7188 Z0.4496
 X32.7344 Z0.4417
 X32.7422 Z0.4374
 X32.7500 Z0.4330
 X32.7813 Z0.4134
 X32.7969 Z0.4023
 X32.8125 Z0.3903
 X32.8438 Z0.3631
 X32.8594 Z0.3476
 X32.8672 Z0.3394
 X32.8711 Z0.3351
 X32.8730 Z0.3329
 X32.8750 Z0.3307
 X32.9063 Z0.2915
 X32.9219 Z0.2684
 X32.9297 Z0.2557
 X32.9336 Z0.2490
 X32.9355 Z0.2456
 X32.9375 Z0.2421
 X32.9531 Z0.2114
 X32.9609 Z0.1937
 X32.9648 Z0.1842
 X32.9688 Z0.1740
 X32.9766 Z0.1513
 X32.9805 Z0.1384
 X32.9844 Z0.1240
 X32.9883 Z0.1076
 X32.9922 Z0.0880
 X32.9961 Z0.0624
 X32.9980 Z0.0442
 X32.9990 Z0.0312
 X32.9995 Z0.0221
 X32.9998 Z0.0156
 X32.9999 Z0.0110
 Z0.0078
 X33.0000 Z0.0055
 Z0.0039
 Z0.0000
 X49.5000
 Y8.8659
 X33.0000
 X32.9922 Z0.0880
 X32.9883 Z0.1076
 X32.9844 Z0.1240
 X32.9766 Z0.1513
 X32.9688 Z0.1740
 X32.9531 Z0.2114
 X32.9453 Z0.2274
 X32.9375 Z0.2421
 X32.9219 Z0.2684
 X32.9063 Z0.2915
 X32.8906 Z0.3121
 X32.8828 Z0.3216
 X32.8750 Z0.3307
 X32.8438 Z0.3631
 X32.8281 Z0.3773
 X32.8125 Z0.3903
 X32.7813 Z0.4134
 X32.7656 Z0.4236
 X32.7578 Z0.4284
 X32.7500 Z0.4330
 X32.7188 Z0.4496
 X32.7031 Z0.4569
 X32.6875 Z0.4635
 X32.6563 Z0.4750
 X32.6406 Z0.4798
 X32.6328 Z0.4820
 X32.6250 Z0.4841
 X32.5938 Z0.4911
 X32.5625 Z0.4961
 X32.5000 Z0.5000
 X32.0000
 X31.9688 Z0.4990
 X31.9531 Z0.4978
 X31.9375 Z0.4961
 X31.9063 Z0.4911
 X31.8906 Z0.4879
 X31.8828 Z0.4861
 X31.8750 Z0.4841
 X31.8438 Z0.4750
 X31.8281 Z0.4695
 X31.8125 Z0.4635
 X31.7813 Z0.4496
 X31.7656 Z0.4417
 X31.7578 Z0.4374
 X31.7500 Z0.4330
 X31.7188 Z0.4134
 X31.7031 Z0.4023
 X31.6875 Z0.3903
 X31.6563 Z0.3631
 X31.6406 Z0.3476
 X31.6328 Z0.3394
 X31.6289 Z0.3351
 X31.6270 Z0.3329
 X31.6250 Z0.3307
 X31.5938 Z0.2915
 X31.5781 Z0.2684
 X31.5703 Z0.2557
 X31.5664 Z0.2490
 X31.5645 Z0.2456
 X31.5625 Z0.2421
 X31.5469 Z0.2114
 X31.5391 Z0.1937
 X31.5352 Z0.1842
 X31.5313 Z0.1740
 X31.5234 Z0.1513
 X31.5195 Z0.1384
 X31.5156 Z0.1240
 X31.5117 Z0.1076
 X31.5078 Z0.0880
 X31.5039 Z0.0624
 X31.5020 Z0.0442
 X31.5010 Z0.0312
 X31.5005 Z0.0221
 X31.5002 Z0.0156
 X31.5001 Z0.0110
 Z0.0078
 X31.5000 Z0.0055
 Z0.0039
 Z0.0000
 X0.5000
 Y9.2642
 X31.5000
 X31.5078 Z0.0880
 X31.5117 Z0.1076
 X31.5156 Z0.1240
 X31.5234 Z0.1513
 X31.5313 Z0.1740
 X31.5469 Z0.2114
 X31.5547 Z0.2274
 X31.5625 Z0.2421
 X31.5781 Z0.2684
 X31.5938 Z0.2915
 X31.6094 Z0.3121
 X31.6172 Z0.3216
 X31.6250 Z0.3307
 X31.6563 Z0.3631
 X31.6719 Z0.3773
 X31.6875 Z0.3903
 X31.7188 Z0.4134
 X31.7344 Z0.4236
 X31.7422 Z0.4284
 X31.7500 Z0.4330
 X31.7813 Z0.4496
 X31.7969 Z0.4569
 X31.8125 Z0.4635
 X31.8438 Z0.4750
 X31.8594 Z0.4798
 X31.8672 Z0.4820
 X31.8750 Z0.4841
 X31.9063 Z0.4911
 X31.9375 Z0.4961
 X32.0000 Z0.5000
 X32.5000
 X32.5313 Z0.4990
 X32.5469 Z0.4978
 X32.5625 Z0.4961
 X32.5938 Z0.4911
 X32.6094 Z0.4879
 X32.6172 Z0.4861
 X32.6250 Z0.4841
 X32.6563 Z0.4750
 X32.6719 Z0.4695
 X32.6875 Z0.4635
 X32.7188 Z0.4496
 X32.7344 Z0.4417
 X32.7422 Z0.4374
 X32.7500 Z0.4330
 X32.7813 Z0.4134
 X32.7969 Z0.4023
 X32.8125 Z0.3903
 X32.8438 Z0.3631
 X32.8594 Z0.3476
 X32.8672 Z0.3394
 X32.8711 Z0.3351
 X32.8730 Z0.3329
 X32.8750 Z0.3307
 X32.9063 Z0.2915
 X32.9219 Z0.2684
 X32.9297 Z0.2557
 X32.9336 Z0.2490
 X32.9355 Z0.2456
 X32.9375 Z0.2421
 X32.9531 Z0.2114
 X32.9609 Z0.1937
 X32.9648 Z0.1842
 X32.9688 Z0.1740
 X32.9766 Z0.1513
 X32.9805 Z0.1384
 X32.9844 Z0.1240
 X32.9883 Z0.1076
 X32.9922 Z0.0880
 X32.9961 Z0.0624
 X32.9980 Z0.0442
 X32.9990 Z0.0312
 X32.9995 Z0.0221
 X32.9998 Z0.0156
 X32.9999 Z0.0110
 Z0.0078
 X33.0000 Z0.0055
 Z0.0039
 Z0.0000
 X49.5000
 Y9.6626
 X33.0000
 X32.9922 Z0.0880
 X32.9883 Z0.1076
 X32.9844 Z0.1240
 X32.9766 Z0.1513
 X32.9688 Z0.1740
 X32.9531 Z0.2114
 X32.9453 Z0.2274
 X32.9375 Z0.2421
 X32.9219 Z0.2684
 X32.9063 Z0.2915
 X32.8906 Z0.3121
 X32.8828 Z0.3216
 X32.8750 Z0.3307
 X32.8438 Z0.3631
 X32.8281 Z0.3773
 X32.8125 Z0.3903
 X32.7813 Z0.4134
 X32.7656 Z0.4236
 X32.7578 Z0.4284
 X32.7500 Z0.4330
 X32.7188 Z0.4496
 X32.7031 Z0.4569
 X32.6875 Z0.4635
 X32.6563 Z0.4750
 X32.6406 Z0.4798
 X32.6328 Z0.4820
 X32.6250 Z0.4841
 X32.5938 Z0.4911
 X32.5625 Z0.4961
 X32.5000 Z0.5000
 X32.0000
 X31.9688 Z0.4990
 X31.9531 Z0.4978
 X31.9375 Z0.4961
 X31.9063 Z0.4911
 X31.8906 Z0.4879
 X31.8828 Z0.4861
 X31.8750 Z0.4841
 X31.8438 Z0.4750
 X31.8281 Z0.4695
 X31.8125 Z0.4635
 X31.7813 Z0.4496
 X31.7656 Z0.4417
 X31.7578 Z0.4374
 X31.7500 Z0.4330
 X31.7188 Z0.4134
 X31.7031 Z0.4023
 X31.6875 Z0.3903
 X31.6563 Z0.3631
 X31.6406 Z0.3476
 X31.6328 Z0.3394
 X31.6289 Z0.3351
 X31.6270 Z0.3329
 X31.6250 Z0.3307
 X31.5938 Z0.2915
 X31.5781 Z0.2684
 X31.5703 Z0.2557
 X31.5664 Z0.2490
 X31.5645 Z0.2456
 X31.5625 Z0.2421
 X31.5469 Z0.2114
 X31.5391 Z0.1937
 X31.5352 Z0.1842
 X31.5313 Z0.1740
 X31.5234 Z0.1513
 X31.5195 Z0.1384
 X31.5156 Z0.1240
 X31.5117 Z0.1076
 X31.5078 Z0.0880
 X31.5039 Z0.0624
 X31.5020 Z0.0442
 X31.5010 Z0.0312
 X31.5005 Z0.0221
 X31.5002 Z0.0156
 X31.5001 Z0.0110
 Z0.0078
 X31.5000 Z0.0055
 Z0.0039
 Z0.0000
 X0.5000
 Y10.0610
 X31.5000
 X31.5078 Z0.0635
 X31.5117 Z0.0887
 X31.5156 Z0.1080
 X31.5234 Z0.1385
 X31.5313 Z0.1630
 X31.5469 Z0.2024
 X31.5547 Z0.2190
 X31.5625 Z0.2343
 X31.5781 Z0.2613
 X31.5938 Z0.2850
 X31.6094 Z0.3061
 X31.6172 Z0.3158
 X31.6211 Z0.3205
 X31.6250 Z0.3250
 X31.6563 Z0.3579
 X31.6719 Z0.3723
 X31.6875 Z0.3855
 X31.7188 Z0.4089
 X31.7344 Z0.4192
 X31.7422 Z0.4240
 X31.7500 Z0.4287
 X31.7813 Z0.4455
 X31.7969 Z0.4528
 X31.8125 Z0.4595
 X31.8438 Z0.4710
 X31.8594 Z0.4759
 X31.8672 Z0.4782
 X31.8750 Z0.4803
 X31.9063 Z0.4873
 X31.9219 Z0.4901
 X31.9375 Z0.4923
 X32.0000 Z0.4963
 X32.5000
 X32.5313 Z0.4953
 X32.5469 Z0.4940
 X32.5625 Z0.4923
 X32.5938 Z0.4873
 X32.6094 Z0.4841
 X32.6172 Z0.4822
 X32.6250 Z0.4803
 X32.6563 Z0.4710
 X32.6719 Z0.4656
 X32.6875 Z0.4595
 X32.7188 Z0.4455
 X32.7344 Z0.4374
 X32.7422 Z0.4332
 X32.7500 Z0.4287
 X32.7813 Z0.4089
 X32.7969 Z0.3977
 X32.8125 Z0.3855
 X32.8438 Z0.3579
 X32.8594 Z0.3422
 X32.8672 Z0.3338
 X32.8711 Z0.3295
 X32.8730 Z0.3273
 X32.8750 Z0.3250
 X32.9063 Z0.2850
 X32.9219 Z0.2613
 X32.9297 Z0.2483
 X32.9336 Z0.2414
 X32.9375 Z0.2343
 X32.9531 Z0.2024
 X32.9609 Z0.1839
 X32.9648 Z0.1738
 X32.9688 Z0.1630
 X32.9766 Z0.1385
 X32.9805 Z0.1242
 X32.9844 Z0.1080
 X32.9922 Z0.0635
 X32.9941 Z0.0459
 X32.9951 Z0.0338
 X32.9956 Z0.0256
 X32.9958 Z0.0204
 X32.9960 Z0.0171
 Z0.0153
 X32.9961 Z0.0143
 Z0.0137
 Z0.0134
 Z0.0132
 X32.9963 Z0.0000
 X49.5000
 Y10.4593
 X32.7031
 X32.6953 Z0.0292
 X32.6914 Z0.0486
 X32.6895 Z0.0557
 X32.6885 Z0.0589
 X32.6880 Z0.0605
 X32.6875 Z0.0620
 X32.6836 Z0.0727
 X32.6797 Z0.0819
 X32.6719 Z0.0972
 X32.6641 Z0.1099
 X32.6602 Z0.1155
 X32.6563 Z0.1208
 X32.6484 Z0.1302
 X32.6406 Z0.1386
 X32.6328 Z0.1461
 X32.6289 Z0.1496
 X32.6270 Z0.1513
 X32.6260 Z0.1521
 X32.6250 Z0.1529
 X32.6172 Z0.1589
 X32.6094 Z0.1644
 X32.6016 Z0.1694
 X32.5938 Z0.1738
 X32.5781 Z0.1814
 X32.5703 Z0.1845
 X32.5664 Z0.1860
 X32.5625 Z0.1873
 X32.5469 Z0.1918
 X32.5391 Z0.1936
 X32.5313 Z0.1950
 X32.5000 Z0.1975
 X32.0000
 X31.9844 Z0.1969
 X31.9688 Z0.1950
 X31.9531 Z0.1918
 X31.9453 Z0.1898
 X31.9414 Z0.1886
 X31.9375 Z0.1873
 X31.9219 Z0.1814
 X31.9141 Z0.1778
 X31.9102 Z0.1759
 X31.9063 Z0.1738
 X31.8984 Z0.1694
 X31.8906 Z0.1644
 X31.8828 Z0.1589
 X31.8789 Z0.1560
 X31.8750 Z0.1529
 X31.8672 Z0.1461
 X31.8594 Z0.1386
 X31.8516 Z0.1302
 X31.8477 Z0.1257
 X31.8438 Z0.1208
 X31.8359 Z0.1099
 X31.8320 Z0.1038
 X31.8281 Z0.0972
 X31.8242 Z0.0900
 X31.8203 Z0.0819
 X31.8164 Z0.0727
 X31.8145 Z0.0676
 X31.8135 Z0.0649
 X31.8130 Z0.0634
 X31.8127 Z0.0627
 X31.8125 Z0.0620
 X31.8047 Z0.0292
 X31.8027 Z0.0092
 X31.8025 Z0.0000
 X0.5000
 Y10.8577
 X49.5000
 Y11.2561
 X0.5000
 Y11.6545
 X49.5000
 Y12.0528
 X0.5000
 Y12.4512
 X49.5000
 Y12.8496
 X0.5000
 Y13.2480
 X49.5000
 Y13.6463
 X0.5000
 Y14.0447
 X49.5000
 Y14.4431
 X0.5000
 Y14.8415
 X49.5000
 Y15.2398
 X0.5000
 Y15.6382
 X49.5000
 Y16.0366
 X0.5000
 Y16.4350
 X49.5000
 Y16.8333
 X0.5000
 Y17.2317
 X49.5000
 Y17.6301
 X0.5000
 Y18.0285
 X49.5000
 Y18.4268
 X0.5000
 Y18.8252
 X49.5000
 Y19.2236
 X0.5000
 Y19.6220
 X49.5000
 Y20.0203
 X0.5000
 Y20.4187
 X49.5000
 Y20.8171
 X0.5000
 Y21.2154
 X49.5000
 Y21.6138
 X0.5000
 Y22.0122
 X49.5000
 Y22.4106
 X0.5000
 Y22.8089
 X49.5000
 Y23.2073
 X0.5000
 Y23.6057
 X49.5000
 Y24.0041
 X0.5000
 Y24.4024
 X4.6250
 X4.6563 Z0.1051
 X4.6641 Z0.1279
 X4.6719 Z0.1467
 X4.6797 Z0.1631
 X4.6836 Z0.1706
 X4.6875 Z0.1776
 X4.7031 Z0.2026
 X4.7109 Z0.2136
 X4.7188 Z0.2238
 X4.7344 Z0.2422
 X4.7422 Z0.2505
 X4.7461 Z0.2544
 X4.7500 Z0.2583
 X4.7813 Z0.2852
 X4.7969 Z0.2965
 X4.8047 Z0.3018
 X4.8125 Z0.3067
 X4.8281 Z0.3157
 X4.8438 Z0.3237
 X4.8594 Z0.3308
 X4.8672 Z0.3340
 X4.8711 Z0.3355
 X4.8750 Z0.3370
 X4.9063 Z0.3470
 X4.9219 Z0.3509
 X4.9375 Z0.3540
 X5.0000 Z0.3594
 X10.0000
 X10.0313 Z0.3581
 X10.0469 Z0.3564
 X10.0625 Z0.3540
 X10.0781 Z0.3509
 X10.0938 Z0.3470
 X10.1094 Z0.3424
 X10.1172 Z0.3398
 X10.1211 Z0.3384
 X10.1250 Z0.3370
 X10.1563 Z0.3237
 X10.1719 Z0.3157
 X10.1797 Z0.3113
 X10.1875 Z0.3067
 X10.2031 Z0.2965
 X10.2188 Z0.2852
 X10.2344 Z0.2725
 X10.2422 Z0.2656
 X10.2461 Z0.2620
 X10.2480 Z0.2601
 X10.2500 Z0.2583
 X10.2656 Z0.2422
 X10.2813 Z0.2238
 X10.2969 Z0.2026
 X10.3047 Z0.1907
 X10.3086 Z0.1843
 X10.3125 Z0.1776
 X10.3281 Z0.1467
 X10.3359 Z0.1279
 X10.3438 Z0.1051
 X10.3516 Z0.0749
 X10.3555 Z0.0533
 X10.3574 Z0.0381
 X10.3584 Z0.0274
 X10.3589 Z0.0200
 X10.3591 Z0.0150
 X10.3593 Z0.0118
 Z0.0097
 Z0.0085
 X10.3594 Z0.0079
 Z0.0075
 Z0.0073
 Z0.0072
 Z0.0071
 X10.3596 Z0.0000
 X49.5000
 Y24.8008
 X10.5000
 X10.4922 Z0.0880
 X10.4883 Z0.1076
 X10.4844 Z0.1240
 X10.4766 Z0.1513
 X10.4688 Z0.1740
 X10.4531 Z0.2114
 X10.4453 Z0.2274
 X10.4375 Z0.2421
 X10.4219 Z0.2684
 X10.4063 Z0.2915
 X10.3906 Z0.3121
 X10.3828 Z0.3216
 X10.3750 Z0.3307
 X10.3438 Z0.3631
 X10.3281 Z0.3773
 X10.3125 Z0.3903
 X10.2813 Z0.4134
 X10.2656 Z0.4236
 X10.2578 Z0.4284
 X10.2500 Z0.4330
 X10.2188 Z0.4496
 X10.2031 Z0.4569
 X10.1875 Z0.4635
 X10.1563 Z0.4750
 X10.1406 Z0.4798
 X10.1328 Z0.4820
 X10.1250 Z0.4841
 X10.0938 Z0.4911
 X10.0625 Z0.4961
 X10.0000 Z0.5000
 X5.0000
 X4.9688 Z0.4990
 X4.9531 Z0.4978
 X4.9375 Z0.4961
 X4.9063 Z0.4911
 X4.8906 Z0.4879
 X4.8828 Z0.4861
 X4.8750 Z0.4841
 X4.8438 Z0.4750
 X4.8281 Z0.4695
 X4.8125 Z0.4635
 X4.7813 Z0.4496
 X4.7656 Z0.4417
 X4.7578 Z0.4374
 X4.7500 Z0.4330
 X4.7188 Z0.4134
 X4.7031 Z0.4023
 X4.6875 Z0.3903
 X4.6563 Z0.3631
 X4.6406 Z0.3476
 X4.6328 Z0.3394
 X4.6289 Z0.3351
 X4.6270 Z0.3329
 X4.6250 Z0.3307
 X4.5938 Z0.2915
 X4.5781 Z0.2684
 X4.5703 Z0.2557
 X4.5664 Z0.2490
 X4.5645 Z0.2456
 X4.5625 Z0.2421
 X4.5469 Z0.2114
 X4.5391 Z0.1937
 X4.5352 Z0.1842
 X4.5313 Z0.1740
 X4.5234 Z0.1513
 X4.5195 Z0.1384
 X4.5156 Z0.1240
 X4.5117 Z0.1076
 X4.5078 Z0.0880
 X4.5039 Z0.0624
 X4.5020 Z0.0442
 X4.5010 Z0.0312
 X4.5005 Z0.0221
 X4.5002 Z0.0156
 X4.5001 Z0.0110
 Z0.0078
 X4.5000 Z0.0055
 Z0.0039
 Z0.0000
 X0.5000
 Y25.1992
 X4.5000
 X4.5078 Z0.0880
 X4.5117 Z0.1076
 X4.5156 Z0.1240
 X4.5234 Z0.1513
 X4.5313 Z0.1740
 X4.5469 Z0.2114
 X4.5547 Z0.2274
 X4.5625 Z0.2421
 X4.5781 Z0.2684
 X4.5938 Z0.2915
 X4.6094 Z0.3121
 X4.6172 Z0.3216
 X4.6250 Z0.3307
 X4.6563 Z0.3631
 X4.6719 Z0.3773
 X4.6875 Z0.3903
 X4.7188 Z0.4134
 X4.7344 Z0.4236
 X4.7422 Z0.4284
 X4.7500 Z0.4330
 X4.7813 Z0.4496
 X4.7969 Z0.4569
 X4.8125 Z0.4635
 X4.8438 Z0.4750
 X4.8594 Z0.4798
 X4.8672 Z0.4820
 X4.8750 Z0.4841
 X4.9063 Z0.4911
 X4.9375 Z0.4961
 X5.0000 Z0.5000
 X10.0000
 X10.0313 Z0.4990
 X10.0469 Z0.4978
 X10.0625 Z0.4961
 X10.0938 Z0.4911
 X10.1094 Z0.4879
 X10.1172 Z0.4861
 X10.1250 Z0.4841
 X10.1563 Z0.4750
 X10.1719 Z0.4695
 X10.1875 Z0.4635
 X10.2188 Z0.4496
 X10.2344 Z0.4417
 X10.2422 Z0.4374
 X10.2500 Z0.4330
 X10.2813 Z0.4134
 X10.2969 Z0.4023
 X10.3125 Z0.3903
 X10.3438 Z0.3631
 X10.3594 Z0.3476
 X10.3672 Z0.3394
 X10.3711 Z0.3351
 X10.3730 Z0.3329
 X10.3750 Z0.3307
 X10.4063 Z0.2915
 X10.4219 Z0.2684
 X10.4297 Z0.2557
 X10.4336 Z0.2490
 X10.4355 Z0.2456
 X10.4375 Z0.2421
 X10.4531 Z0.2114
 X10.4609 Z0.1937
 X10.4648 Z0.1842
 X10.4688 Z0.1740
 X10.4766 Z0.1513
 X10.4805 Z0.1384
 X10.4844 Z0.1240
 X10.4883 Z0.1076
 X10.4922 Z0.0880
 X10.4961 Z0.0624
 X10.4980 Z0.0442
 X10.4990 Z0.0312
 X10.4995 Z0.0221
 X10.4998 Z0.0156
 X10.4999 Z0.0110
 Z0.0078
 X10.5000 Z0.0055
 Z0.0039
 Z0.0000
 X49.5000
 Y25.5976
 X10.3750
 X10.3438 Z0.1051
 X10.3359 Z0.1279
 X10.3281 Z0.1467
 X10.3203 Z0.1631
 X10.3164 Z0.1706
 X10.3125 Z0.1776
 X10.2969 Z0.2026
 X10.2891 Z0.2136
 X10.2813 Z0.2238
 X10.2656 Z0.2422
 X10.2578 Z0.2505
 X10.2539 Z0.2544
 X10.2500 Z0.2583
 X10.2188 Z0.2852
 X10.2031 Z0.2965
 X10.1953 Z0.3018
 X10.1875 Z0.3067
 X10.1719 Z0.3157
 X10.1563 Z0.3237
 X10.1406 Z0.3308
 X10.1328 Z0.3340
 X10.1289 Z0.3355
 X10.1250 Z0.3370
 X10.0938 Z0.3470
 X10.0781 Z0.3509
 X10.0625 Z0.3540
 X10.0000 Z0.3594
 X5.0000
 X4.9688 Z0.3581
 X4.9531 Z0.3564
 X4.9375 Z0.3540
 X4.9219 Z0.3509
 X4.9063 Z0.3470
 X4.8906 Z0.3424
 X4.8828 Z0.3398
 X4.8789 Z0.3384
 X4.8750 Z0.3370
 X4.8438 Z0.3237
 X4.8281 Z0.3157
 X4.8203 Z0.3113
 X4.8125 Z0.3067
 X4.7969 Z0.2965
 X4.7813 Z0.2852
 X4.7656 Z0.2725
 X4.7578 Z0.2656
 X4.7539 Z0.2620
 X4.7520 Z0.2601
 X4.7500 Z0.2583
 X4.7344 Z0.2422
 X4.7188 Z0.2238
 X4.7031 Z0.2026
 X4.6953 Z0.1907
 X4.6914 Z0.1843
 X4.6875 Z0.1776
 X4.6719 Z0.1467
 X4.6641 Z0.1279
 X4.6563 Z0.1051
 X4.6484 Z0.0749
 X4.6445 Z0.0533
 X4.6426 Z0.0381
 X4.6416 Z0.0274
 X4.6411 Z0.0200
 X4.6409 Z0.0150
 X4.6407 Z0.0118
 Z0.0097
 Z0.0085
 X4.6406 Z0.0079
 Z0.0075
 Z0.0073
 Z0.0072
 Z0.0071
 X4.6404 Z0.0000
 X0.5000
 Y25.9959
 X49.5000
 Y26.3943
 X0.5000
 Y26.7927
 X49.5000
 Y27.1911
 X0.5000
 Y27.5894
 X49.5000
 Y27.9878
 X0.5000
 Y28.3862
 X49.5000
 Y28.7846
 X0.5000
 Y29.1829
 X49.5000
 Y29.5813
 X0.5000
 Y29.9797
 X49.5000
 Y30.3780
 X0.5000
 Y30.7764
 X49.5000
 Y31.1748
 X0.5000
 Y31.5732
 X49.5000
 Y31.9715
 X0.5000
 Y32.3699
 X49.5000
 Y32.7683
 X0.5000
 Y33.1667
 X49.5000
 Y33.5650
 X0.5000
 Y33.9634
 X49.5000
 Y34.3618
 X0.5000
 Y34.7602
 X49.5000
 Y35.1585
 X0.5000
 Y35.5569
 X49.5000
 Y35.9553
 X0.5000
 Y36.3537
 X49.5000
 Y36.7520
 X0.5000
 Y37.1504
 X49.5000
 Y37.5488
 X0.5000
 Y37.9472
 X10.5625
 X10.6250 Z0.1121
 X10.6328 Z0.1328
 X10.6406 Z0.1505
 X10.6563 Z0.1803
 X10.6719 Z0.2053
 X10.6797 Z0.2165
 X10.6875 Z0.2271
 X10.7188 Z0.2641
 X10.7344 Z0.2802
 X10.7422 Z0.2878
 X10.7500 Z0.2951
 X10.7813 Z0.3217
 X10.8125 Z0.3451
 X10.8438 Z0.3658
 X10.8750 Z0.3842
 X10.9375 Z0.4155
 X10.9688 Z0.4287
 X10.9844 Z0.4348
 X10.9922 Z0.4378
 X11.0000 Z0.4406
 X11.0313 Z0.4506
 X11.0469 Z0.4547
 X11.0625 Z0.4582
 X11.0938 Z0.4636
 X11.1094 Z0.4655
 X11.1172 Z0.4662
 X11.1250 Z0.4668
 X11.1563 Z0.4680
 X11.1719 Z0.4678
 X11.1875 Z0.4670
 X11.2188 Z0.4640
 X11.2344 Z0.4617
 X11.2422 Z0.4603
 X11.2500 Z0.4588
 X11.2813 Z0.4514
 X11.2969 Z0.4468
 X11.3125 Z0.4416
 X11.3438 Z0.4294
 X11.3594 Z0.4223
 X11.3750 Z0.4147
 X11.4063 Z0.3981
 X11.4375 Z0.3793
 X11.4688 Z0.3581
 X11.4844 Z0.3464
 X11.4922 Z0.3402
 X11.5000 Z0.3339
 X11.5313 Z0.3060
 X11.5469 Z0.2904
 X11.5547 Z0.2821
 X11.5625 Z0.2734
 X11.6250 Z0.1836
 X11.6328 Z0.1681
 X11.6406 Z0.1509
 X11.6484 Z0.1312
 X11.6523 Z0.1200
 X11.6543 Z0.1139
 X11.6563 Z0.1075
 X11.6602 Z0.0934
 X11.6621 Z0.0854
 X11.6641 Z0.0766
 X11.6680 Z0.0546
 X11.6699 Z0.0392
 X11.6709 Z0.0286
 X11.6714 Z0.0213
 X11.6716 Z0.0165
 X11.6718 Z0.0135
 Z0.0117
 Z0.0107
 X11.6719 Z0.0101
 Z0.0098
 Z0.0097
 Z0.0096
 Z0.0095
 X11.6721 Z0.0000
 X49.5000
 Y38.3455
 X11.9727
 X11.9688 Z0.0262
 X11.9648 Z0.0663
 X11.9609 Z0.0898
 X11.9531 Z0.1238
 X11.9453 Z0.1499
 X11.9414 Z0.1612
 X11.9375 Z0.1717
 X11.9219 Z0.2078
 X11.9141 Z0.2232
 X11.9063 Z0.2374
 X11.8906 Z0.2627
 X11.8828 Z0.2742
 X11.8789 Z0.2797
 X11.8750 Z0.2850
 X11.8438 Z0.3228
 X11.8281 Z0.3390
 X11.8125 Z0.3538
 X11.7813 Z0.3798
 X11.7656 Z0.3912
 X11.7578 Z0.3965
 X11.7500 Z0.4016
 X11.7188 Z0.4200
 X11.7031 Z0.4281
 X11.6875 Z0.4354
 X11.6563 Z0.4481
 X11.6250 Z0.4589
 X11.5625 Z0.4763
 X11.5313 Z0.4831
 X11.5000 Z0.4887
 X11.3750 Z0.4998
 X11.2500 Z0.5000
 X11.0000
 X10.8750 Z0.4994
 X10.8125 Z0.4957
 X10.7500 Z0.4883
 X10.6875 Z0.4772
 X10.6563 Z0.4701
 X10.6250 Z0.4620
 X10.5625 Z0.4424
 X10.5313 Z0.4307
 X10.5000 Z0.4177
 X10.4688 Z0.4031
 X10.4375 Z0.3869
 X10.4063 Z0.3688
 X10.3906 Z0.3590
 X10.3828 Z0.3538
 X10.3750 Z0.3485
 X10.3438 Z0.3256
 X10.3281 Z0.3130
 X10.3125 Z0.2996
 X10.2813 Z0.2694
 X10.2656 Z0.2523
 X10.2578 Z0.2431
 X10.2500 Z0.2334
 X10.1875 Z0.1256
 X10.1719 Z0.0744
 X10.1680 Z0.0543
 X10.1660 Z0.0405
 X10.1650 Z0.0315
 X10.1646 Z0.0258
 X10.1643 Z0.0224
 X10.1642 Z0.0205
 X10.1641 Z0.0195
 Z0.0190
 Z0.0187
 Z0.0184
 X10.1636 Z0.0036
 X10.1633 Z0.0000
 X0.5000
 Y38.7439
 X9.7188
 X9.7266 Z0.0603
 X9.7305 Z0.0789
 X9.7344 Z0.0938
 X9.7422 Z0.1179
 X9.7461 Z0.1282
 X9.7480 Z0.1330
 X9.7500 Z0.1377
 X9.7656 Z0.1700
 X9.7813 Z0.1965
 X9.7969 Z0.2194
 X9.8047 Z0.2298
 X9.8125 Z0.2396
 X9.8438 Z0.2745
 X9.8594 Z0.2897
 X9.8750 Z0.3039
 X9.9063 Z0.3294
 X9.9375 Z0.3519
 X9.9688 Z0.3718
 X10.0000 Z0.3896
 X10.0625 Z0.4198
 X10.0938 Z0.4326
 X10.1250 Z0.4441
 X10.1875 Z0.4633
 X10.2500 Z0.4782
 X10.3125 Z0.4890
 X10.3750 Z0.4961
 X10.5000 Z0.5000
 X11.1250
 X11.2500 Z0.4995
 X11.3125 Z0.4958
 X11.3750 Z0.4885
 X11.4375 Z0.4774
 X11.4688 Z0.4704
 X11.5000 Z0.4624
 X11.5625 Z0.4429
 X11.5938 Z0.4312
 X11.6094 Z0.4249
 X11.6250 Z0.4183
 X11.6563 Z0.4038
 X11.6875 Z0.3877
 X11.7188 Z0.3697
 X11.7344 Z0.3596
 X11.7422 Z0.3542
 X11.7461 Z0.3514
 X11.7500 Z0.3486
 X11.7813 Z0.3232
 X11.7969 Z0.3085
 X11.8047 Z0.3006
 X11.8125 Z0.2922
 X11.8750 Z0.2036
 X11.8828 Z0.1882
 X11.8906 Z0.1710
 X11.8984 Z0.1515
 X11.9023 Z0.1406
 X11.9063 Z0.1287
 X11.9219 Z0.0581
 X11.9238 Z0.0412
 X11.9248 Z0.0292
 X11.9253 Z0.0207
 X11.9255 Z0.0147
 X11.9257 Z0.0106
 Z0.0076
 X11.9258 Z0.0057
 Z0.0043
 Z0.0035
 Z0.0030
 Z0.0027
 Z0.0025
 Z0.0024
 Z0.0023
 X11.9260 Z0.0000
 X49.5000
 Y39.1423
 X11.5313
 X11.5156 Z0.0564
 X11.5078 Z0.0914
 X11.5039 Z0.1044
 X11.5020 Z0.1104
 X11.5000 Z0.1160
 X11.4922 Z0.1361
 X11.4844 Z0.1534
 X11.4688 Z0.1826
 X11.4531 Z0.2073
 X11.4453 Z0.2184
 X11.4375 Z0.2289
 X11.4063 Z0.2656
 X11.3906 Z0.2816
 X11.3828 Z0.2891
 X11.3750 Z0.2963
 X11.3438 Z0.3228
 X11.3125 Z0.3461
 X11.2813 Z0.3666
 X11.2500 Z0.3850
 X11.1875 Z0.4161
 X11.1563 Z0.4293
 X11.1250 Z0.4411
 X11.0625 Z0.4610
 X11.0000 Z0.4764
 X10.9375 Z0.4878
 X10.8750 Z0.4953
 X10.7500 Z0.5000
 X10.1250
 X10.0000 Z0.4997
 X9.9375 Z0.4965
 X9.8750 Z0.4897
 X9.8125 Z0.4792
 X9.7813 Z0.4724
 X9.7500 Z0.4647
 X9.6875 Z0.4458
 X9.6563 Z0.4345
 X9.6250 Z0.4219
 X9.5938 Z0.4079
 X9.5625 Z0.3922
 X9.5313 Z0.3748
 X9.5156 Z0.3653
 X9.5000 Z0.3552
 X9.4688 Z0.3332
 X9.4531 Z0.3211
 X9.4375 Z0.3082
 X9.4063 Z0.2794
 X9.3906 Z0.2632
 X9.3828 Z0.2546
 X9.3789 Z0.2501
 X9.3750 Z0.2456
 X9.3438 Z0.2041
 X9.3281 Z0.1789
 X9.3125 Z0.1487
 X9.3047 Z0.1308
 X9.2969 Z0.1097
 X9.2930 Z0.0973
 X9.2891 Z0.0831
 X9.2852 Z0.0657
 X9.2832 Z0.0549
 X9.2822 Z0.0487
 X9.2817 Z0.0452
 X9.2815 Z0.0434
 X9.2814 Z0.0424
 X9.2813 Z0.0419
 Z0.0417
 Z0.0415
 X9.2793 Z0.0204
 X9.2788 Z0.0094
 X9.2786 Z0.0000
 X0.5000
 Y39.5407
 X8.7500
 X8.8750 Z0.1589
 X8.8906 Z0.1873
 X8.9063 Z0.2113
 X8.9219 Z0.2324
 X8.9375 Z0.2513
 X8.9688 Z0.2843
 X8.9844 Z0.2988
 X9.0000 Z0.3124
 X9.0313 Z0.3368
 X9.0625 Z0.3584
 X9.0938 Z0.3776
 X9.1250 Z0.3948
 X9.1875 Z0.4240
 X9.2188 Z0.4364
 X9.2500 Z0.4474
 X9.3125 Z0.4660
 X9.3750 Z0.4801
 X9.4375 Z0.4904
 X9.5000 Z0.4969
 X9.6250 Z0.5000
 X10.3125
 X10.3750 Z0.4991
 X10.4375 Z0.4949
 X10.5000 Z0.4870
 X10.5625 Z0.4753
 X10.5938 Z0.4680
 X10.6250 Z0.4596
 X10.6875 Z0.4393
 X10.7188 Z0.4273
 X10.7500 Z0.4139
 X10.7813 Z0.3989
 X10.8125 Z0.3822
 X10.8438 Z0.3635
 X10.8594 Z0.3534
 X10.8672 Z0.3481
 X10.8750 Z0.3426
 X10.9063 Z0.3189
 X10.9219 Z0.3058
 X10.9375 Z0.2918
 X10.9531 Z0.2767
 X10.9688 Z0.2603
 X10.9844 Z0.2423
 X11.0000 Z0.2224
 X11.0625 Z0.1012
 X11.0664 Z0.0876
 X11.0684 Z0.0799
 X11.0703 Z0.0713
 X11.0723 Z0.0616
 X11.0742 Z0.0499
 X11.0762 Z0.0345
 X11.0771 Z0.0232
 X11.0776 Z0.0145
 X11.0779 Z0.0069
 X11.0780 Z0.0000
 X31.7969
 X31.8047 Z0.0292
 X31.8086 Z0.0486
 X31.8105 Z0.0557
 X31.8115 Z0.0589
 X31.8120 Z0.0605
 X31.8125 Z0.0620
 X31.8164 Z0.0727
 X31.8203 Z0.0819
 X31.8281 Z0.0972
 X31.8359 Z0.1099
 X31.8398 Z0.1155
 X31.8438 Z0.1208
 X31.8516 Z0.1302
 X31.8594 Z0.1386
 X31.8672 Z0.1461
 X31.8711 Z0.1496
 X31.8730 Z0.1513
 X31.8740 Z0.1521
 X31.8750 Z0.1529
 X31.8828 Z0.1589
 X31.8906 Z0.1644
 X31.8984 Z0.1694
 X31.9063 Z0.1738
 X31.9219 Z0.1814
 X31.9297 Z0.1845
 X31.9336 Z0.1860
 X31.9375 Z0.1873
 X31.9531 Z0.1918
 X31.9609 Z0.1936
 X31.9688 Z0.1950
 X32.0000 Z0.1975
 X32.5000
 X32.5156 Z0.1969
 X32.5313 Z0.1950
 X32.5469 Z0.1918
 X32.5547 Z0.1898
 X32.5586 Z0.1886
 X32.5625 Z0.1873
 X32.5781 Z0.1814
 X32.5859 Z0.1778
 X32.5898 Z0.1759
 X32.5938 Z0.1738
 X32.6016 Z0.1694
 X32.6094 Z0.1644
 X32.6172 Z0.1589
 X32.6211 Z0.1560
 X32.6250 Z0.1529
 X32.6328 Z0.1461
 X32.6406 Z0.1386
 X32.6484 Z0.1302
 X32.6523 Z0.1257
 X32.6563 Z0.1208
 X32.6641 Z0.1099
 X32.6680 Z0.1038
 X32.6719 Z0.0972
 X32.6758 Z0.0900
 X32.6797 Z0.0819
 X32.6836 Z0.0727
 X32.6855 Z0.0676
 X32.6865 Z0.0649
 X32.6870 Z0.0634
 X32.6873 Z0.0627
 X32.6875 Z0.0620
 X32.6953 Z0.0292
 X32.6973 Z0.0092
 X32.6975 Z0.0000
 X49.5000
 Y39.9390
 X33.0000
 X32.9922 Z0.0635
 X32.9883 Z0.0887
 X32.9844 Z0.1080
 X32.9766 Z0.1385
 X32.9688 Z0.1630
 X32.9531 Z0.2024
 X32.9453 Z0.2190
 X32.9375 Z0.2343
 X32.9219 Z0.2613
 X32.9063 Z0.2850
 X32.8906 Z0.3061
 X32.8828 Z0.3158
 X32.8789 Z0.3205
 X32.8750 Z0.3250
 X32.8438 Z0.3579
 X32.8281 Z0.3723
 X32.8125 Z0.3855
 X32.7813 Z0.4089
 X32.7656 Z0.4192
 X32.7578 Z0.4240
 X32.7500 Z0.4287
 X32.7188 Z0.4455
 X32.7031 Z0.4528
 X32.6875 Z0.4595
 X32.6563 Z0.4710
 X32.6406 Z0.4759
 X32.6328 Z0.4782
 X32.6250 Z0.4803
 X32.5938 Z0.4873
 X32.5781 Z0.4901
 X32.5625 Z0.4923
 X32.5000 Z0.4963
 X32.0000
 X31.9688 Z0.4953
 X31.9531 Z0.4940
 X31.9375 Z0.4923
 X31.9063 Z0.4873
 X31.8906 Z0.4841
 X31.8828 Z0.4822
 X31.8750 Z0.4803
 X31.8438 Z0.4710
 X31.8281 Z0.4656
 X31.8125 Z0.4595
 X31.7813 Z0.4455
 X31.7656 Z0.4374
 X31.7578 Z0.4332
 X31.7500 Z0.4287
 X31.7188 Z0.4089
 X31.7031 Z0.3977
 X31.6875 Z0.3855
 X31.6563 Z0.3579
 X31.6406 Z0.3422
 X31.6328 Z0.3338
 X31.6289 Z0.3295
 X31.6270 Z0.3273
 X31.6250 Z0.3250
 X31.5938 Z0.2850
 X31.5781 Z0.2613
 X31.5703 Z0.2483
 X31.5664 Z0.2414
 X31.5625 Z0.2343
 X31.5469 Z0.2024
 X31.5391 Z0.1839
 X31.5352 Z0.1738
 X31.5313 Z0.1630
 X31.5234 Z0.1385
 X31.5195 Z0.1242
 X31.5156 Z0.1080
 X31.5078 Z0.0635
 X31.5059 Z0.0459
 X31.5049 Z0.0338
 X31.5044 Z0.0256
 X31.5042 Z0.0204
 X31.5040 Z0.0171
 Z0.0153
 X31.5039 Z0.0143
 Z0.0137
 Z0.0134
 Z0.0132
 X31.5037 Z0.0000
 X10.6875
 X10.6250 Z0.0836
 X10.6172 Z0.1101
 X10.6094 Z0.1311
 X10.5938 Z0.1648
 X10.5781 Z0.1922
 X10.5703 Z0.2043
 X10.5625 Z0.2156
 X10.5469 Z0.2362
 X10.5313 Z0.2548
 X10.5156 Z0.2716
 X10.5078 Z0.2795
 X10.5000 Z0.2871
 X10.4688 Z0.3149
 X10.4375 Z0.3390
 X10.4063 Z0.3604
 X10.3906 Z0.3702
 X10.3750 Z0.3794
 X10.3125 Z0.4116
 X10.2813 Z0.4253
 X10.2500 Z0.4375
 X10.1875 Z0.4582
 X10.1250 Z0.4742
 X10.0625 Z0.4862
 X10.0000 Z0.4944
 X9.8750 Z0.5000
 X9.2500
 X9.1250 Z0.4999
 X9.0625 Z0.4972
 X9.0000 Z0.4910
 X8.9375 Z0.4811
 X8.9063 Z0.4747
 X8.8750 Z0.4672
 X8.8125 Z0.4491
 X8.7813 Z0.4382
 X8.7500 Z0.4261
 X8.6875 Z0.3974
 X8.6563 Z0.3805
 X8.6406 Z0.3713
 X8.6250 Z0.3616
 X8.5938 Z0.3404
 X8.5781 Z0.3288
 X8.5625 Z0.3164
 X8.5313 Z0.2890
 X8.5156 Z0.2736
 X8.5078 Z0.2655
 X8.5039 Z0.2612
 X8.5000 Z0.2569
 X8.4688 Z0.2183
 X8.4531 Z0.1952
 X8.4453 Z0.1824
 X8.4375 Z0.1685
 X8.4063 Z0.0909
 X8.3984 Z0.0556
 X8.3945 Z0.0221
 X8.3940 Z0.0128
 X8.3938 Z0.0000
 X0.5000
 Y40.3374
 X7.9453
 X7.9531 Z0.0343
 X7.9570 Z0.0615
 X7.9609 Z0.0798
 X7.9648 Z0.0946
 X7.9688 Z0.1072
 X7.9766 Z0.1288
 X7.9844 Z0.1470
 X7.9922 Z0.1630
 X7.9961 Z0.1704
 X8.0000 Z0.1774
 X8.0313 Z0.2249
 X8.0469 Z0.2446
 X8.0625 Z0.2624
 X8.0938 Z0.2936
 X8.1094 Z0.3075
 X8.1250 Z0.3204
 X8.1563 Z0.3440
 X8.1875 Z0.3647
 X8.2188 Z0.3833
 X8.2500 Z0.3999
 X8.3125 Z0.4281
 X8.3438 Z0.4400
 X8.3750 Z0.4507
 X8.4375 Z0.4685
 X8.5000 Z0.4820
 X8.5625 Z0.4916
 X8.6250 Z0.4976
 X8.7500 Z0.5000
 X9.4375
 X9.5000 Z0.4987
 X9.5625 Z0.4939
 X9.6250 Z0.4854
 X9.6875 Z0.4731
 X9.7188 Z0.4655
 X9.7500 Z0.4567
 X9.8125 Z0.4357
 X9.8438 Z0.4232
 X9.8594 Z0.4165
 X9.8750 Z0.4093
 X9.9063 Z0.3938
 X9.9375 Z0.3765
 X9.9688 Z0.3572
 X9.9844 Z0.3466
 X9.9922 Z0.3411
 X10.0000 Z0.3354
 X10.0313 Z0.3107
 X10.0469 Z0.2971
 X10.0625 Z0.2824
 X10.0781 Z0.2665
 X10.0938 Z0.2491
 X10.1250 Z0.2085
 X10.1406 Z0.1840
 X10.1484 Z0.1702
 X10.1563 Z0.1550
 X10.1641 Z0.1380
 X10.1680 Z0.1285
 X10.1719 Z0.1183
 X10.1797 Z0.0942
 X10.1836 Z0.0794
 X10.1855 Z0.0708
 X10.1865 Z0.0661
 X10.1870 Z0.0636
 X10.1873 Z0.0623
 X10.1874 Z0.0616
 Z0.0613
 X10.1875 Z0.0610
 X10.1914 Z0.0334
 X10.1924 Z0.0215
 X10.1929 Z0.0117
 X10.1931 Z0.0000
 X31.5000
 X31.5078 Z0.0880
 X31.5117 Z0.1076
 X31.5156 Z0.1240
 X31.5234 Z0.1513
 X31.5313 Z0.1740
 X31.5469 Z0.2114
 X31.5547 Z0.2274
 X31.5625 Z0.2421
 X31.5781 Z0.2684
 X31.5938 Z0.2915
 X31.6094 Z0.3121
 X31.6172 Z0.3216
 X31.6250 Z0.3307
 X31.6563 Z0.3631
 X31.6719 Z0.3773
 X31.6875 Z0.3903
 X31.7188 Z0.4134
 X31.7344 Z0.4236
 X31.7422 Z0.4284
 X31.7500 Z0.4330
 X31.7813 Z0.4496
 X31.7969 Z0.4569
 X31.8125 Z0.4635
 X31.8438 Z0.4750
 X31.8594 Z0.4798
 X31.8672 Z0.4820
 X31.8750 Z0.4841
 X31.9063 Z0.4911
 X31.9375 Z0.4961
 X32.0000 Z0.5000
 X32.5000
 X32.5313 Z0.4990
 X32.5469 Z0.4978
 X32.5625 Z0.4961
 X32.5938 Z0.4911
 X32.6094 Z0.4879
 X32.6172 Z0.4861
 X32.6250 Z0.4841
 X32.6563 Z0.4750
 X32.6719 Z0.4695
 X32.6875 Z0.4635
 X32.7188 Z0.4496
 X32.7344 Z0.4417
 X32.7422 Z0.4374
 X32.7500 Z0.4330
 X32.7813 Z0.4134
 X32.7969 Z0.4023
 X32.8125 Z0.3903
 X32.8438 Z0.3631
 X32.8594 Z0.3476
 X32.8672 Z0.3394
 X32.8711 Z0.3351
 X32.8730 Z0.3329
 X32.8750 Z0.3307
 X32.9063 Z0.2915
 X32.9219 Z0.2684
 X32.9297 Z0.2557
 X32.9336 Z0.2490
 X32.9355 Z0.2456
 X32.9375 Z0.2421
 X32.9531 Z0.2114
 X32.9609 Z0.1937
 X32.9648 Z0.1842
 X32.9688 Z0.1740
 X32.9766 Z0.1513
 X32.9805 Z0.1384
 X32.9844 Z0.1240
 X32.9883 Z0.1076
 X32.9922 Z0.0880
 X32.9961 Z0.0624
 X32.9980 Z0.0442
 X32.9990 Z0.0312
 X32.9995 Z0.0221
 X32.9998 Z0.0156
 X32.9999 Z0.0110
 Z0.0078
 X33.0000 Z0.0055
 Z0.0039
 Z0.0000
 X49.5000
 Y40.7358
 X33.0000
 X32.9922 Z0.0880
 X32.9883 Z0.1076
 X32.9844 Z0.1240
 X32.9766 Z0.1513
 X32.9688 Z0.1740
 X32.9531 Z0.2114
 X32.9453 Z0.2274
 X32.9375 Z0.2421
 X32.9219 Z0.2684
 X32.9063 Z0.2915
 X32.8906 Z0.3121
 X32.8828 Z0.3216
 X32.8750 Z0.3307
 X32.8438 Z0.3631
 X32.8281 Z0.3773
 X32.8125 Z0.3903
 X32.7813 Z0.4134
 X32.7656 Z0.4236
 X32.7578 Z0.4284
 X32.7500 Z0.4330
 X32.7188 Z0.4496
 X32.7031 Z0.4569
 X32.6875 Z0.4635
 X32.6563 Z0.4750
 X32.6406 Z0.4798
 X32.6328 Z0.4820
 X32.6250 Z0.4841
 X32.5938 Z0.4911
 X32.5625 Z0.4961
 X32.5000 Z0.5000
 X32.0000
 X31.9688 Z0.4990
 X31.9531 Z0.4978
 X31.9375 Z0.4961
 X31.9063 Z0.4911
 X31.8906 Z0.4879
 X31.8828 Z0.4861
 X31.8750 Z0.4841
 X31.8438 Z0.4750
 X31.8281 Z0.4695
 X31.8125 Z0.4635
 X31.7813 Z0.4496
 X31.7656 Z0.4417
 X31.7578 Z0.4374
 X31.7500 Z0.4330
 X31.7188 Z0.4134
 X31.7031 Z0.4023
 X31.6875 Z0.3903
 X31.6563 Z0.3631
 X31.6406 Z0.3476
 X31.6328 Z0.3394
 X31.6289 Z0.3351
 X31.6270 Z0.3329
 X31.6250 Z0.3307
 X31.5938 Z0.2915
 X31.5781 Z0.2684
 X31.5703 Z0.2557
 X31.5664 Z0.2490
 X31.5645 Z0.2456
 X31.5625 Z0.2421
 X31.5469 Z0.2114
 X31.5391 Z0.1937
 X31.5352 Z0.1842
 X31.5313 Z0.1740
 X31.5234 Z0.1513
 X31.5195 Z0.1384
 X31.5156 Z0.1240
 X31.5117 Z0.1076
 X31.5078 Z0.0880
 X31.5039 Z0.0624
 X31.5020 Z0.0442
 X31.5010 Z0.0312
 X31.5005 Z0.0221
 X31.5002 Z0.0156
 X31.5001 Z0.0110
 Z0.0078
 X31.5000 Z0.0055
 Z0.0039
 Z0.0000
 X9.7578
 X9.7500 Z0.0206
 X9.7422 Z0.0750
 X9.7383 Z0.0905
 X9.7344 Z0.1037
 X9.7266 Z0.1259
 X9.7188 Z0.1445
 X9.7031 Z0.1754
 X9.6953 Z0.1888
 X9.6875 Z0.2012
 X9.6719 Z0.2234
 X9.6563 Z0.2432
 X9.6406 Z0.2611
 X9.6328 Z0.2695
 X9.6250 Z0.2775
 X9.5938 Z0.3065
 X9.5625 Z0.3317
 X9.5313 Z0.3539
 X9.5156 Z0.3640
 X9.5000 Z0.3736
 X9.4375 Z0.4070
 X9.4063 Z0.4211
 X9.3750 Z0.4338
 X9.3125 Z0.4552
 X9.2500 Z0.4720
 X9.1875 Z0.4846
 X9.1250 Z0.4933
 X9.0000 Z0.5000
 X8.3750
 X8.2500
 X8.1875 Z0.4979
 X8.1250 Z0.4922
 X8.0625 Z0.4829
 X8.0313 Z0.4768
 X8.0000 Z0.4697
 X7.9375 Z0.4523
 X7.9063 Z0.4418
 X7.8750 Z0.4301
 X7.8125 Z0.4023
 X7.7813 Z0.3860
 X7.7656 Z0.3772
 X7.7500 Z0.3678
 X7.7188 Z0.3474
 X7.7031 Z0.3362
 X7.6875 Z0.3244
 X7.6563 Z0.2981
 X7.6406 Z0.2835
 X7.6328 Z0.2757
 X7.6289 Z0.2717
 X7.6250 Z0.2677
 X7.5938 Z0.2314
 X7.5781 Z0.2101
 X7.5703 Z0.1985
 X7.5664 Z0.1923
 X7.5625 Z0.1859
 X7.5469 Z0.1573
 X7.5391 Z0.1406
 X7.5352 Z0.1313
 X7.5313 Z0.1213
 X7.5156 Z0.0668
 X7.5117 Z0.0432
 X7.5098 Z0.0238
 X7.5093 Z0.0154
 X7.5090 Z0.0086
 X7.5089 Z0.0000
 X0.5000
 Y41.1341
 X7.0625
 X7.0781 Z0.0747
 X7.0859 Z0.1058
 X7.0898 Z0.1182
 X7.0938 Z0.1292
 X7.1016 Z0.1486
 X7.1094 Z0.1653
 X7.1172 Z0.1802
 X7.1211 Z0.1871
 X7.1250 Z0.1936
 X7.1563 Z0.2376
 X7.1719 Z0.2560
 X7.1875 Z0.2728
 X7.2188 Z0.3025
 X7.2344 Z0.3158
 X7.2500 Z0.3282
 X7.2813 Z0.3508
 X7.3125 Z0.3708
 X7.3438 Z0.3887
 X7.3750 Z0.4047
 X7.4375 Z0.4320
 X7.4688 Z0.4435
 X7.5000 Z0.4538
 X7.5625 Z0.4709
 X7.6250 Z0.4838
 X7.6875 Z0.4928
 X7.7500 Z0.4982
 X7.8750 Z0.5000
 X8.5000
 X8.5625
 X8.6250 Z0.4982
 X8.6875 Z0.4928
 X8.7500 Z0.4837
 X8.8125 Z0.4708
 X8.8438 Z0.4628
 X8.8750 Z0.4537
 X8.9375 Z0.4319
 X8.9688 Z0.4190
 X8.9844 Z0.4120
 X9.0000 Z0.4046
 X9.0313 Z0.3886
 X9.0625 Z0.3706
 X9.0938 Z0.3506
 X9.1094 Z0.3396
 X9.1172 Z0.3339
 X9.1250 Z0.3280
 X9.1563 Z0.3022
 X9.1719 Z0.2879
 X9.1797 Z0.2803
 X9.1875 Z0.2725
 X9.2500 Z0.1935
 X9.2656 Z0.1664
 X9.2734 Z0.1507
 X9.2813 Z0.1331
 X9.2891 Z0.1124
 X9.2930 Z0.1004
 X9.2969 Z0.0867
 X9.3047 Z0.0484
 X9.3066 Z0.0323
 X9.3076 Z0.0197
 X9.3081 Z0.0078
 X9.3083 Z0.0000
 X31.5000
 X31.5078 Z0.0880
 X31.5117 Z0.1076
 X31.5156 Z0.1240
 X31.5234 Z0.1513
 X31.5313 Z0.1740
 X31.5469 Z0.2114
 X31.5547 Z0.2274
 X31.5625 Z0.2421
 X31.5781 Z0.2684
 X31.5938 Z0.2915
 X31.6094 Z0.3121
 X31.6172 Z0.3216
 X31.6250 Z0.3307
 X31.6563 Z0.3631
 X31.6719 Z0.3773
 X31.6875 Z0.3903
 X31.7188 Z0.4134
 X31.7344 Z0.4236
 X31.7422 Z0.4284
 X31.7500 Z0.4330
 X31.7813 Z0.4496
 X31.7969 Z0.4569
 X31.8125 Z0.4635
 X31.8438 Z0.4750
 X31.8594 Z0.4798
 X31.8672 Z0.4820
 X31.8750 Z0.4841
 X31.9063 Z0.4911
 X31.9375 Z0.4961
 X32.0000 Z0.5000
 X32.5000
 X32.5313 Z0.4990
 X32.5469 Z0.4978
 X32.5625 Z0.4961
 X32.5938 Z0.4911
 X32.6094 Z0.4879
 X32.6172 Z0.4861
 X32.6250 Z0.4841
 X32.6563 Z0.4750
 X32.6719 Z0.4695
 X32.6875 Z0.4635
 X32.7188 Z0.4496
 X32.7344 Z0.4417
 X32.7422 Z0.4374
 X32.7500 Z0.4330
 X32.7813 Z0.4134
 X32.7969 Z0.4023
 X32.8125 Z0.3903
 X32.8438 Z0.3631
 X32.8594 Z0.3476
 X32.8672 Z0.3394
 X32.8711 Z0.3351
 X32.8730 Z0.3329
 X32.8750 Z0.3307
 X32.9063 Z0.2915
 X32.9219 Z0.2684
 X32.9297 Z0.2557
 X32.9336 Z0.2490
 X32.9355 Z0.2456
 X32.9375 Z0.2421
 X32.9531 Z0.2114
 X32.9609 Z0.1937
 X32.9648 Z0.1842
 X32.9688 Z0.1740
 X32.9766 Z0.1513
 X32.9805 Z0.1384
 X32.9844 Z0.1240
 X32.9883 Z0.1076
 X32.9922 Z0.0880
 X32.9961 Z0.0624
 X32.9980 Z0.0442
 X32.9990 Z0.0312
 X32.9995 Z0.0221
 X32.9998 Z0.0156
 X32.9999 Z0.0110
 Z0.0078
 X33.0000 Z0.0055
 Z0.0039
 Z0.0000
 X49.5000
 Y41.5325
 X33.0000
 X32.9922 Z0.0880
 X32.9883 Z0.1076
 X32.9844 Z0.1240
 X32.9766 Z0.1513
 X32.9688 Z0.1740
 X32.9531 Z0.2114
 X32.9453 Z0.2274
 X32.9375 Z0.2421
 X32.9219 Z0.2684
 X32.9063 Z0.2915
 X32.8906 Z0.3121
 X32.8828 Z0.3216
 X32.8750 Z0.3307
 X32.8438 Z0.3631
 X32.8281 Z0.3773
 X32.8125 Z0.3903
 X32.7813 Z0.4134
 X32.7656 Z0.4236
 X32.7578 Z0.4284
 X32.7500 Z0.4330
 X32.7188 Z0.4496
 X32.7031 Z0.4569
 X32.6875 Z0.4635
 X32.6563 Z0.4750
 X32.6406 Z0.4798
 X32.6328 Z0.4820
 X32.6250 Z0.4841
 X32.5938 Z0.4911
 X32.5625 Z0.4961
 X32.5000 Z0.5000
 X32.0000
 X31.9688 Z0.4990
 X31.9531 Z0.4978
 X31.9375 Z0.4961
 X31.9063 Z0.4911
 X31.8906 Z0.4879
 X31.8828 Z0.4861
 X31.8750 Z0.4841
 X31.8438 Z0.4750
 X31.8281 Z0.4695
 X31.8125 Z0.4635
 X31.7813 Z0.4496
 X31.7656 Z0.4417
 X31.7578 Z0.4374
 X31.7500 Z0.4330
 X31.7188 Z0.4134
 X31.7031 Z0.4023
 X31.6875 Z0.3903
 X31.6563 Z0.3631
 X31.6406 Z0.3476
 X31.6328 Z0.3394
 X31.6289 Z0.3351
 X31.6270 Z0.3329
 X31.6250 Z0.3307
 X31.5938 Z0.2915
 X31.5781 Z0.2684
 X31.5703 Z0.2557
 X31.5664 Z0.2490
 X31.5645 Z0.2456
 X31.5625 Z0.2421
 X31.5469 Z0.2114
 X31.5391 Z0.1937
 X31.5352 Z0.1842
 X31.5313 Z0.1740
 X31.5234 Z0.1513
 X31.5195 Z0.1384
 X31.5156 Z0.1240
 X31.5117 Z0.1076
 X31.5078 Z0.0880
 X31.5039 Z0.0624
 X31.5020 Z0.0442
 X31.5010 Z0.0312
 X31.5005 Z0.0221
 X31.5002 Z0.0156
 X31.5001 Z0.0110
 Z0.0078
 X31.5000 Z0.0055
 Z0.0039
 Z0.0000
 X8.8750
 X8.8594 Z0.0652
 X8.8516 Z0.0970
 X8.8438 Z0.1205
 X8.8359 Z0.1398
 X8.8281 Z0.1567
 X8.8203 Z0.1717
 X8.8164 Z0.1787
 X8.8125 Z0.1854
 X8.7969 Z0.2097
 X8.7813 Z0.2310
 X8.7656 Z0.2500
 X8.7578 Z0.2589
 X8.7500 Z0.2673
 X8.7188 Z0.2978
 X8.6875 Z0.3241
 X8.6563 Z0.3472
 X8.6406 Z0.3577
 X8.6250 Z0.3676
 X8.5625 Z0.4022
 X8.5313 Z0.4168
 X8.5000 Z0.4299
 X8.4375 Z0.4522
 X8.3750 Z0.4696
 X8.3125 Z0.4829
 X8.2500 Z0.4922
 X8.1250 Z0.5000
 X8.0000
 X7.5000
 X7.4375 Z0.4979
 X7.4063 Z0.4952
 X7.3906 Z0.4934
 X7.3750 Z0.4914
 X7.3438 Z0.4861
 X7.3281 Z0.4827
 X7.3125 Z0.4787
 X7.2813 Z0.4692
 X7.2656 Z0.4635
 X7.2578 Z0.4605
 X7.2500 Z0.4573
 X7.2188 Z0.4429
 X7.2031 Z0.4346
 X7.1875 Z0.4257
 X7.1563 Z0.4053
 X7.1406 Z0.3939
 X7.1328 Z0.3878
 X7.1289 Z0.3846
 X7.1250 Z0.3814
 X7.0938 Z0.3531
 X7.0781 Z0.3370
 X7.0703 Z0.3283
 X7.0625 Z0.3193
 X7.0000 Z0.2249
 X6.9844 Z0.1912
 X6.9766 Z0.1713
 X6.9688 Z0.1483
 X6.9531 Z0.0835
 X6.9492 Z0.0560
 X6.9473 Z0.0347
 X6.9463 Z0.0155
 X6.9460 Z0.0000
 X0.5000
 Y41.9309
 X7.1719
 X7.1875 Z0.0415
 X7.1914 Z0.0679
 X7.1953 Z0.0865
 X7.2031 Z0.1147
 X7.2109 Z0.1370
 X7.2188 Z0.1560
 X7.2344 Z0.1877
 X7.2422 Z0.2014
 X7.2461 Z0.2079
 X7.2500 Z0.2141
 X7.2813 Z0.2575
 X7.2969 Z0.2759
 X7.3125 Z0.2927
 X7.3438 Z0.3224
 X7.3594 Z0.3357
 X7.3750 Z0.3481
 X7.4063 Z0.3705
 X7.4375 Z0.3903
 X7.4688 Z0.4078
 X7.5000 Z0.4233
 X7.5625 Z0.4492
 X7.5938 Z0.4598
 X7.6094 Z0.4646
 X7.6250 Z0.4691
 X7.6563 Z0.4770
 X7.6875 Z0.4836
 X7.7188 Z0.4883
 X7.7344 Z0.4899
 X7.7422 Z0.4905
 X7.7500 Z0.4910
 X7.7813 Z0.4917
 X7.8125 Z0.4904
 X7.8438 Z0.4871
 X7.8750 Z0.4820
 X7.9375 Z0.4684
 X7.9688 Z0.4601
 X8.0000 Z0.4506
 X8.0625 Z0.4280
 X8.0938 Z0.4146
 X8.1094 Z0.4074
 X8.1250 Z0.3997
 X8.1563 Z0.3831
 X8.1875 Z0.3645
 X8.2188 Z0.3437
 X8.2344 Z0.3323
 X8.2422 Z0.3264
 X8.2500 Z0.3202
 X8.2813 Z0.2933
 X8.2969 Z0.2783
 X8.3047 Z0.2703
 X8.3125 Z0.2620
 X8.3750 Z0.1769
 X8.3828 Z0.1624
 X8.3906 Z0.1463
 X8.3984 Z0.1280
 X8.4023 Z0.1176
 X8.4063 Z0.1063
 X8.4102 Z0.0934
 X8.4141 Z0.0785
 X8.4180 Z0.0597
 X8.4199 Z0.0476
 X8.4209 Z0.0402
 X8.4214 Z0.0359
 X8.4216 Z0.0336
 X8.4218 Z0.0324
 Z0.0317
 Z0.0314
 X8.4219 Z0.0311
 X8.4229 Z0.0177
 X8.4231 Z0.0122
 X8.4232 Z0.0082
 X8.4233 Z0.0052
 Z0.0000
 X31.5000
 X31.5078 Z0.0880
 X31.5117 Z0.1076
 X31.5156 Z0.1240
 X31.5234 Z0.1513
 X31.5313 Z0.1740
 X31.5469 Z0.2114
 X31.5547 Z0.2274
 X31.5625 Z0.2421
 X31.5781 Z0.2684
 X31.5938 Z0.2915
 X31.6094 Z0.3121
 X31.6172 Z0.3216
 X31.6250 Z0.3307
 X31.6563 Z0.3631
 X31.6719 Z0.3773
 X31.6875 Z0.3903
 X31.7188 Z0.4134
 X31.7344 Z0.4236
 X31.7422 Z0.4284
 X31.7500 Z0.4330
 X31.7813 Z0.4496
 X31.7969 Z0.4569
 X31.8125 Z0.4635
 X31.8438 Z0.4750
 X31.8594 Z0.4798
 X31.8672 Z0.4820
 X31.8750 Z0.4841
 X31.9063 Z0.4911
 X31.9375 Z0.4961
 X32.0000 Z0.5000
 X32.5000
 X32.5313 Z0.4990
 X32.5469 Z0.4978
 X32.5625 Z0.4961
 X32.5938 Z0.4911
 X32.6094 Z0.4879
 X32.6172 Z0.4861
 X32.6250 Z0.4841
 X32.6563 Z0.4750
 X32.6719 Z0.4695
 X32.6875 Z0.4635
 X32.7188 Z0.4496
 X32.7344 Z0.4417
 X32.7422 Z0.4374
 X32.7500 Z0.4330
 X32.7813 Z0.4134
 X32.7969 Z0.4023
 X32.8125 Z0.3903
 X32.8438 Z0.3631
 X32.8594 Z0.3476
 X32.8672 Z0.3394
 X32.8711 Z0.3351
 X32.8730 Z0.3329
 X32.8750 Z0.3307
 X32.9063 Z0.2915
 X32.9219 Z0.2684
 X32.9297 Z0.2557
 X32.9336 Z0.2490
 X32.9355 Z0.2456
 X32.9375 Z0.2421
 X32.9531 Z0.2114
 X32.9609 Z0.1937
 X32.9648 Z0.1842
 X32.9688 Z0.1740
 X32.9766 Z0.1513
 X32.9805 Z0.1384
 X32.9844 Z0.1240
 X32.9883 Z0.1076
 X32.9922 Z0.0880
 X32.9961 Z0.0624
 X32.9980 Z0.0442
 X32.9990 Z0.0312
 X32.9995 Z0.0221
 X32.9998 Z0.0156
 X32.9999 Z0.0110
 Z0.0078
 X33.0000 Z0.0055
 Z0.0039
 Z0.0000
 X49.5000
 Y42.3293
 X33.0000
 X32.9922 Z0.0880
 X32.9883 Z0.1076
 X32.9844 Z0.1240
 X32.9766 Z0.1513
 X32.9688 Z0.1740
 X32.9531 Z0.2114
 X32.9453 Z0.2274
 X32.9375 Z0.2421
 X32.9219 Z0.2684
 X32.9063 Z0.2915
 X32.8906 Z0.3121
 X32.8828 Z0.3216
 X32.8750 Z0.3307
 X32.8438 Z0.3631
 X32.8281 Z0.3773
 X32.8125 Z0.3903
 X32.7813 Z0.4134
 X32.7656 Z0.4236
 X32.7578 Z0.4284
 X32.7500 Z0.4330
 X32.7188 Z0.4496
 X32.7031 Z0.4569
 X32.6875 Z0.4635
 X32.6563 Z0.4750
 X32.6406 Z0.4798
 X32.6328 Z0.4820
 X32.6250 Z0.4841
 X32.5938 Z0.4911
 X32.5625 Z0.4961
 X32.5000 Z0.5000
 X32.0000
 X31.9688 Z0.4990
 X31.9531 Z0.4978
 X31.9375 Z0.4961
 X31.9063 Z0.4911
 X31.8906 Z0.4879
 X31.8828 Z0.4861
 X31.8750 Z0.4841
 X31.8438 Z0.4750
 X31.8281 Z0.4695
 X31.8125 Z0.4635
 X31.7813 Z0.4496
 X31.7656 Z0.4417
 X31.7578 Z0.4374
 X31.7500 Z0.4330
 X31.7188 Z0.4134
 X31.7031 Z0.4023
 X31.6875 Z0.3903
 X31.6563 Z0.3631
 X31.6406 Z0.3476
 X31.6328 Z0.3394
 X31.6289 Z0.3351
 X31.6270 Z0.3329
 X31.6250 Z0.3307
 X31.5938 Z0.2915
 X31.5781 Z0.2684
 X31.5703 Z0.2557
 X31.5664 Z0.2490
 X31.5645 Z0.2456
 X31.5625 Z0.2421
 X31.5469 Z0.2114
 X31.5391 Z0.1937
 X31.5352 Z0.1842
 X31.5313 Z0.1740
 X31.5234 Z0.1513
 X31.5195 Z0.1384
 X31.5156 Z0.1240
 X31.5117 Z0.1076
 X31.5078 Z0.0880
 X31.5039 Z0.0624
 X31.5020 Z0.0442
 X31.5010 Z0.0312
 X31.5005 Z0.0221
 X31.5002 Z0.0156
 X31.5001 Z0.0110
 Z0.0078
 X31.5000 Z0.0055
 Z0.0039
 Z0.0000
 X7.9375
 X7.8750 Z0.0367
 X7.8711 Z0.0459
 X7.8672 Z0.0532
 X7.8633 Z0.0593
 X7.8613 Z0.0621
 X7.8594 Z0.0647
 X7.8555 Z0.0694
 X7.8516 Z0.0736
 X7.8477 Z0.0774
 X7.8457 Z0.0791
 X7.8438 Z0.0808
 X7.8398 Z0.0839
 X7.8359 Z0.0867
 X7.8320 Z0.0892
 X7.8281 Z0.0916
 X7.8203 Z0.0955
 X7.8164 Z0.0972
 X7.8145 Z0.0980
 X7.8135 Z0.0984
 X7.8125 Z0.0987
 X7.8047 Z0.1013
 X7.7969 Z0.1031
 X7.7891 Z0.1043
 X7.7852 Z0.1047
 X7.7832 Z0.1049
 X7.7813 Z0.1050
 X7.7734
 X7.7695 Z0.1049
 X7.7656 Z0.1045
 X7.7578 Z0.1034
 X7.7539 Z0.1026
 X7.7520 Z0.1022
 X7.7510 Z0.1019
 X7.7500 Z0.1017
 X7.7422 Z0.0993
 X7.7383 Z0.0979
 X7.7344 Z0.0963
 X7.7266 Z0.0924
 X7.7227 Z0.0902
 X7.7207 Z0.0890
 X7.7188 Z0.0878
 X7.7148 Z0.0851
 X7.7109 Z0.0821
 X7.7070 Z0.0788
 X7.7051 Z0.0770
 X7.7031 Z0.0752
 X7.6992 Z0.0712
 X7.6953 Z0.0667
 X7.6914 Z0.0616
 X7.6895 Z0.0588
 X7.6885 Z0.0573
 X7.6875 Z0.0558
 X7.6836 Z0.0490
 X7.6816 Z0.0451
 X7.6807 Z0.0430
 X7.6797 Z0.0408
 X7.6777 Z0.0358
 X7.6768 Z0.0330
 X7.6758 Z0.0298
 X7.6748 Z0.0263
 X7.6738 Z0.0222
 X7.6729 Z0.0171
 X7.6724 Z0.0138
 X7.6721 Z0.0118
 X7.6720 Z0.0107
 X7.6719 Z0.0100
 Z0.0097
 Z0.0095
 Z0.0094
 X7.6716 Z0.0061
 X7.6714 Z0.0000
 X0.5000
 Y42.7276
 X31.5000
 X31.5078 Z0.0880
 X31.5117 Z0.1076
 X31.5156 Z0.1240
 X31.5234 Z0.1513
 X31.5313 Z0.1740
 X31.5469 Z0.2114
 X31.5547 Z0.2274
 X31.5625 Z0.2421
 X31.5781 Z0.2684
 X31.5938 Z0.2915
 X31.6094 Z0.3121
 X31.6172 Z0.3216
 X31.6250 Z0.3307
 X31.6563 Z0.3631
 X31.6719 Z0.3773
 X31.6875 Z0.3903
 X31.7188 Z0.4134
 X31.7344 Z0.4236
 X31.7422 Z0.4284
 X31.7500 Z0.4330
 X31.7813 Z0.4496
 X31.7969 Z0.4569
 X31.8125 Z0.4635
 X31.8438 Z0.4750
 X31.8594 Z0.4798
 X31.8672 Z0.4820
 X31.8750 Z0.4841
 X31.9063 Z0.4911
 X31.9375 Z0.4961
 X32.0000 Z0.5000
 X32.5000
 X32.5313 Z0.4990
 X32.5469 Z0.4978
 X32.5625 Z0.4961
 X32.5938 Z0.4911
 X32.6094 Z0.4879
 X32.6172 Z0.4861
 X32.6250 Z0.4841
 X32.6563 Z0.4750
 X32.6719 Z0.4695
 X32.6875 Z0.4635
 X32.7188 Z0.4496
 X32.7344 Z0.4417
 X32.7422 Z0.4374
 X32.7500 Z0.4330
 X32.7813 Z0.4134
 X32.7969 Z0.4023
 X32.8125 Z0.3903
 X32.8438 Z0.3631
 X32.8594 Z0.3476
 X32.8672 Z0.3394
 X32.8711 Z0.3351
 X32.8730 Z0.3329
 X32.8750 Z0.3307
 X32.9063 Z0.2915
 X32.9219 Z0.2684
 X32.9297 Z0.2557
 X32.9336 Z0.2490
 X32.9355 Z0.2456
 X32.9375 Z0.2421
 X32.9531 Z0.2114
 X32.9609 Z0.1937
 X32.9648 Z0.1842
 X32.9688 Z0.1740
 X32.9766 Z0.1513
 X32.9805 Z0.1384
 X32.9844 Z0.1240
 X32.9883 Z0.1076
 X32.9922 Z0.0880
 X32.9961 Z0.0624
 X32.9980 Z0.0442
 X32.9990 Z0.0312
 X32.9995 Z0.0221
 X32.9998 Z0.0156
 X32.9999 Z0.0110
 Z0.0078
 X33.0000 Z0.0055
 Z0.0039
 Z0.0000
 X49.5000
 Y43.1260
 X33.0000
 X32.9922 Z0.0880
 X32.9883 Z0.1076
 X32.9844 Z0.1240
 X32.9766 Z0.1513
 X32.9688 Z0.1740
 X32.9531 Z0.2114
 X32.9453 Z0.2274
 X32.9375 Z0.2421
 X32.9219 Z0.2684
 X32.9063 Z0.2915
 X32.8906 Z0.3121
 X32.8828 Z0.3216
 X32.8750 Z0.3307
 X32.8438 Z0.3631
 X32.8281 Z0.3773
 X32.8125 Z0.3903
 X32.7813 Z0.4134
 X32.7656 Z0.4236
 X32.7578 Z0.4284
 X32.7500 Z0.4330
 X32.7188 Z0.4496
 X32.7031 Z0.4569
 X32.6875 Z0.4635
 X32.6563 Z0.4750
 X32.6406 Z0.4798
 X32.6328 Z0.4820
 X32.6250 Z0.4841
 X32.5938 Z0.4911
 X32.5625 Z0.4961
 X32.5000 Z0.5000
 X32.0000
 X31.9688 Z0.4990
 X31.9531 Z0.4978
 X31.9375 Z0.4961
 X31.9063 Z0.4911
 X31.8906 Z0.4879
 X31.8828 Z0.4861
 X31.8750 Z0.4841
 X31.8438 Z0.4750
 X31.8281 Z0.4695
 X31.8125 Z0.4635
 X31.7813 Z0.4496
 X31.7656 Z0.4417
 X31.7578 Z0.4374
 X31.7500 Z0.4330
 X31.7188 Z0.4134
 X31.7031 Z0.4023
 X31.6875 Z0.3903
 X31.6563 Z0.3631
 X31.6406 Z0.3476
 X31.6328 Z0.3394
 X31.6289 Z0.3351
 X31.6270 Z0.3329
 X31.6250 Z0.3307
 X31.5938 Z0.2915
 X31.5781 Z0.2684
 X31.5703 Z0.2557
 X31.5664 Z0.2490
 X31.5645 Z0.2456
 X31.5625 Z0.2421
 X31.5469 Z0.2114
 X31.5391 Z0.1937
 X31.5352 Z0.1842
 X31.5313 Z0.1740
 X31.5234 Z0.1513
 X31.5195 Z0.1384
 X31.5156 Z0.1240
 X31.5117 Z0.1076
 X31.5078 Z0.0880
 X31.5039 Z0.0624
 X31.5020 Z0.0442
 X31.5010 Z0.0312
 X31.5005 Z0.0221
 X31.5002 Z0.0156
 X31.5001 Z0.0110
 Z0.0078
 X31.5000 Z0.0055
 Z0.0039
 Z0.0000
 X0.5000
 Y43.5244
 X31.5000
 X31.5078 Z0.0880
 X31.5117 Z0.1076
 X31.5156 Z0.1240
 X31.5234 Z0.1513
 X31.5313 Z0.1740
 X31.5469 Z0.2114
 X31.5547 Z0.2274
 X31.5625 Z0.2421
 X31.5781 Z0.2684
 X31.5938 Z0.2915
 X31.6094 Z0.3121
 X31.6172 Z0.3216
 X31.6250 Z0.3307
 X31.6563 Z0.3631
 X31.6719 Z0.3773
 X31.6875 Z0.3903
 X31.7188 Z0.4134
 X31.7344 Z0.4236
 X31.7422 Z0.4284
 X31.7500 Z0.4330
 X31.7813 Z0.4496
 X31.7969 Z0.4569
 X31.8125 Z0.4635
 X31.8438 Z0.4750
 X31.8594 Z0.4798
 X31.8672 Z0.4820
 X31.8750 Z0.4841
 X31.9063 Z0.4911
 X31.9375 Z0.4961
 X32.0000 Z0.5000
 X32.5000
 X32.5313 Z0.4990
 X32.5469 Z0.4978
 X32.5625 Z0.4961
 X32.5938 Z0.4911
 X32.6094 Z0.4879
 X32.6172 Z0.4861
 X32.6250 Z0.4841
 X32.6563 Z0.4750
 X32.6719 Z0.4695
 X32.6875 Z0.4635
 X32.7188 Z0.4496
 X32.7344 Z0.4417
 X32.7422 Z0.4374
 X32.7500 Z0.4330
 X32.7813 Z0.4134
 X32.7969 Z0.4023
 X32.8125 Z0.3903
 X32.8438 Z0.3631
 X32.8594 Z0.3476
 X32.8672 Z0.3394
 X32.8711 Z0.3351
 X32.8730 Z0.3329
 X32.8750 Z0.3307
 X32.9063 Z0.2915
 X32.9219 Z0.2684
 X32.9297 Z0.2557
 X32.9336 Z0.2490
 X32.9355 Z0.2456
 X32.9375 Z0.2421
 X32.9531 Z0.2114
 X32.9609 Z0.1937
 X32.9648 Z0.1842
 X32.9688 Z0.1740
 X32.9766 Z0.1513
 X32.9805 Z0.1384
 X32.9844 Z0.1240
 X32.9883 Z0.1076
 X32.9922 Z0.0880
 X32.9961 Z0.0624
 X32.9980 Z0.0442
 X32.9990 Z0.0312
 X32.9995 Z0.0221
 X32.9998 Z0.0156
 X32.9999 Z0.0110
 Z0.0078
 X33.0000 Z0.0055
 Z0.0039
 Z0.0000
 X49.5000
 Y43.9228
 X33.0000
 X32.9922 Z0.0880
 X32.9883 Z0.1076
 X32.9844 Z0.1240
 X32.9766 Z0.1513
 X32.9688 Z0.1740
 X32.9531 Z0.2114
 X32.9453 Z0.2274
 X32.9375 Z0.2421
 X32.9219 Z0.2684
 X32.9063 Z0.2915
 X32.8906 Z0.3121
 X32.8828 Z0.3216
 X32.8750 Z0.3307
 X32.8438 Z0.3631
 X32.8281 Z0.3773
 X32.8125 Z0.3903
 X32.7813 Z0.4134
 X32.7656 Z0.4236
 X32.7578 Z0.4284
 X32.7500 Z0.4330
 X32.7188 Z0.4496
 X32.7031 Z0.4569
 X32.6875 Z0.4635
 X32.6563 Z0.4750
 X32.6406 Z0.4798
 X32.6328 Z0.4820
 X32.6250 Z0.4841
 X32.5938 Z0.4911
 X32.5625 Z0.4961
 X32.5000 Z0.5000
 X32.0000
 X31.9688 Z0.4990
 X31.9531 Z0.4978
 X31.9375 Z0.4961
 X31.9063 Z0.4911
 X31.8906 Z0.4879
 X31.8828 Z0.4861
 X31.8750 Z0.4841
 X31.8438 Z0.4750
 X31.8281 Z0.4695
 X31.8125 Z0.4635
 X31.7813 Z0.4496
 X31.7656 Z0.4417
 X31.7578 Z0.4374
 X31.7500 Z0.4330
 X31.7188 Z0.4134
 X31.7031 Z0.4023
 X31.6875 Z0.3903
 X31.6563 Z0.3631
 X31.6406 Z0.3476
 X31.6328 Z0.3394
 X31.6289 Z0.3351
 X31.6270 Z0.3329
 X31.6250 Z0.3307
 X31.5938 Z0.2915
 X31.5781 Z0.2684
 X31.5703 Z0.2557
 X31.5664 Z0.2490
 X31.5645 Z0.2456
 X31.5625 Z0.2421
 X31.5469 Z0.2114
 X31.5391 Z0.1937
 X31.5352 Z0.1842
 X31.5313 Z0.1740
 X31.5234 Z0.1513
 X31.5195 Z0.1384
 X31.5156 Z0.1240
 X31.5117 Z0.1076
 X31.5078 Z0.0880
 X31.5039 Z0.0624
 X31.5020 Z0.0442
 X31.5010 Z0.0312
 X31.5005 Z0.0221
 X31.5002 Z0.0156
 X31.5001 Z0.0110
 Z0.0078
 X31.5000 Z0.0055
 Z0.0039
 Z0.0000
 X0.5000
 Y44.3211
 X1.0000
 X1.0313 Z0.0864
 X1.0391 Z0.1050
 X1.0430 Z0.1129
 X1.0469 Z0.1202
 X1.0547 Z0.1332
 X1.0586 Z0.1391
 X1.0605 Z0.1419
 X1.0625 Z0.1447
 X1.0781 Z0.1641
 X1.0859 Z0.1725
 X1.0938 Z0.1801
 X1.1094 Z0.1935
 X1.1172 Z0.1995
 X1.1211 Z0.2022
 X1.1230 Z0.2036
 X1.1250 Z0.2049
 X1.1406 Z0.2145
 X1.1563 Z0.2227
 X1.1719 Z0.2295
 X1.1797 Z0.2324
 X1.1836 Z0.2337
 X1.1875 Z0.2350
 X1.2031 Z0.2394
 X1.2109 Z0.2412
 X1.2188 Z0.2427
 X1.2344 Z0.2450
 X1.2422 Z0.2458
 X1.2461 Z0.2461
 X1.2480 Z0.2462
 X1.2500 Z0.2463
 X1.2656 Z0.2466
 X1.2813 Z0.2458
 X1.2969 Z0.2441
 X1.3047 Z0.2429
 X1.3086 Z0.2422
 X1.3125 Z0.2414
 X1.3281 Z0.2376
 X1.3359 Z0.2353
 X1.3438 Z0.2327
 X1.3594 Z0.2266
 X1.3672 Z0.2231
 X1.3711 Z0.2212
 X1.3730 Z0.2203
 X1.3750 Z0.2193
 X1.3906 Z0.2105
 X1.4063 Z0.2001
 X1.4219 Z0.1879
 X1.4297 Z0.1810
 X1.4336 Z0.1773
 X1.4355 Z0.1754
 X1.4375 Z0.1734
 X1.4531 Z0.1560
 X1.4609 Z0.1460
 X1.4648 Z0.1405
 X1.4668 Z0.1376
 X1.4688 Z0.1347
 X1.4766 Z0.1219
 X1.4805 Z0.1147
 X1.4844 Z0.1069
 X1.4883 Z0.0984
 X1.4922 Z0.0889
 X1.4961 Z0.0781
 X1.4980 Z0.0719
 X1.4990 Z0.0687
 X1.4995 Z0.0670
 X1.4998 Z0.0661
 X1.4999 Z0.0656
 Z0.0654
 X1.5000 Z0.0652
 X1.5078 Z0.0218
 X1.5083 Z0.0153
 X1.5085 Z0.0107
 X1.5087 Z0.0073
 Z0.0048
 X1.5088 Z0.0029
 Z0.0008
 Z0.0000
 X31.5000
 X31.5078 Z0.0880
 X31.5117 Z0.1076
 X31.5156 Z0.1240
 X31.5234 Z0.1513
 X31.5313 Z0.1740
 X31.5469 Z0.2114
 X31.5547 Z0.2274
 X31.5625 Z0.2421
 X31.5781 Z0.2684
 X31.5938 Z0.2915
 X31.6094 Z0.3121
 X31.6172 Z0.3216
 X31.6250 Z0.3307
 X31.6563 Z0.3631
 X31.6719 Z0.3773
 X31.6875 Z0.3903
 X31.7188 Z0.4134
 X31.7344 Z0.4236
 X31.7422 Z0.4284
 X31.7500 Z0.4330
 X31.7813 Z0.4496
 X31.7969 Z0.4569
 X31.8125 Z0.4635
 X31.8438 Z0.4750
 X31.8594 Z0.4798
 X31.8672 Z0.4820
 X31.8750 Z0.4841
 X31.9063 Z0.4911
 X31.9375 Z0.4961
 X32.0000 Z0.5000
 X32.5000
 X32.5313 Z0.4990
 X32.5469 Z0.4978
 X32.5625 Z0.4961
 X32.5938 Z0.4911
 X32.6094 Z0.4879
 X32.6172 Z0.4861
 X32.6250 Z0.4841
 X32.6563 Z0.4750
 X32.6719 Z0.4695
 X32.6875 Z0.4635
 X32.7188 Z0.4496
 X32.7344 Z0.4417
 X32.7422 Z0.4374
 X32.7500 Z0.4330
 X32.7813 Z0.4134
 X32.7969 Z0.4023
 X32.8125 Z0.3903
 X32.8438 Z0.3631
 X32.8594 Z0.3476
 X32.8672 Z0.3394
 X32.8711 Z0.3351
 X32.8730 Z0.3329
 X32.8750 Z0.3307
 X32.9063 Z0.2915
 X32.9219 Z0.2684
 X32.9297 Z0.2557
 X32.9336 Z0.2490
 X32.9355 Z0.2456
 X32.9375 Z0.2421
 X32.9531 Z0.2114
 X32.9609 Z0.1937
 X32.9648 Z0.1842
 X32.9688 Z0.1740
 X32.9766 Z0.1513
 X32.9805 Z0.1384
 X32.9844 Z0.1240
 X32.9883 Z0.1076
 X32.9922 Z0.0880
 X32.9961 Z0.0624
 X32.9980 Z0.0442
 X32.9990 Z0.0312
 X32.9995 Z0.0221
 X32.9998 Z0.0156
 X32.9999 Z0.0110
 Z0.0078
 X33.0000 Z0.0055
 Z0.0039
 Z0.0000
 X49.5000
 Y44.7195
 X33.0000
 X32.9922 Z0.0880
 X32.9883 Z0.1076
 X32.9844 Z0.1240
 X32.9766 Z0.1513
 X32.9688 Z0.1740
 X32.9531 Z0.2114
 X32.9453 Z0.2274
 X32.9375 Z0.2421
 X32.9219 Z0.2684
 X32.9063 Z0.2915
 X32.8906 Z0.3121
 X32.8828 Z0.3216
 X32.8750 Z0.3307
 X32.8438 Z0.3631
 X32.8281 Z0.3773
 X32.8125 Z0.3903
 X32.7813 Z0.4134
 X32.7656 Z0.4236
 X32.7578 Z0.4284
 X32.7500 Z0.4330
 X32.7188 Z0.4496
 X32.7031 Z0.4569
 X32.6875 Z0.4635
 X32.6563 Z0.4750
 X32.6406 Z0.4798
 X32.6328 Z0.4820
 X32.6250 Z0.4841
 X32.5938 Z0.4911
 X32.5625 Z0.4961
 X32.5000 Z0.5000
 X32.0000
 X31.9688 Z0.4990
 X31.9531 Z0.4978
 X31.9375 Z0.4961
 X31.9063 Z0.4911
 X31.8906 Z0.4879
 X31.8828 Z0.4861
 X31.8750 Z0.4841
 X31.8438 Z0.4750
 X31.8281 Z0.4695
 X31.8125 Z0.4635
 X31.7813 Z0.4496
 X31.7656 Z0.4417
 X31.7578 Z0.4374
 X31.7500 Z0.4330
 X31.7188 Z0.4134
 X31.7031 Z0.4023
 X31.6875 Z0.3903
 X31.6563 Z0.3631
 X31.6406 Z0.3476
 X31.6328 Z0.3394
 X31.6289 Z0.3351
 X31.6270 Z0.3329
 X31.6250 Z0.3307
 X31.5938 Z0.2915
 X31.5781 Z0.2684
 X31.5703 Z0.2557
 X31.5664 Z0.2490
 X31.5645 Z0.2456
 X31.5625 Z0.2421
 X31.5469 Z0.2114
 X31.5391 Z0.1937
 X31.5352 Z0.1842
 X31.5313 Z0.1740
 X31.5234 Z0.1513
 X31.5195 Z0.1384
 X31.5156 Z0.1240
 X31.5117 Z0.1076
 X31.5078 Z0.0880
 X31.5039 Z0.0624
 X31.5020 Z0.0442
 X31.5010 Z0.0312
 X31.5005 Z0.0221
 X31.5002 Z0.0156
 X31.5001 Z0.0110
 Z0.0078
 X31.5000 Z0.0055
 Z0.0039
 Z0.0000
 X1.8203
 X1.8164 Z0.0416
 X1.8145 Z0.0585
 X1.8135 Z0.0652
 X1.8125 Z0.0714
 X1.7969 Z0.1353
 X1.7891 Z0.1574
 X1.7813 Z0.1765
 X1.7656 Z0.2089
 X1.7578 Z0.2230
 X1.7539 Z0.2297
 X1.7500 Z0.2361
 X1.7188 Z0.2808
 X1.7031 Z0.2998
 X1.6875 Z0.3170
 X1.6563 Z0.3474
 X1.6406 Z0.3609
 X1.6328 Z0.3673
 X1.6250 Z0.3734
 X1.5938 Z0.3959
 X1.5625 Z0.4153
 X1.5313 Z0.4323
 X1.5156 Z0.4398
 X1.5000 Z0.4469
 X1.4688 Z0.4595
 X1.4375 Z0.4702
 X1.4063 Z0.4791
 X1.3906 Z0.4829
 X1.3750 Z0.4864
 X1.3438 Z0.4920
 X1.3125 Z0.4961
 X1.2813 Z0.4983
 X1.2500 Z0.4985
 X1.1250 Z0.4898
 X1.0000 Z0.4728
 X0.8750 Z0.4464
 X0.8125 Z0.4292
 X0.7500 Z0.4089
 X0.6875 Z0.3850
 X0.6563 Z0.3715
 X0.6250 Z0.3568
 X0.5000 Z0.2822
G0 Z25.0000
 Y45.1179
G1 Z0.4954
 X0.6250 Z0.5000
 X0.7500
 X1.4688
 X1.4844 Z0.4999
 X1.5000 Z0.4994
 X1.5313 Z0.4973
 X1.5625 Z0.4937
 X1.5938 Z0.4886
 X1.6094 Z0.4854
 X1.6250 Z0.4819
 X1.6563 Z0.4735
 X1.6719 Z0.4684
 X1.6875 Z0.4628
 X1.7188 Z0.4497
 X1.7344 Z0.4422
 X1.7422 Z0.4382
 X1.7500 Z0.4340
 X1.7813 Z0.4154
 X1.7969 Z0.4048
 X1.8125 Z0.3934
 X1.8438 Z0.3674
 X1.8594 Z0.3527
 X1.8672 Z0.3448
 X1.8711 Z0.3408
 X1.8750 Z0.3366
 X1.9063 Z0.2994
 X1.9219 Z0.2776
 X1.9297 Z0.2657
 X1.9336 Z0.2595
 X1.9375 Z0.2531
 X1.9531 Z0.2247
 X1.9609 Z0.2087
 X1.9648 Z0.2001
 X1.9688 Z0.1910
 X1.9766 Z0.1711
 X1.9844 Z0.1482
 X1.9922 Z0.1205
 X1.9961 Z0.1037
 X1.9980 Z0.0942
 X1.9990 Z0.0890
 X1.9995 Z0.0863
 X1.9998 Z0.0849
 X1.9999 Z0.0842
 Z0.0838
 X2.0000 Z0.0835
 X2.0039 Z0.0560
 X2.0059 Z0.0348
 X2.0068 Z0.0158
 X2.0071 Z0.0028
 X2.0072 Z0.0000
 X31.5000
 X31.5313 Z0.1280
 X31.5391 Z0.1538
 X31.5469 Z0.1754
 X31.5547 Z0.1944
 X31.5586 Z0.2031
 X31.5625 Z0.2114
 X31.5781 Z0.2411
 X31.5938 Z0.2666
 X31.6094 Z0.2890
 X31.6172 Z0.2993
 X31.6211 Z0.3042
 X31.6250 Z0.3090
 X31.6563 Z0.3434
 X31.6719 Z0.3584
 X31.6875 Z0.3721
 X31.7188 Z0.3962
 X31.7344 Z0.4069
 X31.7422 Z0.4119
 X31.7500 Z0.4167
 X31.7813 Z0.4339
 X31.7969 Z0.4414
 X31.8125 Z0.4483
 X31.8438 Z0.4601
 X31.8594 Z0.4651
 X31.8672 Z0.4674
 X31.8750 Z0.4696
 X31.9063 Z0.4768
 X31.9219 Z0.4796
 X31.9375 Z0.4819
 X32.0000 Z0.4859
 X32.5000
 X32.5313 Z0.4849
 X32.5469 Z0.4836
 X32.5625 Z0.4819
 X32.5938 Z0.4768
 X32.6094 Z0.4734
 X32.6172 Z0.4716
 X32.6250 Z0.4696
 X32.6563 Z0.4601
 X32.6719 Z0.4545
 X32.6875 Z0.4483
 X32.7188 Z0.4339
 X32.7344 Z0.4256
 X32.7422 Z0.4212
 X32.7500 Z0.4167
 X32.7813 Z0.3962
 X32.7969 Z0.3847
 X32.8125 Z0.3721
 X32.8281 Z0.3584
 X32.8438 Z0.3434
 X32.8594 Z0.3270
 X32.8672 Z0.3182
 X32.8711 Z0.3137
 X32.8750 Z0.3090
 X32.9063 Z0.2666
 X32.9219 Z0.2411
 X32.9297 Z0.2269
 X32.9336 Z0.2193
 X32.9375 Z0.2114
 X32.9531 Z0.1754
 X32.9609 Z0.1538
 X32.9688 Z0.1280
 X32.9766 Z0.0948
 X32.9805 Z0.0725
 X32.9824 Z0.0581
 X32.9834 Z0.0493
 X32.9839 Z0.0442
 X32.9841 Z0.0415
 X32.9843 Z0.0400
 Z0.0393
 X32.9844 Z0.0385
 X32.9854 Z0.0232
 X32.9858 Z0.0079
 X32.9861 Z0.0000
 X49.5000
 Y45.5163
 X1.9375
 X1.8750 Z0.1065
 X1.8672 Z0.1302
 X1.8594 Z0.1498
 X1.8438 Z0.1818
 X1.8281 Z0.2078
 X1.8203 Z0.2192
 X1.8164 Z0.2246
 X1.8125 Z0.2298
 X1.7969 Z0.2489
 X1.7813 Z0.2657
 X1.7656 Z0.2806
 X1.7578 Z0.2875
 X1.7500 Z0.2940
 X1.7188 Z0.3167
 X1.7031 Z0.3264
 X1.6875 Z0.3352
 X1.6250 Z0.3669
 X1.5625 Z0.3935
 X1.5000 Z0.4161
 X1.3750 Z0.4515
 X1.2500 Z0.4763
 X1.1250 Z0.4919
 X1.0000 Z0.4993
 X0.8750 Z0.5000
 X0.5000
G0 Z25.0000
 Y45.9146
G1 Z0.4848
 X0.6250 Z0.4646
 X0.7500 Z0.4346
 X0.8125 Z0.4153
 X0.8750 Z0.3925
 X0.9375 Z0.3657
 X0.9688 Z0.3505
 X0.9844 Z0.3424
 X1.0000 Z0.3338
 X1.0313 Z0.3156
 X1.0625 Z0.2953
 X1.0938 Z0.2727
 X1.1094 Z0.2603
 X1.1172 Z0.2538
 X1.1211 Z0.2504
 X1.1250 Z0.2470
 X1.1563 Z0.2172
 X1.1719 Z0.2002
 X1.1797 Z0.1910
 X1.1836 Z0.1862
 X1.1875 Z0.1813
 X1.2031 Z0.1598
 X1.2109 Z0.1477
 X1.2148 Z0.1412
 X1.2188 Z0.1344
 X1.2266 Z0.1195
 X1.2305 Z0.1113
 X1.2344 Z0.1024
 X1.2383 Z0.0925
 X1.2422 Z0.0815
 X1.2461 Z0.0686
 X1.2480 Z0.0611
 X1.2490 Z0.0570
 X1.2495 Z0.0549
 X1.2498 Z0.0538
 X1.2499 Z0.0532
 Z0.0529
 X1.2500 Z0.0526
 X1.2539 Z0.0287
 X1.2549 Z0.0183
 X1.2554 Z0.0095
 X1.2556 Z0.0000
 X49.5000
 Y46.3130
 X0.6250
 X0.5000 Z0.1780
G0 Z25.0000
 Y46.7114
G1 Z0.0000
 X49.5000
 Y47.1098
 X0.5000
 Y47.5081
 X49.5000
 Y47.9065
 X0.5000
 Y48.3049
 X49.5000
 Y48.7033
 X0.5000
 Y49.1016
 X49.5000
 Y49.5000
 X0.5000
G0 Z25.0000
M5 (stop spindle)
G04 P3 (wait for 3 seconds)
F200.00000
S1000.00000
;PYCAM_TOOLPATH_SETTINGS: START
;[Bounds]
;maxz = 50.0
;maxx = 48.5
;maxy = 48.5
;minx = 1.5
;miny = 1.5
;minz = 0.0
;
;[Tool]
;torus_radius = 0.25
;speed = 1000.0
;shape = CylindricalCutter
;tool_radius = 1.5
;feedrate = 200.0
;
;[SupportGrid]
;height = 0.5
;average_distance = 30.0
;length = 5.0
;thickness = 0.5
;type = distributed_edges
;
;[Process]
;generator = PushCutter
;pocketing_type = none
;engrave_offset = 0.0
;milling_style = ignore
;path_direction = xy
;step_down = 3.0
;postprocessor = SimpleCutter
;material_allowance = 0.5
;
;PYCAM_TOOLPATH_SETTINGS: END
T1 M6
G0 Z25.0000
M3 (start spindle)
G04 P3 (wait for 3 seconds)
 X1.5000 Y1.5000
G1 Z50.0000
 X48.5000
 Y4.4375
 X1.5000
 Y7.3750
 X48.5000
 Y10.3125
 X1.5000
 Y13.2500
 X48.5000
 Y16.1875
 X1.5000
 Y19.1250
 X48.5000
 Y22.0625
 X1.5000
 Y25.0000
 X48.5000
 Y27.9375
 X1.5000
 Y30.8750
 X48.5000
 Y33.8125
 X1.5000
 Y36.7500
 X48.5000
 Y39.6875
 X1.5000
 Y42.6250
 X48.5000
 Y45.5625
 X1.5000
 Y48.5000
 X48.5000
 Y1.5000
 X45.5625
 Y48.5000
 X42.6250
 Y1.5000
 X39.6875
 Y48.5000
 X36.7500
 Y1.5000
 X33.8125
 Y48.5000
 X30.8750
 Y1.5000
 X27.9375
 Y48.5000
 X25.0000
 Y1.5000
 X22.0625
 Y48.5000
 X19.1250
 Y1.5000
 X16.1875
 Y48.5000
 X13.2500
 Y1.5000
 X10.3125
 Y48.5000
 X7.3750
 Y1.5000
 X4.4375
 Y48.5000
 X1.5000
 Y1.5000
 Z47.0588
 X48.5000
 Y4.4375
 X1.5000
 Y7.3750
 X48.5000
 Y10.3125
 X1.5000
 Y13.2500
 X48.5000
 Y16.1875
 X1.5000
 Y19.1250
 X48.5000
 Y22.0625
 X1.5000
 Y25.0000
 X48.5000
 Y27.9375
 X1.5000
 Y30.8750
 X48.5000
 Y33.8125
 X1.5000
 Y36.7500
 X48.5000
 Y39.6875
 X1.5000
 Y42.6250
 X48.5000
 Y45.5625
 X1.5000
 Y48.5000
 X48.5000
 Y1.5000
 X45.5625
 Y48.5000
 X42.6250
 Y1.5000
 X39.6875
 Y48.5000
 X36.7500
 Y1.5000
 X33.8125
 Y48.5000
 X30.8750
 Y1.5000
 X27.9375
 Y48.5000
 X25.0000
 Y1.5000
 X22.0625
 Y48.5000
 X19.1250
 Y1.5000
 X16.1875
 Y48.5000
 X13.2500
 Y1.5000
 X10.3125
 Y48.5000
 X7.3750
 Y1.5000
 X4.4375
 Y48.5000
 X1.5000
 Y1.5000
 Z44.1176
 X48.5000
 Y4.4375
 X1.5000
 Y7.3750
 X48.5000
 Y10.3125
 X1.5000
 Y13.2500
 X48.5000
 Y16.1875
 X1.5000
 Y19.1250
 X48.5000
 Y22.0625
 X1.5000
 Y25.0000
 X48.5000
 Y27.9375
 X1.5000
 Y30.8750
 X48.5000
 Y33.8125
 X1.5000
 Y36.7500
 X48.5000
 Y39.6875
 X1.5000
 Y42.6250
 X48.5000
 Y45.5625
 X1.5000
 Y48.5000
 X48.5000
 Y1.5000
 X45.5625
 Y48.5000
 X42.6250
 Y1.5000
 X39.6875
 Y48.5000
 X36.7500
 Y1.5000
 X33.8125
 Y48.5000
 X30.8750
 Y1.5000
 X27.9375
 Y48.5000
 X25.0000
 Y1.5000
 X22.0625
 Y48.5000
 X19.1250
 Y1.5000
 X16.1875
 Y48.5000
 X13.2500
 Y1.5000
 X10.3125
 Y48.5000
 X7.3750
 Y1.5000
 X4.4375
 Y48.5000
 X1.5000
 Y1.5000
 Z41.1765
 X48.5000
 Y4.4375
 X1.5000
 Y7.3750
 X48.5000
 Y10.3125
 X1.5000
 Y13.2500
 X48.5000
 Y16.1875
 X1.5000
 Y19.1250
 X48.5000
 Y22.0625
 X1.5000
 Y25.0000
 X48.5000
 Y27.9375
 X1.5000
 Y30.8750
 X48.5000
 Y33.8125
 X1.5000
 Y36.7500
 X48.5000
 Y39.6875
 X1.5000
 Y42.6250
 X48.5000
 Y45.5625
 X1.5000
 Y48.5000
 X48.5000
 Y1.5000
 X45.5625
 Y48.5000
 X42.6250
 Y1.5000
 X39.6875
 Y48.5000
 X36.7500
 Y1.5000
 X33.8125
 Y48.5000
 X30.8750
 Y1.5000
 X27.9375
 Y48.5000
 X25.0000
 Y1.5000
 X22.0625
 Y48.5000
 X19.1250
 Y1.5000
 X16.1875
 Y48.5000
 X13.2500
 Y1.5000
 X10.3125
 Y48.5000
 X7.3750
 Y1.5000
 X4.4375
 Y48.5000
 X1.5000
 Y1.5000
 Z38.2353
 X48.5000
 Y4.4375
 X1.5000
 Y7.3750
 X48.5000
 Y10.3125
 X1.5000
 Y13.2500
 X48.5000
 Y16.1875
 X1.5000
 Y19.1250
 X48.5000
 Y22.0625
 X1.5000
 Y25.0000
 X48.5000
 Y27.9375
 X1.5000
 Y30.8750
 X48.5000
 Y33.8125
 X1.5000
 Y36.7500
 X48.5000
 Y39.6875
 X1.5000
 Y42.6250
 X48.5000
 Y45.5625
 X1.5000
 Y48.5000
 X48.5000
 Y1.5000
 X45.5625
 Y48.5000
 X42.6250
 Y1.5000
 X39.6875
 Y48.5000
 X36.7500
 Y1.5000
 X33.8125
 Y48.5000
 X30.8750
 Y1.5000
 X27.9375
 Y48.5000
 X25.0000
 Y1.5000
 X22.0625
 Y48.5000
 X19.1250
 Y1.5000
 X16.1875
 Y48.5000
 X13.2500
 Y1.5000
 X10.3125
 Y48.5000
 X7.3750
 Y1.5000
 X4.4375
 Y48.5000
 X1.5000
 Y1.5000
 Z35.2941
 X48.5000
 Y4.4375
 X1.5000
 Y7.3750
 X48.5000
 Y10.3125
 X1.5000
 Y13.2500
 X48.5000
 Y16.1875
 X1.5000
 Y19.1250
 X48.5000
 Y22.0625
 X1.5000
 Y25.0000
 X48.5000
 Y27.9375
 X1.5000
 Y30.8750
 X48.5000
 Y33.8125
 X1.5000
 Y36.7500
 X48.5000
 Y39.6875
 X1.5000
 Y42.6250
 X48.5000
 Y45.5625
 X1.5000
 Y48.5000
 X48.5000
 Y1.5000
 X45.5625
 Y48.5000
 X42.6250
 Y1.5000
 X39.6875
 Y48.5000
 X36.7500
 Y1.5000
 X33.8125
 Y48.5000
 X30.8750
 Y1.5000
 X27.9375
 Y48.5000
 X25.0000
 Y1.5000
 X22.0625
 Y48.5000
 X19.1250
 Y1.5000
 X16.1875
 Y48.5000
 X13.2500
 Y1.5000
 X10.3125
 Y48.5000
 X7.3750
 Y1.5000
 X4.4375
 Y48.5000
 X1.5000
 Y1.5000
 Z32.3529
 X48.5000
 Y4.4375
 X1.5000
 Y7.3750
 X48.5000
 Y10.3125
 X1.5000
 Y13.2500
 X48.5000
 Y16.1875
 X1.5000
 Y19.1250
 X48.5000
 Y22.0625
 X1.5000
 Y25.0000
 X48.5000
 Y27.9375
 X1.5000
 Y30.8750
 X48.5000
 Y33.8125
 X1.5000
 Y36.7500
 X48.5000
 Y39.6875
 X1.5000
 Y42.6250
 X48.5000
 Y45.5625
 X1.5000
 Y48.5000
 X48.5000
 Y1.5000
 X45.5625
 Y48.5000
 X42.6250
 Y1.5000
 X39.6875
 Y48.5000
 X36.7500
 Y1.5000
 X33.8125
 Y48.5000
 X30.8750
 Y1.5000
 X27.9375
 Y48.5000
 X25.0000
 Y1.5000
 X22.0625
 Y48.5000
 X19.1250
 Y1.5000
 X16.1875
 Y48.5000
 X13.2500
 Y1.5000
 X10.3125
 Y48.5000
 X7.3750
 Y1.5000
 X4.4375
 Y48.5000
 X1.5000
 Y1.5000
 Z29.4118
 X48.5000
 Y4.4375
 X1.5000
 Y7.3750
 X48.5000
 Y10.3125
 X1.5000
 Y13.2500
 X48.5000
 Y16.1875
 X1.5000
 Y19.1250
 X48.5000
 Y22.0625
 X1.5000
 Y25.0000
 X48.5000
 Y27.9375
 X1.5000
 Y30.8750
 X48.5000
 Y33.8125
 X1.5000
 Y36.7500
 X48.5000
 Y39.6875
 X1.5000
 Y42.6250
 X48.5000
 Y45.5625
 X1.5000
 Y48.5000
 X48.5000
 Y1.5000
 X45.5625
 Y48.5000
 X42.6250
 Y1.5000
 X39.6875
 Y48.5000
 X36.7500
 Y1.5000
 X33.8125
 Y48.5000
 X30.8750
 Y1.5000
 X27.9375
 Y48.5000
 X25.0000
 Y1.5000
 X22.0625
 Y48.5000
 X19.1250
 Y1.5000
 X16.1875
 Y48.5000
 X13.2500
 Y1.5000
 X10.3125
 Y48.5000
 X7.3750
 Y1.5000
 X4.4375
 Y48.5000
 X1.5000
 Y1.5000
 Z26.4706
 X48.5000
 Y4.4375
 X1.5000
 Y7.3750
 X48.5000
 Y10.3125
 X1.5000
 Y13.2500
 X48.5000
 Y16.1875
 X1.5000
 Y19.1250
 X48.5000
 Y22.0625
 X1.5000
 Y25.0000
 X48.5000
 Y27.9375
 X1.5000
 Y30.8750
 X48.5000
 Y33.8125
 X1.5000
 Y36.7500
 X48.5000
 Y39.6875
 X1.5000
 Y42.6250
 X48.5000
 Y45.5625
 X1.5000
 Y48.5000
 X48.5000
 Y1.5000
 X45.5625
 Y48.5000
 X42.6250
 Y1.5000
 X39.6875
 Y48.5000
 X36.7500
 Y1.5000
 X33.8125
 Y48.5000
 X30.8750
 Y1.5000
 X27.9375
 Y48.5000
 X25.0000
 Y1.5000
 X22.0625
 Y48.5000
 X19.1250
 Y1.5000
 X16.1875
 Y48.5000
 X13.2500
 Y1.5000
 X10.3125
 Y48.5000
 X7.3750
 Y1.5000
 X4.4375
 Y48.5000
 X1.5000
 Y1.5000
 Z23.5294
 X48.5000
 Y4.4375
 X1.5000
 Y7.3750
 X48.5000
 Y10.3125
 X1.5000
 Y13.2500
 X48.5000
 Y16.1875
 X1.5000
 Y19.1250
 X48.5000
 Y22.0625
 X1.5000
 Y25.0000
 X48.5000
 Y27.9375
 X1.5000
 Y30.8750
 X48.5000
 Y33.8125
 X1.5000
 Y36.7500
 X48.5000
 Y39.6875
 X1.5000
 Y42.6250
 X48.5000
 Y45.5625
 X1.5000
 Y48.5000
 X48.5000
 Y1.5000
 X45.5625
 Y48.5000
 X42.6250
 Y1.5000
 X39.6875
 Y48.5000
 X36.7500
 Y1.5000
 X33.8125
 Y48.5000
 X30.8750
 Y1.5000
 X27.9375
 Y48.5000
 X25.0000
 Y1.5000
 X22.0625
 Y48.5000
 X19.1250
 Y1.5000
 X16.1875
 Y48.5000
 X13.2500
 Y1.5000
 X10.3125
 Y48.5000
 X7.3750
 Y1.5000
 X4.4375
 Y48.5000
 X1.5000
 Y1.5000
 Z20.5882
 X48.5000
 Y4.4375
 X1.5000
 Y7.3750
 X48.5000
 Y10.3125
 X1.5000
 Y13.2500
 X48.5000
 Y16.1875
 X1.5000
 Y19.1250
 X48.5000
 Y22.0625
 X1.5000
 Y25.0000
 X48.5000
 Y27.9375
 X1.5000
 Y30.8750
 X48.5000
 Y33.8125
 X1.5000
 Y36.7500
 X48.5000
 Y39.6875
 X1.5000
 Y42.6250
 X48.5000
 Y45.5625
 X1.5000
 Y48.5000
 X48.5000
 Y1.5000
 X45.5625
 Y48.5000
 X42.6250
 Y1.5000
 X39.6875
 Y48.5000
 X36.7500
 Y1.5000
 X33.8125
 Y48.5000
 X30.8750
 Y1.5000
 X27.9375
 Y48.5000
 X25.0000
 Y1.5000
 X22.0625
 Y48.5000
 X19.1250
 Y1.5000
 X16.1875
 Y48.5000
 X13.2500
 Y1.5000
 X10.3125
 Y48.5000
 X7.3750
 Y1.5000
 X4.4375
 Y48.5000
 X1.5000
 Y1.5000
 Z17.6471
 X48.5000
 Y4.4375
 X1.5000
 Y7.3750
 X48.5000
 Y10.3125
 X1.5000
 Y13.2500
 X48.5000
 Y16.1875
 X1.5000
 Y19.1250
 X48.5000
 Y22.0625
 X1.5000
 Y25.0000
 X48.5000
 Y27.9375
 X1.5000
 Y30.8750
 X48.5000
 Y33.8125
 X1.5000
 Y36.7500
 X48.5000
 Y39.6875
 X1.5000
 Y42.6250
 X48.5000
 Y45.5625
 X1.5000
 Y48.5000
 X48.5000
G0 Z25.0000
M5 (stop spindle)
G04 P3 (wait for 3 seconds)
F200.00000
S1000.00000
;PYCAM_TOOLPATH_SETTINGS: START
;[Bounds]
;maxz = 50.0
;maxx = 48.5
;maxy = 48.5
;minx = 1.5
;miny = 1.5
;minz = 0.0
;
;[Tool]
;torus_radius = 0.25
;speed = 1000.0
;shape = CylindricalCutter
;tool_radius = 1.5
;feedrate = 200.0
;
;[SupportGrid]
;height = 0.5
;average_distance = 30.0
;length = 5.0
;thickness = 0.5
;type = distributed_edges
;
;[Process]
;generator = DropCutter
;pocketing_type = none
;engrave_offset = 0.0
;milling_style = ignore
;path_direction = x
;step_down = 3.0
;postprocessor = PathAccumulator
;overlap_percent = 60
;material_allowance = 0.0
;
;PYCAM_TOOLPATH_SETTINGS: END
G0 Z25.0000
M3 (start spindle)
G04 P3 (wait for 3 seconds)
 X1.5000 Y1.5000
G1 Z0.5000
 X3.1749
 X3.1753 Z0.0000
 X48.5000
 Y2.6750
 X4.1964
 X4.1960 Z0.5000
 X1.5000
 Y3.8500
 X4.1082
 Z0.0000
 X30.5369
 Z0.5000
 X32.9630
 X32.9637 Z0.0000
 X48.5000
 Y5.0250
 X33.5007
 X33.5000 Z0.5000
 X30.0000
 X29.9997 Z0.0000
 X1.5000
 Y6.2000
 X29.9993
 X30.0000 Z0.5000
 X33.5000
 X33.5003 Z0.0000
 X48.5000
 Y7.3750
 X33.5007
 X33.5000 Z0.5000
 X30.0000
 X29.9997 Z0.0000
 X1.5000
 Y8.5500
 X29.9993
 X30.0000 Z0.5000
 X33.5000
 X33.5003 Z0.0000
 X48.5000
 Y9.7250
 X33.5007
 X33.5000 Z0.5000
 X30.0000
 X29.9997 Z0.0000
 X1.5000
 Y10.9000
 X30.2994
 X30.3002 Z0.5000
 X33.1998
 X33.2002 Z0.0000
 X48.5000
 Y12.0750
 X1.5000
 Y13.2500
 X48.5000
 Y14.4250
 X1.5000
 Y15.6000
 X48.5000
 Y16.7750
 X1.5000
 Y17.9500
 X48.5000
 Y19.1250
 X1.5000
 Y20.3000
 X48.5000
 Y21.4750
 X1.5000
 Y22.6500
 X48.5000
 Y23.8250
 X11.1809
 X11.1802 Z0.5000
 X3.8197
 X3.8190 Z0.0000
 X1.5000
 Y25.0000
 X3.4999
 X3.5006 Z0.5000
 X11.5000
 Z0.0000
 X48.5000
 Y26.1750
 X11.1809
 X11.1802 Z0.5000
 X3.8197
 X3.8190 Z0.0000
 X1.5000
 Y27.3500
 X48.5000
 Y28.5250
 X1.5000
 Y29.7000
 X48.5000
 Y30.8750
 X1.5000
 Y32.0500
 X48.5000
 Y33.2250
 X1.5000
 Y34.4000
 X48.5000
 Y35.5750
 X1.5000
 Y36.7500
 X10.5540
 X10.5542 Z0.5000
 X11.7609
 X11.7616 Z0.0000
 X48.5000
 Y37.9250
 X12.8799
 X12.8792 Z0.5000
 X9.1366
 X9.1359 Z0.0000
 X1.5000
 Y39.1000
 X7.8311
 X7.8318 Z0.5000
 X12.8646
 X12.8650 Z0.0000
 X30.2994
 X30.3002 Z0.5000
 X33.1998
 X33.2002 Z0.0000
 X48.5000
 Y40.2750
 X33.5007
 X33.5000 Z0.5000
 X30.0000
 X29.9997 Z0.0000
 X11.7579
 X11.7550 Z0.5000
 X6.5262
 X6.5259 Z0.0000
 X1.5000
 Y41.4500
 X5.9419
 X5.9427 Z0.5000
 X10.4517
 X10.4520 Z0.0000
 X29.9993
 X30.0000 Z0.5000
 X33.5000
 X33.5003 Z0.0000
 X48.5000
 Y42.6250
 X33.5007
 X33.5000 Z0.5000
 X30.0000
 X29.9997 Z0.0000
 X9.1469
 Z0.5000
 X6.4650
 X6.4643 Z0.0000
 X1.5000
 Y43.8000
 X29.9993
 X30.0000 Z0.5000
 X33.5000
 X33.5003 Z0.0000
 X48.5000
 Y44.9750
 X33.5007
 X33.5000 Z0.5000
 X30.0000
 X29.9997 Z0.0000
 X1.5000
G0 Z25.0000
 Y46.1500
G1 Z0.5000
 X4.1082
 Z0.0000
 X30.5369
 Z0.5000
 X32.9630
 X32.9637 Z0.0000
 X48.5000
 Y47.3250
 X4.1964
 X4.1960 Z0.5000
 X1.5000
 Y48.5000
 X3.1749
 X3.1753 Z0.0000
 X48.5000
G0 Z25.0000
M5 (stop spindle)
G04 P3 (wait for 3 seconds)
F200.00000
S1000.00000
;PYCAM_TOOLPATH_SETTINGS: START
;[Bounds]
;maxz = 50.0
;maxx = 48.5
;maxy = 48.5
;minx = 1.5
;miny = 1.5
;minz = 0.0
;
;[Tool]
;torus_radius = 0.25
;speed = 1000.0
;shape = CylindricalCutter
;tool_radius = 1.5
;feedrate = 200.0
;
;[SupportGrid]
;height = 0.5
;average_distance = 30.0
;length = 5.0
;thickness = 0.5
;type = distributed_edges
;
;[Process]
;generator = PushCutter
;pocketing_type = none
;engrave_offset = 0.0
;milling_style = ignore
;path_direction = xy
;step_down = 3.0
;postprocessor = SimpleCutter
;material_allowance = 0.5
;
;PYCAM_TOOLPATH_SETTINGS: END
G0 Z25.0000
M3 (start spindle)
G04 P3 (wait for 3 seconds)
 X1.5000 Y1.5000
G1 Z50.0000
 X48.5000
 Y4.4375
 X1.5000
 Y7.3750
 X48.5000
 Y10.3125
 X1.5000
 Y13.2500
 X48.5000
 Y16.1875
 X1.5000
 Y19.1250
 X48.5000
 Y22.0625
 X1.5000
 Y25.0000
 X48.5000
 Y27.9375
 X1.5000
 Y30.8750
 X48.5000
 Y33.8125
 X1.5000
 Y36.7500
 X48.5000
 Y39.6875
 X1.5000
 Y42.6250
 X48.5000
 Y45.5625
 X1.5000
 Y48.5000
 X48.5000
 Y1.5000
 X45.5625
 Y48.5000
 X42.6250
 Y1.5000
 X39.6875
 Y48.5000
 X36.7500
 Y1.5000
 X33.8125
 Y48.5000
 X30.8750
 Y1.5000
 X27.9375
 Y48.5000
 X25.0000
 Y1.5000
 X22.0625
 Y48.5000
 X19.1250
 Y1.5000
 X16.1875
 Y48.5000
 X13.2500
 Y1.5000
 X10.3125
 Y48.5000
 X7.3750
 Y1.5000
 X4.4375
 Y48.5000
 X1.5000
 Y1.5000
 Z47.0588
 X48.5000
 Y4.4375
 X1.5000
 Y7.3750
 X48.5000
 Y10.3125
 X1.5000
 Y13.2500
 X48.5000
 Y16.1875
 X1.5000
 Y19.1250
 X48.5000
 Y22.0625
 X1.5000
 Y25.0000
 X48.5000
 Y27.9375
 X1.5000
 Y30.8750
 X48.5000
 Y33.8125
 X1.5000
 Y36.7500
 X48.5000
 Y39.6875
 X1.5000
 Y42.6250
 X48.5000
 Y45.5625
 X1.5000
 Y48.5000
 X48.5000
 Y1.5000
 X45.5625
 Y48.5000
 X42.6250
 Y1.5000
 X39.6875
 Y48.5000
 X36.7500
 Y1.5000
 X33.8125
 Y48.5000
 X30.8750
 Y1.5000
 X27.9375
 Y48.5000
 X25.0000
 Y1.5000
 X22.0625
 Y48.5000
 X19.1250
 Y1.5000
 X16.1875
 Y48.5000
 X13.2500
 Y1.5000
 X10.3125
 Y48.5000
 X7.3750
 Y1.5000
 X4.4375
 Y48.5000
 X1.5000
 Y1.5000
 Z44.1176
 X48.5000
 Y4.4375
 X1.5000
 Y7.3750
 X48.5000
 Y10.3125
 X1.5000
 Y13.2500
 X48.5000
 Y16.1875
 X1.5000
 Y19.1250
 X48.5000
 Y22.0625
 X1.5000
 Y25.0000
 X48.5000
 Y27.9375
 X1.5000
 Y30.8750
 X48.5000
 Y33.8125
 X1.5000
 Y36.7500
 X48.5000
 Y39.6875
 X1.5000
 Y42.6250
 X48.5000
 Y45.5625
 X1.5000
 Y48.5000
 X48.5000
 Y1.5000
 X45.5625
 Y48.5000
 X42.6250
 Y1.5000
 X39.6875
 Y48.5000
 X36.7500
 Y1.5000
 X33.8125
 Y48.5000
 X30.8750
 Y1.5000
 X27.9375
 Y48.5000
 X25.0000
 Y1.5000
 X22.0625
 Y48.5000
 X19.1250
 Y1.5000
 X16.1875
 Y48.5000
 X13.2500
 Y1.5000
 X10.3125
 Y48.5000
 X7.3750
 Y1.5000
 X4.4375
 Y48.5000
 X1.5000
 Y1.5000
 Z41.1765
 X48.5000
 Y4.4375
 X1.5000
 Y7.3750
 X48.5000
 Y10.3125
 X1.5000
 Y13.2500
 X48.5000
 Y16.1875
 X1.5000
 Y19.1250
 X48.5000
 Y22.0625
 X1.5000
 Y25.0000
 X48.5000
 Y27.9375
 X1.5000
 Y30.8750
 X48.5000
 Y33.8125
 X1.5000
 Y36.7500
 X48.5000
 Y39.6875
 X1.5000
 Y42.6250
 X48.5000
 Y45.5625
 X1.5000
 Y48.5000
 X48.5000
 Y1.5000
 X45.5625
 Y48.5000
 X42.6250
 Y1.5000
 X39.6875
 Y48.5000
 X36.7500
 Y1.5000
 X33.8125
 Y48.5000
 X30.8750
 Y1.5000
 X27.9375
 Y48.5000
 X25.0000
 Y1.5000
 X22.0625
 Y48.5000
 X19.1250
 Y1.5000
 X16.1875
 Y48.5000
 X13.2500
 Y1.5000
 X10.3125
 Y48.5000
 X7.3750
 Y1.5000
 X4.4375
 Y48.5000
 X1.5000
 Y1.5000
 Z38.2353
 X48.5000
 Y4.4375
 X1.5000
 Y7.3750
 X48.5000
 Y10.3125
 X1.5000
 Y13.2500
 X48.5000
 Y16.1875
 X1.5000
 Y19.1250
 X48.5000
 Y22.0625
 X1.5000
 Y25.0000
 X48.5000
 Y27.9375
 X1.5000
 Y30.8750
 X48.5000
 Y33.8125
 X1.5000
 Y36.7500
 X48.5000
 Y39.6875
 X1.5000
 Y42.6250
 X48.5000
 Y45.5625
 X1.5000
 Y48.5000
 X48.5000
 Y1.5000
 X45.5625
 Y48.5000
 X42.6250
 Y1.5000
 X39.6875
 Y48.5000
 X36.7500
 Y1.5000
 X33.8125
 Y48.5000
 X30.8750
 Y1.5000
 X27.9375
 Y48.5000
 X25.0000
 Y1.5000
 X22.0625
 Y48.5000
 X19.1250
 Y1.5000
 X16.1875
 Y48.5000
 X13.2500
 Y1.5000
 X10.3125
 Y48.5000
 X7.3750
 Y1.5000
 X4.4375
 Y48.5000
 X1.5000
 Y1.5000
 Z35.2941
 X48.5000
 Y4.4375
 X1.5000
 Y7.3750
 X48.5000
 Y10.3125
 X1.5000
 Y13.2500
 X48.5000
 Y16.1875
 X1.5000
 Y19.1250
 X48.5000
 Y22.0625
 X1.5000
 Y25.0000
 X48.5000
 Y27.9375
 X1.5000
 Y30.8750
 X48.5000
 Y33.8125
 X1.5000
 Y36.7500
 X48.5000
 Y39.6875
 X1.5000
 Y42.6250
 X48.5000
 Y45.5625
 X1.5000
 Y48.5000
 X48.5000
 Y1.5000
 X45.5625
 Y48.5000
 X42.6250
 Y1.5000
 X39.6875
 Y48.5000
 X36.7500
 Y1.5000
 X33.8125
 Y48.5000
 X30.8750
 Y1.5000
 X27.9375
 Y48.5000
 X25.0000
 Y1.5000
 X22.0625
 Y48.5000
 X19.1250
 Y1.5000
 X16.1875
 Y48.5000
 X13.2500
 Y1.5000
 X10.3125
 Y48.5000
 X7.3750
 Y1.5000
 X4.4375
 Y48.5000
 X1.5000
 Y1.5000
 Z32.3529
 X48.5000
 Y4.4375
 X1.5000
 Y7.3750
 X48.5000
 Y10.3125
 X1.5000
 Y13.2500
 X48.5000
 Y16.1875
 X1.5000
 Y19.1250
 X48.5000
 Y22.0625
 X1.5000
 Y25.0000
 X48.5000
 Y27.9375
 X1.5000
 Y30.8750
 X48.5000
 Y33.8125
 X1.5000
 Y36.7500
 X48.5000
 Y39.6875
 X1.5000
 Y42.6250
 X48.5000
 Y45.5625
 X1.5000
 Y48.5000
 X48.5000
 Y1.5000
 X45.5625
 Y48.5000
 X42.6250
 Y1.5000
 X39.6875
 Y48.5000
 X36.7500
 Y1.5000
 X33.8125
 Y48.5000
 X30.8750
 Y1.5000
 X27.9375
 Y48.5000
 X25.0000
 Y1.5000
 X22.0625
 Y48.5000
 X19.1250
 Y1.5000
 X16.1875
 Y48.5000
 X13.2500
 Y1.5000
 X10.3125
 Y48.5000
 X7.3750
 Y1.5000
 X4.4375
 Y48.5000
 X1.5000
 Y1.5000
 Z29.4118
 X48.5000
 Y4.4375
 X1.5000
 Y7.3750
 X48.5000
 Y10.3125
 X1.5000
 Y13.2500
 X48.5000
